/* XPM */
static char *whippet16[] = {
/* columns rows colors chars-per-pixel */
"16 16 89 1 ",
"  c #0D1324",
". c #0E1527",
"X c #0F1729",
"o c #0F182A",
"O c #10182A",
"+ c #10192C",
"@ c #111D2F",
"# c #141C2E",
"$ c #131E30",
"% c #161F31",
"& c #172133",
"* c #132135",
"= c #162135",
"- c #172437",
"; c #182234",
": c #1B2537",
"> c #132338",
", c #132439",
"< c #172438",
"1 c #1B2638",
"2 c #1D2739",
"3 c #18273C",
"4 c #17283D",
"5 c #1D283A",
"6 c #1B293D",
"7 c #1E2B3E",
"8 c #162E45",
"9 c #1A2B40",
"0 c #1B2D42",
"q c #1C2E43",
"w c #192E44",
"e c #1D2F44",
"r c #1E3146",
"t c #1D344A",
"y c #1A374F",
"u c #1B3A53",
"i c #1E3A52",
"p c #213C54",
"a c #23435C",
"s c #224D69",
"d c #25526F",
"f c #2A5673",
"g c #255D7F",
"h c #285B7B",
"j c #315873",
"k c #2F6383",
"l c #326280",
"z c #366380",
"x c #356B8A",
"c c #2B779F",
"v c #39779A",
"b c #34799E",
"n c #2D7DA7",
"m c #357AA0",
"M c #397EA3",
"N c #3B7FA4",
"B c #3984AB",
"V c #3088B3",
"C c #398FBA",
"Z c #4582A4",
"A c #438EB5",
"S c #4790B6",
"D c #5193B6",
"F c #3FB4E9",
"G c #4398C3",
"H c #4C9BC3",
"J c #479FCB",
"K c #4A9FCA",
"L c #529DC3",
"P c #55A6CF",
"I c #44A2D0",
"U c #4BAEDD",
"Y c #56ABD5",
"T c #4FB0DE",
"R c #53B1DE",
"E c #5AB3DF",
"W c #4ABAEE",
"Q c #53B3E1",
"! c #57B6E3",
"~ c #51B6E5",
"^ c #5CBAE7",
"/ c #5ABCE9",
"( c #47BFF6",
") c #51CAFF",
"_ c #56CBFF",
"` c #5BCCFE",
"' c #60CDFE",
"] c #6BD0FF",
"[ c #70D2FF",
/* pixels */
"+;55557qq75555;+",
"&225qrrqqrrq522&",
"122eq1%##%:qe221",
":1eq&OO+OO+=7q1:",
":6tnc@yCd.kN106:",
";0-VF8h)B$KA+=0;",
"19Og(sm_Ji!l.@91",
"16OuWbG~Qx^p.O61",
"<3O*IUTv/YP=.O6<",
"=4+.M`RaE]Z.X+4=",
"%4$ f'H=L[j X$4%",
"@=<XwSl.zDe.O<=@",
"++<=OoX.Xo.X*<++",
"+++<>+XX.X+>,+++",
"O+++$,>**>>$+++O",
"XoooXo+$$+oXoooX"
};
