/* XPM */
static char *whippet128[] = {
/* columns rows colors chars-per-pixel */
"128 128 173 2 ",
"   c #0E1527",
".  c #0F1729",
"X  c #0F182A",
"o  c #101727",
"O  c #101729",
"+  c #11192C",
"@  c #151E31",
"#  c #162133",
"$  c #192436",
"%  c #15253A",
"&  c #1C2739",
"*  c #16293E",
"=  c #1D283B",
"-  c #162B42",
";  c #1A2D42",
":  c #162F48",
">  c #163047",
",  c #1C3146",
"<  c #17334C",
"1  c #1C344B",
"2  c #1F384F",
"3  c #173651",
"4  c #193751",
"5  c #1A3A55",
"6  c #1C3E59",
"7  c #20364D",
"8  c #20384E",
"9  c #203951",
"0  c #203B53",
"q  c #203C53",
"w  c #203D56",
"e  c #203F58",
"r  c #1E415C",
"t  c #214059",
"y  c #20415A",
"u  c #20435E",
"i  c #21445F",
"p  c #22445F",
"a  c #29465F",
"s  c #1C4460",
"d  c #1E4B69",
"f  c #214560",
"g  c #234661",
"h  c #224761",
"j  c #254963",
"k  c #284A63",
"l  c #244E6A",
"z  c #284E6A",
"x  c #2B506B",
"c  c #255574",
"v  c #295572",
"b  c #2D5975",
"n  c #255B7B",
"m  c #2A5D7C",
"M  c #315A75",
"N  c #2E607F",
"B  c #245E81",
"V  c #2C6383",
"C  c #26678B",
"Z  c #2D698C",
"A  c #336482",
"S  c #396481",
"D  c #346A8A",
"F  c #3A6C8B",
"G  c #2C7196",
"H  c #287198",
"J  c #337295",
"K  c #3B7596",
"L  c #34759A",
"P  c #39779A",
"I  c #33799E",
"U  c #3D799B",
"Y  c #2D79A0",
"T  c #2C7EA8",
"R  c #347DA4",
"E  c #3B7EA2",
"W  c #427898",
"Q  c #2F82AC",
"!  c #3B81A6",
"~  c #3584AC",
"^  c #3C86AD",
"/  c #3E88AF",
"(  c #2F8BB9",
")  c #368BB6",
"_  c #3E8AB1",
"`  c #378DB8",
"'  c #3C8EB8",
"]  c #3990BC",
"[  c #4381A4",
"{  c #4287AC",
"}  c #4488AD",
"|  c #4B8AAD",
" . c #438DB4",
".. c #488EB4",
"X. c #4591B7",
"o. c #4594BC",
"O. c #4B95BB",
"+. c #4E98BF",
"@. c #5397BC",
"#. c #3596C4",
"$. c #3E96C2",
"%. c #3D9CCA",
"&. c #3CA3D4",
"*. c #39A6D9",
"=. c #37ADE2",
"-. c #37AEE5",
";. c #38ADE1",
":. c #3DAEE2",
">. c #3EB5EB",
",. c #3CBBF3",
"<. c #3DBFF8",
"1. c #4196C1",
"2. c #4799C2",
"3. c #4A9AC2",
"4. c #449ECA",
"5. c #549DC3",
"6. c #4DA2CB",
"7. c #57A6CD",
"8. c #42A5D3",
"9. c #4CA5D1",
"0. c #4BA8D5",
"q. c #42AADB",
"w. c #4BADDC",
"e. c #52A7D1",
"r. c #54ACD6",
"t. c #5CACD4",
"y. c #53ADD8",
"u. c #4FB1DF",
"i. c #54B2DF",
"p. c #5CB4DF",
"a. c #62B0D7",
"s. c #64B3DB",
"d. c #42AFE2",
"f. c #43B0E3",
"g. c #45B1E3",
"h. c #4BB2E3",
"j. c #4FB4E3",
"k. c #46B7EA",
"l. c #4AB7E8",
"z. c #46B9ED",
"x. c #4CBAEC",
"c. c #51B4E3",
"v. c #5BB6E2",
"b. c #5BB8E5",
"n. c #53BCED",
"m. c #5BBDEB",
"M. c #43BCF3",
"N. c #4EBEF1",
"B. c #40BFF8",
"V. c #66BBE4",
"C. c #69BCE4",
"Z. c #61BEEA",
"A. c #3EC0FA",
"S. c #5BC0EF",
"D. c #4CC1F5",
"F. c #44C1F9",
"G. c #4CC4F9",
"H. c #54C1F3",
"J. c #5BC4F4",
"K. c #54C6FA",
"L. c #58C7FA",
"P. c #56C8FC",
"I. c #5CC9FA",
"U. c #65C2EE",
"Y. c #6DC5EF",
"T. c #62C5F3",
"R. c #66C9F7",
"E. c #6DC9F4",
"W. c #63CBFB",
"Q. c #6BCDFB",
"!. c #70CFFB",
"~. c #6ED0FE",
"^. c #72D1FC",
/* pixels */
". . . . . . . . . . . . . . . . + + @ $ $ & = = = = = = = = = = = = = = = = = = = = = = = = = = = = = = = = = = = = = = = = = = = = = = = = = = = = = = = = = = = = = = = = = = = = = = = = = = = = = = = = = = = = & $ $ @ + + . . . . . . . . . . . . . . . . ",
". . . . . . . . . . . . . . + @ $ & = = = = = = = = = = = = = = = = = = = = = = = = = = = = = = = = = = = = = = = = = = = = = = = = = = = = = = = = = = = = = = = = = = = = = = = = = = = = = = = = = = = = = = = = = = = = = $ @ + . . . . . . . . . . . . . . ",
". . . . . . . . . . . . + # & = = = = = = = = = = = = = = = = = = = = = = = = = = = = = = = = = = = = = = = = = = = = = = = = = = = = = = = = = = = = = = = = = = = = = = = = = = = = = = = = = = = = = = = = = = = = = = = = = = & $ + . . . . . . . . . . . . ",
". . . . . . . . . . + @ & = = = = = = = = = = = = = = = = = = = = = = = = = = = = = = = = = = = = = = = = = = = = = = = = = = = = = = = = = = = = = = = = = = = = = = = = = = = = = = = = = = = = = = = = = = = = = = = = = = = = = = & # + . . . . . . . . . . ",
". . . . . . . . . + $ = = = = = = = = = = = = = = = = = = = = = = = = = = = = = = = = = = = = = = = = = = = = = = = = = = = = = = = = = = = = = = = = = = = = = = = = = = = = = = = = = = = = = = = = = = = = = = = = = = = = = = = = = = $ + . . . . . . . . . ",
". . . . . . . . @ & = = = = = = = = = = = = = = = = = = = = = = = = = = = = = = = = = = = = = = = = = = = = = = = = = = = = = = = = = = = = = = = = = = = = = = = = = = = = = = = = = = = = = = = = = = = = = = = = = = = = = = = = = = = = & @ . . . . . . . . ",
". . . . . . X @ & = = = = = = = = = = = = = = = = = = = = = = = = = = = = = = = = = = = = = = = = = = = = = = = = = = & = = = = & & & = = = = = = = = = = = = = = = = = = = = = = = = = = = = = = = = = = = = = = = = = = = = = = = = = = = = & @ + . . . . . . ",
". . . . . . @ & = = = = = = = = = = = = = = = = = = = = = = = = = = = = = = = = = = = = = = = = = = = = & = = = = ; , , 1 7 7 7 7 7 7 1 , , ; = = = = = = = = = = = = = = = = = = = = = = = = = = = = = = = = = = = = = = = = = = = = = = = = = & @ . . . . . . ",
". . . . . @ & = = = = = = = = = = = = = = = = = = = = = = = = = = = = = = = = = = = = = = = = = = = = ; , 7 q y y i i i f f f f f f f f i i i y y q 7 , ; = = = = = = = = = = = = = = = = = = = = = = = = = = = = = = = = = = = = = = = = = = = = & @ . . . . . ",
". . . . + & = = = = = = = = = = = = = = = = = = = = = = = = = = = = = = = = = = = = = = = = = = , 0 y i i f f f f f f f f f f f f f f f f f f f f f f i u y 0 , ; = & = = = = = = = = = = = = = = = = = = = = = = = = = = = = = = = = = = = = = = = & + . . . . ",
". . . + $ = = = & & & & & & = & = = = = & & & & & = & & = = = = & & & & = = = = & & & = ; 1 w u i f f f f f f i u y w 0 0 8 8 7 7 8 8 0 q w y u i i f f f f f i y w 1 ; = & = = & & & & = = = = & = & & = = = = & & & & & & = & = = = = & & & & = = = $ + . . . ",
". . . @ & & & & & & & & & & & & & & & & & & & & & & & & & & & & & & & & & & & & & = , 0 y f f f f f i y w 7 , ; = = = = = & & & & & & = = = = = ; , 7 w y i f f f f i y 0 , = & & & & & & & & & & & & & & & & & & & & & & & & & & & & & & & & & & & & & @ . . . ",
". . + & & & & & & & & & & & & & & & & & & & & & & & & & & & & & & & & & & & & = , w i f f f f u w 7 , = = & & & & & & & & & & & & & & & & & & & & & & = = , 7 w u i f f f i w , = & & & & & & & & & & & & & & & & & & & & & & & & & & & & & & & & & & & $ + . . ",
". . # & & & & & & & & & & & & & & & & & & & & & & & & & & & & & & & & & & = 1 e i f f f u w 1 ; = & & & & & & & & & & & = & & & & & & & & & & & & & & & & & & = ; 1 w u f f f i e 1 = & & & & & & & & & & & & & & & & & & & & & & & & & & & & & & & & & & # . . ",
". + & & & & & & & & & & & & & & & & & & & & & & & & & & & & & & & & & = , e f f f f y 2 ; = & & & & & & & & & & & & & & & & & & & & & & & & & & & & & & & & & & & & = ; 2 y f f f f e , = & & & & & & & & & & & & & & & & & & & & & & & & & & & & & & & & $ + . ",
". @ & & & & & & & & & & & & & & & & & & & & & & & & & & & & & & & & ; w i f f f e 1 = & & & & & & & & & & & & & & & & & & & & & & & & & & & & & & & & & & & & & & & & & & = 1 e f f f i w ; = & & & & & & & & & & & & & & & & & & & & & & & & & & & & & & & @ . ",
"+ $ & & & & & & & & & & & & & & & & & & & & & & & & & & & & & & = 1 u f f f y 1 = & & & & & & & & & & & & & & & & & & & & & & & & & & & & & & & & & & & & & & & & & & & & & & = 1 y f f f u 1 = & & & & & & & & & & & & & & & & & & & & & & & & & & & & & & $ + ",
"+ & & & & & & & & & & & & & & & & & & & & & & & & & & & & & & ; w f f f y 1 = & & & & & & & & & & & & & & & & & & & & & & & $ $ $ & & & & & & & & & & & & & & & & & & & & & & & & = 1 u f f f w , & & & & & & & & & & & & & & & & & & & & & & & & & & & & & $ + ",
"@ & & & & & & & & & & & & & & & & & & & & & & & & & & & & = 1 u f f u 0 ; & & & & & & & & & & & & & & & & $ $ $ # @ @ + + + + + + + + + + @ @ # $ $ & & & & & & & & & & & & & & & & & ; 0 u f f u 1 = & & & & & & & & & & & & & & & & & & & & & & & & & & & & @ ",
"# & & & & & & & & & & & & & & & & & & & & & & & & & & & = 5 i f i y , = & & & & & & & & & & & & & & $ $ @ + + + + + + + + + + + + + + . + + + + + + + @ # $ $ & & & & & & & & & & & & & = , e i f i 0 = & & & & & & & & & & & & & & & & & & & & & & & & & & & # ",
"$ & & & & & & & & & & & & & & & & & & & & & & & & & & ; w i i i 0 ; & & & & & & & & & & & & & $ # + + + + + O O + + O O + + + + O O O + + + O O + + O O + + + # $ & & & & & & & & & & & & & = 5 i i i w ; & & & & & & & & & & & & & & & & & & & & & & & & & & $ ",
"$ & & & & & & & & & & & & & & & & & & & & & & & & & , y i i u 1 = & & & & & & & & & & & $ $ @ + + + + + + + + + + O O O + + + + O O O O + O O O + + + + O O + + + @ $ & & & & & & & & & & & $ = 1 u i i y , & & & & & & & & & & & & & & & & & & & & & & & & & $ ",
"$ & & & & & & & & & & & & & & & & & & & & & & & & , u i i y , & & & & & & & & & & & & $ + + O . + + + + + + + + + + + O + + + + + + + + + + O O + + + + + + + + + + + + $ $ & & & & & & & & & & & , y i i u , & & & & & & & & & & & & & & & & & & & & & & & & $ ",
"$ & & & & & & & & & & & & & & & & & & & & & & & , u i i w ; & & & & & & & & & & & $ + + O O + O + + + + + O + + + + + + O + + + + + + + + + + + + + + + + + + + + + + + + + $ & & & & & & & & & & & ; w i i u , & & & & & & & & & & & & & & & & & & & & & & & & ",
"& & & & & & & & & & & & & & & & & & & & & & & , u i i w = & & & & & & & & & & $ + + O + + + O O + + O O + + + + + + O O + + + + + + O O O O + + O + + + O O O O + + O + O O + @ $ $ $ & & & & & & & & = w f f u , & & & & & & & & & & & & & & & & & & & & & & & ",
"& & & & & & & & & & & & & & & & & & & & & & , u i i 0 = & & & & & & & & & & # + + . + + + + O + + + O O + + + + + + O O + + + + + + O O + O + + O + + + + O O O + + O O + + + + + # $ & $ & & & & & & & = 0 i f u , & & & & & & & & & & & & & & & & & & & & & & ",
"$ $ $ $ & & & & $ $ $ $ & & & & $ $ $ $ $ ; y i i 0 = $ & & & & $ $ $ $ $ + + + O O + + + + + + + + O O + + + + + + O O + + + + + + + + + + + + O O + + + + + O + + + O + + + + O + + $ $ $ $ & $ $ $ $ $ = w i i y ; & & & $ $ $ $ $ $ & & & & $ $ $ $ & & & & ",
"$ $ $ $ $ $ $ $ $ $ $ $ $ $ $ $ $ $ $ $ ; y i i w = $ $ $ $ $ $ $ $ $ $ + + + + O O O + + + + + + + O + + + O O + + O O O + + + + + + + + + + + O O + + + + + + + + + O + + + + + + + + # $ $ $ $ $ $ $ $ $ = w i i y ; $ $ & $ $ $ $ $ $ $ $ $ $ $ $ $ $ $ $ $ ",
"$ $ $ $ $ $ $ $ $ $ $ $ $ $ $ $ $ $ $ = w i i w = $ $ $ & $ $ $ $ $ # + + + + + + + + + + + + + + + + + + O O O O O O O O O O O O O O + + + O O O + + + + + + + + + + + + + + O + O O O + # $ $ $ $ $ $ $ $ $ = w i i w = $ $ $ $ $ $ $ $ $ $ $ $ $ $ $ $ $ $ $ ",
"$ $ $ $ $ $ $ $ $ $ $ $ $ $ $ $ $ $ & 5 i i y ; $ $ $ $ $ $ $ $ $ @ + O + + + + + + + + + + + + + + O + + + O O O O O + O O + + O O + + + + + O + + + + + + + + + + + + + + O O + + + + + + @ $ $ $ $ $ $ $ & $ ; y i i 5 & $ $ $ $ $ $ $ $ $ $ $ $ $ $ $ $ $ $ ",
"$ $ $ $ & & & $ $ $ $ $ & & & $ $ & 1 i i y , $ $ $ $ $ $ & & $ + + O O + + + + + + O O + O + + + O O O + + + + + + + + + + + + O O + + + + O O + + + + + + O O + + + + + O O O + + + + + + + @ $ $ $ $ $ $ $ $ $ , y i i 1 $ $ $ $ $ $ $ & & $ $ $ $ $ & & & $ ",
"$ $ $ $ & & $ $ $ $ $ $ & & $ $ $ ; y i u 1 & $ $ & $ $ $ $ $ @ + + O O + + + + + + O O O O + + + O O O + + + + + + + + + + + + + + + + + + O O + + + + + + O O O O + + + O O O + + + + + + + + @ $ & $ $ $ $ & $ & 1 u i r ; $ $ $ $ $ & & $ $ $ $ $ $ & & $ $ ",
"$ $ $ $ $ $ $ $ $ $ $ $ $ $ $ $ = 6 i u 5 & $ $ $ $ $ $ $ $ + O o o o o o O + + O O O O O + + + O O O O + + + O o o     . .     O O O + + + + + + + + + + + O O O O + +         o o o o o o o O + @ $ $ $ $ $ $ $ $ & 5 i i 6 = $ $ $ $ $ $ $ $ $ $ $ $ $ $ $ $ ",
"$ $ $ $ $ $ $ $ $ $ $ $ $ $ $ $ 1 u u 6 = $ $ & , 1 1 1 1 > - * * * * * - * + + + + O O + + + + O O + O + + + * * * - * - - - - - - * + + + + + + + O O + + O O + O + + * * = = - - - - - - - = + + @ $ $ $ $ $ $ $ $ = 6 u u 1 & $ $ $ $ $ $ $ $ $ $ $ $ $ $ $ ",
"$ $ $ $ $ $ $ $ $ $ $ $ $ $ $ ; y u u , $ $ $ ; ( -.=.=.=.=.=.=.;.;.;.;.;.&.4 o + + + + + + + + + + + + +   < &.f.d.d.f.g.g.g.g.g.g.8.< o + + + O O O O + + + + + +   5 0.j.j.j.c.c.c.c.c.c.c.X.# O + @ $ $ $ $ $ $ $ $ , u u r ; $ $ $ $ $ $ $ $ $ $ $ $ $ $ $ ",
"$ $ $ $ $ $ $ $ $ $ $ $ $ $ & 5 u u 5 & $ $ $ & T A.<.<.<.<.<.<.A.A.A.A.A.<.n   + + + + + + + + + + + + +   c M.G.G.G.G.G.G.G.G.G.G.D.c   + + + + O O O + + + + + +   m K.L.L.L.P.P.P.P.L.L.I.E + + + + # $ $ $ $ $ $ $ & 5 u u 5 & $ $ $ $ $ $ $ $ $ $ $ $ $ $ ",
"$ $ $ $ $ $ $ $ $ $ $ $ $ $ , u u y = $ $ $ $ # n ,.<.<.<.<.<.<.<.<.<.<.<.F.I + + + + + + + + + + + + + +   G G.G.G.G.G.G.G.G.G.G.G.G.J O + + + + + + + + + + + + + + E P.K.K.L.L.L.L.L.L.L.J.b   + + + + $ $ $ $ $ $ $ $ = 6 u u , $ $ $ $ $ $ $ $ $ $ $ $ $ $ ",
"$ $ $ $ $ $ $ $ $ $ $ $ $ & 6 u u 1 $ $ $ $ $ $ w -.<.<.<.<.<.<.<.<.<.<.B.F.#.# o + + + + + + + + + + + O @ ` G.G.G.G.G.G.G.G.G.G.G.K.' @ O + + + + + + + + + + + O $ 4.P.K.L.L.L.L.L.L.L.I.c.1   + + + + + $ $ $ $ $ $ $ $ 1 u i 6 & $ $ $ $ $ $ $ $ $ $ $ $ $ ",
"$ $ $ $ $ $ $ $ $ $ $ $ $ , u u 6 = $ $ $ $ $ $ - #.A.<.<.<.<.<.<.<.<.A.F.F.:.<   X . X X X + + X . . .   * q.G.G.G.G.G.G.G.G.G.G.G.G.q.*   X + X X X X X X X . +   1 c.L.L.L.L.L.L.L.L.L.I.3.#   X X X + + # $ $ $ $ $ $ $ = 6 u u , $ $ $ $ $ $ $ $ $ $ $ $ $ ",
"$ $ $ $ $ $ $ $ $ $ $ $ & 6 r r , $ $ $ $ $ $ $ # H A.<.<.<.<.<.<.<.A.F.F.F.M.c   . . . . . . . . . . .   6 k.G.G.G.G.G.G.G.G.G.G.G.K.x.6   . . . . . . . . . . .   v H.L.L.L.L.L.L.L.L.I.I.K . . . . . . . + $ $ $ $ $ $ $ $ , r r 6 & $ $ $ $ $ $ $ $ $ $ $ $ ",
"$ $ $ $ $ $ $ $ $ $ $ $ ; r r 6 & $ $ $ $ $ $ $ + d ,.A.<.<.<.<.B.F.F.F.F.F.F.G . . . . . . . . . . . .   n D.G.G.G.G.G.G.G.G.G.G.G.K.D.m   . . . . . . . . . . . . L P.L.L.L.L.L.I.I.I.I.J.z   . . . . . . . + $ $ $ $ $ $ $ & 6 r r ; $ $ $ $ $ $ $ $ $ $ $ $ ",
"$ $ $ $ $ $ $ $ $ $ $ & 5 r r , $ $ $ $ $ $ $ # . : *.A.<.<.<.F.F.F.F.F.F.F.F.] @ . . . . . . . . . . . X I G.G.G.G.G.G.G.G.G.K.G.K.K.P.I . . . . . . . . . . . . # o.P.L.L.L.L.I.I.I.I.I.i.;   . . . . . . . + # $ $ $ $ $ $ $ , r r 5 & $ $ $ $ $ $ $ $ $ $ $ ",
"$ $ $ $ $ $ $ $ $ $ $ - r r 6 = $ $ $ $ $ $ $ + . @ ( A.<.<.F.F.F.F.F.F.F.F.F.:.: . . . . . . . . . . . # $.G.G.G.G.G.G.G.G.K.K.K.K.K.K.$.# . . . . . . . . . .   ; c.L.L.L.L.I.I.I.I.I.I.X.@ . . . . . . . . . + $ $ $ $ $ $ $ = 6 r r - $ $ $ $ $ $ $ $ $ $ $ ",
"$ $ $ $ $ $ $ $ $ $ $ 1 r r 1 $ $ $ $ $ $ $ # + .   C <.<.F.F.F.F.F.F.F.F.F.F.M.d   . . . . . . . . . . : q.G.G.G.G.G.G.G.K.K.K.K.K.K.K.w.:   . . . . . . . . .   z H.L.L.L.I.I.I.I.I.I.I.D   . . . . . . . . . + # $ $ $ $ $ $ $ 1 r r 1 $ $ $ $ $ $ $ $ $ $ $ ",
"$ $ $ $ $ $ $ $ $ $ = 6 r r = $ $ $ $ $ $ $ + . .   s >.F.F.F.F.F.F.F.F.F.F.F.F.Z   . . . . . . . . .   f x.G.G.G.G.G.G.K.K.K.K.K.K.K.K.n.f   . . . . . . . . .   D P.L.L.I.I.I.I.I.I.I.m.f   . . . . . . . . . . + $ $ $ $ $ $ $ = r r 6 = $ $ $ $ $ $ $ $ $ $ ",
"$ $ $ $ $ $ $ $ $ $ > r r 5 $ $ $ $ $ $ $ # + . . . * &.F.F.F.F.F.F.F.F.F.F.F.F.) @ . . . . . . . . .   V G.G.G.G.G.G.G.K.K.K.K.K.K.K.K.K.V   . . . . . . . . . @  .I.L.I.I.I.I.I.I.I.W.r.* . . . . . . . . . . . + # $ $ $ $ $ $ $ 5 r r > $ $ $ $ $ $ $ $ $ $ ",
"$ $ $ $ $ $ $ $ $ $ 1 r r ; $ $ $ $ $ $ $ + . . . . + Q F.F.F.F.F.F.F.F.F.F.F.F.*.- . . . . . . . . . + R G.G.G.G.G.G.G.K.K.K.K.K.K.K.K.P.! + . . . . . . . .   - w.I.I.I.I.I.I.I.I.W.W.{ + . . . . . . . . . . . . + $ $ $ $ $ $ $ , r u 1 $ $ $ $ $ $ $ $ $ $ ",
"$ $ $ $ $ $ $ $ $ & 6 r 6 = $ $ $ $ $ $ # + . . . .   B B.F.F.F.F.F.F.F.F.F.F.F.z.r   . . . . . . . . # 4.G.G.G.K.K.G.K.K.K.K.K.K.K.K.K.P.4.# . . . . . . . .   f n.I.I.I.I.I.I.I.W.W.W.A   . . . . . . . . . . . . + # $ $ $ $ $ $ = 6 r 6 & $ $ $ $ $ $ $ $ $ ",
"$ $ $ $ $ $ $ $ $ - r r 5 $ $ $ $ $ $ $ @ . . . . .   5 >.F.F.F.F.F.F.F.F.F.F.F.G.V   . . . . . . .   < g.G.G.G.G.K.K.K.K.K.K.K.K.K.K.K.L.c.<   . . . . . . .   A I.I.I.I.I.I.I.I.W.W.m.w   . . . . . . . . . . . . . @ $ $ $ $ $ $ $ 5 r r - $ $ $ $ $ $ $ $ $ ",
"$ $ $ $ $ $ $ $ $ < r r , $ $ $ $ $ $ $ + . . . . .   % %.F.F.F.F.F.F.F.F.F.F.G.G.~ +   . . . . . .   l N.G.G.G.K.K.K.K.K.K.K.K.K.K.K.K.L.H.z   . . . . . .   + { I.I.I.I.I.I.I.W.W.W.6.%   . . . . . . . . . . . . . + $ $ $ $ $ $ $ < r r 1 $ $ $ $ $ $ $ $ $ ",
"# # $ $ $ $ $ # $ 5 r 6 = # $ $ # # $ # +     . . .   X Y F.F.F.F.F.F.F.F.F.G.G.G.&.%   . . . . . .   Z G.G.K.K.K.K.K.K.K.K.K.K.K.K.K.K.L.L.D   . . . . . .   % 9.I.I.I.I.I.I.I.W.W.W.E +   . . . . . . . . . . . . . + # $ $ $ # # # = 6 r 5 $ # $ $ $ $ $ $ $ ",
"# # # $ $ $ $ # & 6 r 6 & $ $ $ # # $ @ . . . . . . .   c B.F.F.F.F.F.F.G.G.G.G.G.k.6   . . . . .   + ^ K.K.K.K.K.K.K.K.K.K.K.K.K.K.K.K.L.P._ +   . . . . .   w m.I.I.I.I.W.I.W.W.W.T.b   . . . . . . . . . . . . . . . @ $ $ $ # # # & 6 r 6 & # $ $ $ $ $ $ # ",
"# # $ $ $ $ # # - r r 1 $ # # $ $ $ $ + . . . . . . .   < f.F.F.G.G.G.G.G.G.G.G.G.D.n   . . . . .   % 8.K.K.K.K.K.K.K.K.K.K.K.K.K.K.K.L.L.P.9.%   . . . . .   N I.I.I.I.I.W.W.W.W.W.b.1   . . . . . . . . . . . . . . . + # # # $ $ $ $ 5 r r - # # $ $ $ $ # # ",
"$ # $ $ # $ # # < r r < $ $ $ # $ $ # +   . . . . . .   # $.G.F.G.G.G.G.G.G.G.G.G.G.R X   . . . .   5 l.K.K.K.K.K.K.K.K.K.K.K.K.K.L.L.L.L.P.n.5   . . . .   + ! W.I.W.W.W.W.W.W.W.W.3.#   . . . . . . . . . . . . . . . + # # # $ $ $ $ < r r < # # $ $ $ $ # # ",
"$ $ $ $ $ # # $ 1 r 6 - # $ $ $ $ $ # +   . . . . . .     G G.F.F.G.G.G.G.G.G.G.G.G.%.%   . . . .   c D.K.K.K.K.K.K.K.K.K.K.K.K.K.L.L.L.L.L.J.v   . . . .   $ 6.W.W.W.W.W.W.W.W.W.W.K     . . . . . . . . . . . . . . . + @ $ # $ $ $ # - 6 r 1 $ # # $ $ $ $ # ",
"# # # $ # # # $ 5 r 6 = # # # # $ $ @ + . . . . . . . .   l M.G.G.G.G.G.G.G.G.G.G.G.l.<   . . . .   J K.K.K.K.K.K.K.K.K.K.K.K.K.L.L.L.L.L.L.I.J   . . . .   2 b.W.W.W.W.W.W.W.W.W.T.x   . . . . . . . . . . . . .   . . + @ # # $ $ $ # = 6 r 5 $ # # # # $ # # ",
"# # # # # # # & 6 r 6 & # # # # # # + . . . . . . . . .   : q.G.G.G.G.G.G.G.G.G.G.G.D.c   O . .   @ ' P.K.K.K.K.K.K.K.K.K.L.L.L.L.L.L.L.L.I.I.X.@   . . .   b J.W.W.W.W.W.W.W.W.W.p.;   . . . . . . . . . . . . . . . . . + # # # # # # & 6 r 6 & # # # # # # # ",
"# # # # # # # & 6 r 5 $ # # # # # # + . . . . . . . . .   @ ` G.G.G.G.G.G.G.G.G.G.G.G.L O O . .   * w.K.K.K.K.K.K.K.K.K.L.L.L.L.L.L.L.L.I.I.I.y.*   . . . . U W.W.W.W.W.W.W.W.W.W.O.@   . . . . . . . . . . . . . . . .   + # # # # # # $ 5 r 6 & # # # # # # # ",
"# # # # # # # = 6 r 4 $ # # # # # # + . . . . . . . . . .   Z G.G.G.G.G.G.G.G.G.G.G.G.$.#   . .   r x.K.K.K.K.K.K.K.L.j.c.L.L.L.L.L.L.L.I.I.I.m.y   . .   # 3.W.W.W.W.W.W.W.W.W.W.F   . . . . . . . . . . . . . . . . . . + # # # # # # $ 5 r 6 = # # # # # # # ",
"# # # # # # # - 6 r 1 $ # # # # # # + . . . . . . . . . .   r z.G.G.G.G.G.G.G.G.G.G.G.h.>   . .   m K.K.K.K.K.K.K.K.P._ _ P.L.L.L.L.L.I.I.I.I.J.m   . .   < v.W.W.W.W.W.W.W.W.W.U.i   . . . . . . . . . . . . . . . . . . + # # # # # # $ < r 6 - # # # # # # # ",
"# # # # # # # ; r r < # # # # # # # + . . . . . . . . . .   * 8.G.G.G.G.G.G.G.G.G.G.K.N.l   . . X I P.K.K.K.K.K.K.K.L.A A L.L.L.L.I.I.I.I.I.I.I.U X   .   x J.W.W.W.W.W.W.W.W.W.r.=   . . . . . . . . . . . . . . . . . . + # # # # # # # < r 6 - # # # # # # # ",
"# # # # # # @ ; r r < # # # # # # @ + . . . . . . . . . .   + ~ G.G.G.G.G.G.G.G.K.K.K.K.J   .   # 1.P.K.K.K.K.L.K.L.n.f f n.L.L.I.I.I.I.I.I.I.W.3.#   .   K W.W.W.W.W.W.W.W.W.Q.} +   . . . . . . . . . . . . . . . . . . + @ # # # # # # < r r ; # # # # # # # ",
"# # # # # # @ ; r r < # # # # # # @ +   . . . . . . . . . .   V D.G.G.G.G.G.K.K.K.K.K.P.' @     - u.K.K.K.K.K.L.L.P.i.- - i.I.I.I.I.I.I.I.I.I.W.i.-     @ O.W.W.W.W.W.W.W.W.W.W.S     . . . . . . . . . . . . .   . . . . + @ # # # # # # < r r ; @ # # # # # # ",
"# # # # # # @ ; r r > @ # # # # # @ +   . . . . . . . . . .   6 l.G.G.G.G.K.K.K.K.K.K.K.w.-     f n.K.K.K.K.L.L.L.P.o.# # o.I.I.I.I.I.I.I.I.I.W.S.j     - p.W.W.W.W.W.W.W.W.Q.Z.w   . . . . . . . . . . . . . . . . . . . + @ # # # # # @ < r r ; # # # # # # # ",
"# # # # # # @ ; r r > @ # # # # # @ + . . . . . . . . . . .   % 4.G.G.G.G.K.K.K.K.K.K.K.n.f     V K.K.K.L.L.L.L.L.P.P     P I.I.I.I.I.I.I.I.W.W.W.A     k J.W.W.W.W.W.W.W.W.Q.7.%   . . . . . . . . . . . . . . . . . . . + @ # # # # # @ > r r > # # # # # # # ",
"# # # # # # @ ; r r > @ # # # # # @ + . . . . . . . . . . .   + R G.G.G.K.K.K.K.K.K.K.K.K.Z   + ! P.K.K.L.L.L.L.L.J.b     b J.I.I.I.I.I.W.W.W.W.W.[ +   F W.W.W.W.W.W.W.W.Q.Q.[ X . . . . . . . . . . . . . . . . . . . . + @ # # # # # # > r r ; # # # # # # # ",
"# # # # # # @ ; r r < # # # # # # @ + . . . . . . . . . . . .   c D.K.K.K.K.K.K.K.K.K.K.P._ + # 4.P.K.L.L.L.L.L.L.n.5     5 n.I.I.W.W.W.W.W.W.W.W.6.# + ..W.W.W.W.W.W.Q.Q.Q.R.M   . . . . . . . . . . . . . . . . . . . . + @ # # # # # # < r r ; # # # # # # # ",
"@ @ @ @ @ @ @ - 6 r < # @ @ @ # @ @ +   . . . . . . . . . . .   < h.K.K.K.K.K.K.K.K.K.K.P.0.% < c.L.L.L.L.L.L.L.I.9.%     % 9.I.I.W.W.W.W.W.W.W.W.b., % r.W.W.W.W.Q.Q.Q.Q.Q.Z.1   . . . . . . . . . . . . . . . . . . . . + @ # @ @ @ @ # < r 6 - @ # # # @ @ @ ",
"@ @ @ @ @ @ @ - 6 r < # @ @ @ @ @ @ + . . . . . . . . . . . .   # $.K.K.K.K.K.K.K.K.K.K.K.n.e z H.L.L.L.L.L.L.L.I.^ +     + { W.I.I.W.W.W.W.W.W.W.T.z e Z.W.W.W.Q.Q.Q.Q.Q.Q.5.#   . . . . . . . . . . . . . . . . . . .   + @ @ @ @ @ @ # < 6 6 - @ @ @ @ @ @ @ ",
"@ @ @ @ @ @ @ = 6 r < # @ @ @ @ @ @ + . . . . . . . . . . . .   . J K.K.K.K.K.K.K.K.K.K.K.K.N D L.L.L.L.L.L.I.I.I.D   . .   D I.W.W.W.W.W.W.W.W.W.W.D A W.W.W.W.Q.Q.Q.Q.Q.Q.K .   . . . . . . . . . . . . . . . . . . .   + @ @ @ @ @ @ # < 6 6 = @ @ @ @ @ @ @ ",
"@ @ @ @ @ @ @ & 6 r 5 # @ @ @ @ @ @ + . . . . . . . . . . . . .   z N.K.K.K.K.K.K.K.K.K.L.P./  .P.L.L.L.L.I.I.I.m.j   . .   j S.W.W.W.W.W.W.W.W.W.W...| W.W.W.W.Q.Q.Q.Q.Q.T.x   . . . . . . . . . . . . . . . . . . . .   + @ @ @ @ @ @ # 5 6 6 & @ @ @ @ @ @ @ ",
"@ @ @ @ @ @ @ # 5 r 6 $ @ @ @ @ @ @ + . . . . . . . . . . . . .   ; w.K.K.K.K.K.K.K.K.K.L.L.c.c.L.L.L.L.I.I.I.I.i.-   . .   - i.W.W.W.W.W.W.W.W.W.W.v.v.Q.Q.W.W.Q.Q.Q.Q.Q.p.;   . . . . . . . . . . . . . . . . . . .   . + @ @ @ @ @ @ $ 6 6 5 # @ @ @ @ @ @ @ ",
"@ @ @ @ @ @ @ # 4 r 6 % @ @ @ @ @ @ + . . . . . . . . . . . . .   @ ' P.K.K.K.K.K.K.K.L.L.L.L.L.L.L.L.I.I.I.I.I.o.@   . .   @ +.W.W.W.W.W.W.W.W.W.W.W.W.W.Q.Q.Q.Q.Q.Q.Q.Q.O.@   . . . . . . . . . . . . . . . . . . . . . + @ @ @ @ @ @ % 6 r 4 # @ @ @ @ @ @ @ ",
"@ @ @ @ @ @ @ # < r 6 - @ @ @ @ @ @ + . . . . . . . . . . . . . .   Z K.K.K.K.K.K.K.L.L.L.L.L.L.L.L.I.I.I.I.I.I.P . . . .     U W.W.W.W.W.W.W.W.W.W.W.Q.Q.Q.Q.Q.Q.Q.Q.Q.Q.F   . . . . . . . . . . . . . . . . . . . . . . @ @ @ @ @ @ @ - 6 r < # @ @ @ @ @ @ @ ",
"@ @ @ @ @ @ @ @ ; 6 6 > @ @ @ @ @ @ @ + . . . . . . . . . . . . .   f n.K.K.K.K.L.L.L.L.L.L.L.L.I.I.I.I.I.I.I.J.b   . . . .   b T.W.W.W.W.W.W.W.W.Q.Q.Q.Q.Q.Q.Q.Q.Q.Q.Q.U.i   . . . . . . . . . . . . . . . . . . . . . + @ @ @ @ @ @ @ > 6 6 ; @ @ @ @ @ @ @ @ ",
"@ @ @ @ @ @ @ @ = 6 6 < @ @ @ @ @ @ @ + . . . . . . . . . . . . .   * 0.P.K.K.K.L.L.L.L.L.L.L.I.I.I.I.I.I.I.I.m.5   . . . .   5 m.W.W.W.W.W.W.W.Q.Q.Q.Q.Q.Q.Q.Q.Q.Q.Q.Q.t.*   . . . . . . . . . . . . . . . . . . . . . + @ @ @ @ @ @ # < 6 6 = @ @ @ @ @ @ @ @ ",
"@ @ @ @ @ @ @ @ % 5 6 4 # @ @ @ @ @ @ + . . . . . . . . . . . . .   + ^ P.K.L.L.L.L.L.L.L.L.I.I.I.I.I.I.I.I.W.e.%   . . . .   % e.W.W.W.W.W.W.W.Q.Q.Q.Q.Q.Q.Q.Q.Q.Q.Q.~.| +   . . . . . . . . . . . . . . . . . . . . . + @ @ @ @ @ @ # 5 6 5 % @ @ @ @ @ @ @ @ ",
"@ @ @ @ @ @ @ @ # 4 6 6 * @ @ @ @ @ @ @ . . . . . . . . . . . . . .   V K.L.L.L.L.L.L.L.L.I.I.I.I.I.I.I.I.W.W.{ +   . . . .   + } W.W.W.W.Q.Q.Q.Q.Q.Q.Q.Q.Q.Q.Q.Q.Q.Q.Q.S   . . . . . . . . . . . . . . . . . . . . . . @ @ @ @ @ @ @ * 6 6 4 # @ @ @ @ @ @ @ @ ",
"@ @ @ @ @ @ @ @ @ < 6 6 ; @ @ @ @ @ @ @ + . . . . . . .         . .   6 n.L.L.L.L.L.L.I.I.I.I.I.I.I.I.I.W.W.W.D   . . .   . .   D W.W.W.Q.Q.Q.Q.Q.Q.Q.Q.Q.Q.Q.Q.Q.Q.Q.U.w   . . . . . .         . . . . . . . . . .   + @ @ @ @ @ @ @ ; 6 6 < @ @ @ @ @ @ @ @ @ ",
"@ @ @ @ @ @ @ @ @ = 6 6 < # @ @ @ @ @ @ +                             $ 6.P.L.L.L.L.L.I.I.I.I.I.I.I.I.W.W.W.S.j                 j T.W.W.Q.Q.Q.Q.Q.Q.Q.Q.Q.Q.Q.Q.Q.Q.~.7.$                                             + @ @ @ @ @ @ # < 6 6 = @ @ @ @ @ @ @ @ @ ",
"@ @ @ @ @ @ @ @ @ # 4 6 5 % @ @ @ @ @ @ + O                           X E P.L.L.L.L.I.I.I.I.I.I.I.I.I.W.W.W.i.-                 - v.W.W.Q.Q.Q.Q.Q.Q.Q.Q.Q.Q.Q.Q.Q.Q.^.[ X                                           X + @ @ @ @ @ @ % 5 6 4 # @ @ @ @ @ @ @ @ @ ",
"@ @ @ @ @ @ @ @ @ @ < 6 6 - @ @ @ @ @ @ @ +                             b J.L.L.L.I.I.I.I.I.I.I.I.I.I.W.W.W.+.@                 @ +.Q.Q.Q.Q.Q.Q.Q.Q.Q.Q.Q.Q.Q.Q.Q.!.E.M                                             + @ @ @ @ @ @ @ - 6 6 < @ @ @ @ @ @ @ @ @ @ ",
"@ @ @ @ @ @ @ @ @ @ - 5 6 < @ @ @ @ @ @ @ + .                           < c.L.L.I.I.I.I.I.I.I.I.I.W.W.W.W.W.U                     U Q.Q.Q.Q.Q.Q.Q.Q.Q.Q.Q.Q.Q.Q.!.^.V.1                                           . + @ @ @ @ @ @ @ < 6 5 - @ @ @ @ @ @ @ @ @ @ ",
"@ @ @ @ @ @ @ @ @ @ # 4 6 5 % @ @ @ @ @ @ @ +                           # 2.I.I.I.I.I.I.I.I.I.I.W.W.W.W.W.T.b                     b R.Q.Q.Q.Q.Q.Q.Q.Q.Q.Q.Q.Q.Q.!.^.5.#                                           + @ @ @ @ @ @ @ % 5 6 4 # @ @ @ @ @ @ @ @ @ @ ",
"@ @ @ @ @ @ @ @ @ @ @ < 6 6 ; @ @ @ @ @ @ @ + .                           K I.I.I.I.I.I.I.W.W.W.W.W.W.W.W.m.5                     0 Z.Q.Q.Q.Q.Q.Q.Q.Q.Q.Q.Q.Q.!.!.^.W                                   . . .   . + @ @ @ @ @ @ @ ; 6 6 < @ @ @ @ @ @ @ @ @ @ @ ",
"@ @ @ @ @ @ @ @ @ @ + * 5 6 4 # + @ @ @ @ @ @ +                           z J.I.I.I.I.I.W.W.W.W.W.W.W.W.W.e.%                     % t.Q.Q.Q.Q.Q.Q.Q.Q.Q.Q.!.!.!.^.E.x                                     . .   + @ @ @ @ @ @ @ # 4 6 5 * @ @ @ @ @ @ @ @ @ @ @ ",
"+ + + + @ @ @ @ + + + @ < 6 6 - + + + + @ @ @ + .                         - i.I.I.I.W.W.W.W.W.W.W.W.W.W.W.} +                     + | ~.Q.Q.Q.Q.Q.Q.Q.Q.!.!.!.!.^.s.-                                         . + @ @ + @ @ @ + - 6 6 < # @ + + + + + + + + + @ ",
"+ + + + + + + + + + + + * 5 6 4 # + + + @ @ + + +                         + X.I.I.W.W.W.W.W.W.W.W.W.W.W.W.D                         F Q.Q.Q.Q.Q.Q.Q.!.!.!.!.!.!.^.@.+                                         + + + + + + + + # 4 6 5 * + + + + + + + + + + + + ",
"+ + @ @ @ + + + + + + + # 4 6 6 - @ @ @ + + + + + X     . . . .             D I.I.I.W.W.W.W.W.W.W.W.W.W.T.j                         k T.Q.Q.Q.Q.Q.Q.!.!.!.!.!.^.^.F                                         . + @ @ @ @ + + + - 6 6 4 # + + @ @ + + + + + + + + ",
"+ + @ @ @ + + + + + + + @ - 6 6 4 # @ @ + + + + + + .     .                 i m.W.W.W.W.W.W.W.W.W.W.W.W.v.-                         - s.Q.Q.Q.Q.Q.!.!.!.!.!.^.^.Y.a                                       . + + @ @ @ @ + + # 4 6 6 - + + + @ @ + + + + @ @ @ @ ",
"+ @ @ @ + + + + + + @ @ @ # 4 6 6 : @ @ + + + + + + +                       * r.W.W.W.W.W.W.W.W.W.W.W.W.+.@                         @ @.^.Q.Q.!.Q.!.!.!.!.^.^.^.a.=                                       + + + @ + + + + + : 6 6 < # + + + @ @ + + @ @ @ @ @ @ ",
"+ @ @ @ + + + + + + + @ @ @ * 5 6 5 % + @ + + @ + + + .                     + { W.W.W.W.W.W.W.W.W.W.W.W.U                             W ^.Q.!.!.!.!.!.!.^.^.^.^.| +                                     . + + + @ + + + + % 5 6 5 * + + + + + @ + + @ @ @ @ @ @ ",
"@ @ @ + @ @ @ @ @ @ @ @ @ + @ < 6 6 < @ @ @ @ @ + + + + .                     A W.W.W.W.W.W.W.W.W.W.W.W.b                             M Q.^.^.^.^.^.^.^.^.^.^.!.S                               . . . . + @ @ @ + + + + @ < 6 6 < @ @ @ @ + + + @ @ @ @ @ @ @ @ ",
"@ @ @ + @ @ @ @ @ @ @ @ + + + % 5 6 5 * @ @ @ @ + + + + +                     5 r.b.v.b.b.b.b.b.b.b.b.r.1                             7 t.V.V.V.V.V.V.V.C.C.C.a.0                                   . + @ @ @ @ + + + + - 5 6 5 % + @ @ + + + + + + @ @ @ @ @ @ ",
"+ + + + + + + + + + + + + + + + : 5 6 4 % + + + + + + + + +                   X * * * * = = = = = = = * O                             X * = = = = = = = = = = * +                                   + + + + + + + + + # 4 6 5 : @ + + + + + + + + + + + + + + + ",
"+ + + + + + + + + + + + + + + + @ < 5 5 < @ + + + + + + + + +                                                                                                                                     + + + + + + + + + @ < 5 6 < # + + + + + + + + + + + + + + + + ",
"+ + + + + + + + + + + + + + + + + % 5 6 5 : + + + + + + + + + + . . . .                                                                                                                 . . . . + + + + + + + + + @ - 5 6 5 % + + + + + + + + + + + + + + + + + ",
"+ + + + + + + + + + + + + + + + + + - 5 6 5 * + + + + + + + + + + . . .                                                                                                                 . . . + + + + + + + + + + * 5 6 5 - + + + + + + + + + + + + + + + + + + ",
"+ + + + + + + + + + + + + + + + + + @ > 6 6 4 % + + + + + + + + + + . .                                                                                                                   . + + + + + + + + + + % 4 6 6 > @ + + + + + + + + + + + + + + + + + + ",
"+ + + + + + + + + + + + + + + + + + + # < 6 6 < # + + + + + + + + + + .                                                                                                                 . + + + + + + + + + + # 4 6 6 < # + + + + + + + + + + + + + + + + + + + ",
"+ + + + + + + + + + + + + + + + + + + + % 4 6 6 < # + + + + + + + + + + . .                                                                                                           . + + + + + + + + + + # < 6 6 4 % + + + + + + + + + + + + + + + + + + + + ",
"+ + + + + + + + + + + + + + + + + + + + + % 4 5 6 < # + + + + + + + + + + +                                                                                                         . + + + + + + + + + + # < 5 5 5 * + + + + + + + + + + + + + + + + + + + + + ",
"+ + + + + + + + + + + + + + + + + + + + + + * 4 5 5 < # + + + + + + + + + + + .                                                                                                 . + + + + + + + + + + + # < 5 5 5 * + + + + + + + + + + + + + + + + + + + + + + ",
"+ + + + + + + + + + + + + + + + + + + + + + + * 5 5 5 < # + + + + + + + + + + + .                                                                                             . + + + + + + + + + + + # < 5 5 5 * + + + + + + + + + + + + + + + + + + + + + + + ",
"+ + + + + + + + + + + + + + + + + + + + + + + + * 4 5 5 < % + + + + + + + + + + + + .                                                                                     . + + + + + + + + + + + + % < 5 5 4 * + + + + + + + + + + + + + + + + + + + + + + + + ",
"+ + + + + + + + + + + + + + + + + + + + + + + + + * 4 5 5 4 * + + + + + + + + + + + + + .                                                                             . + + + + + + + + + + + + + * 4 5 5 4 * + + + + + + + + + + + + + + + + + + + + + + + + + ",
"+ + + + + + + + + + + + + + + + + + + + + + + + + + % 4 5 5 5 - @ + + + + + + + + + + + + + . .                                                                   . + + + + + + + + + + + + + @ - 5 5 5 4 % + + + + + + + + + + + + + + + + + + + + + + + + + + ",
"+ + + + + + + + + + + + + + + + + + + + + + + + + + + # < 5 5 5 > # + + + + + + + + + + + + + + + .                                                         . X + + + + + + + + + + + + + + # > 5 5 5 < % + + + + + + + + + + + + + + + + + + + + + + + + + + + ",
"+ + + + + + + + + + + + + + + + + + + + + + + + + + + + @ : 5 5 5 4 * @ + + + + + + + + + + + + + + + + . .                                         . . X + + + + + + + + + + + + + + + + * 3 5 5 5 > @ + + + + + + + + + + + + + + + + + + + + + + + + + + + + ",
"+ + + + + + + + + + + + + + + + + + + + + + + + + + + + + + - 4 5 5 5 > # + + + + + + + + + + + + + + + + + + + X . .   .               . . . X + + + + + + + + + + + + + + + + + + + # > 5 5 5 4 - + + + + + + + + + + + + + + + + + + + + + + + + + + + + + + ",
"X + + + + + + + + + + + + + + + + + + + + + + + + + + + + + + % < 5 5 5 4 - @ + + + + + + + + + + + + + + + + + + + + + + + + + + + + + + + + + + + + + + + + + + + + + + + + + + @ - 4 5 5 5 < % + + + + + + + + + + + + + + + + + + + + + + + + + + + + + + . ",
". + + + + + + + + + + + + + + + + + + + + + + + + + + + + + + + @ - 4 5 5 5 < * @ + + + + + + + + + + + + + + + + + + + + + + + + + + + + + + + + + + + + + + + + + + + + + + @ * < 5 5 5 4 - @ + + + + + + + + + + + + + + + + + + + + + + + + + + + + + + + . ",
". + + + + + + + + + + + + + + + + + + + + + + + + + + + + + + + + + # > 5 5 5 5 < - @ + + + + + + + + + + + + + + + + + + + + + + + + + + + + + + + + + + + + + + + + + + @ - < 5 5 5 5 > # + + + + + + + + + + + + + + + + + + + + + + + + + + + + + + + + + . ",
". X + + + + + + + + + + + + + + + + + + + + + + + + + + + + + + + + + + * < 5 5 5 5 < - # + + + + + + + + + + + + + + + + + + + + + + + + + + + + + + + + + + + + + + # - < 5 5 5 5 < % + + + + + + + + + + + + + + + + + + + + + + + + + + + + + + + + + + . . ",
". . + + + + + + + + + + + + + + + + + + + + + + + + + + + + + + + + + + + @ * < 5 5 5 5 4 > * # + + + + + + + + + + + + + + + + + + + + + + + + + + + + + + + + @ * > 4 5 5 5 5 < * @ + + + + + + + + + + + + + + + + + + + + + + + + + + + + + + + + + + + . . ",
". . . + + + + + + + + + + + + + + + + + + + + + + + + + + + + + + + + + + + + @ % > 4 5 5 5 5 3 > - % @ + + + + X + + + + + + + + + + + + + + + X X X + @ % - > 3 5 5 5 5 5 > % @ + + + + + + + + + + + + + + + + + + + + + + + + + + + + + + + + + + + + . . . ",
". . . X + + + + + + + + + + + + X X + + + + + + + + + + + + + + + + + + + X X X + + % : < 5 5 5 5 5 4 < > - % # @ + + + + + + + X X + + + + + @ # % - > < 4 5 5 5 5 5 < : % + + X + + + + + + + X X + + + + + + + + + + + + + + X X + + + + + + + + + + X . . . ",
". . . . + + + + + + + + + + + + + + + + + + + + + + + + + + + + + + + + + + X X + X + + @ % : < 4 5 5 5 5 5 4 3 3 < > : : - - - - - - : : > < 3 4 5 5 5 5 5 5 4 < : % @ + + X X + + + + + + + + + + + + + + + + + + + + + + + + + + + + + + + + + + + + . . . . ",
". . . . . O + + + + + O O O + + . O + + + + + + X O + + + + O O O O + + + + X X X + X X . . + @ % - > 3 4 5 5 5 5 5 5 5 5 5 5 5 5 5 5 5 5 5 5 5 5 5 5 4 3 > - % @ + . + + + X X X O + + + + O O . O + + + + + + X O + + + + O O . O + + + + + + + + + . . . . . ",
". . . . . . X + + + + O O . + + O O + + + + + + X X + + + + O + + + + + + + + X X + X + + + O O X X + @ % - : > < 3 3 4 4 5 5 5 5 5 5 5 4 3 3 < > : - % @ + + O . X + + + X + X X X + + + + O + O O + + + + + + X X + + + + O + O O + + + + + + + + . . . . . . ",
". . . . . . X + + + + + + + + + + + + + + + + + + + + + + + + + + + + + + + + + + + + + + + + + X X X X O + + + @ @ # % % % * * * % % % % # @ @ + + . . + + + + + X X + + + + + + + + + + + + + + + + + + + + + + + + + + + + + + + + + + + + + + . . . . . . . ",
". . . . . . . . + + + + + + + + + + + + + + + + + + O O + + + + + + + + + + + + + + O O + + + + + X X X + + + + O . . . O O O O . . . . O + O + O + X + + + + + + + X X + + + + + + O O + + + + + + + + + + + + + + O O + + + + + + + + + + + + . . . . . . . . ",
". . . . . . . . . + + + + + + + + + + + + + + + + O O O + + + + O O + + + + + + + O O O + + + + + + X X + + + + X X + + + + + + + X + + + + + + + + X X + + + + + + + + + + + + + O O O + + + + + + + + + + + + + O O O + + + + + + + + + + + . . . . . . . . . ",
". . . . . . . . . . X X X + + + X X X X X X + + X . . . + + + X . X X X X X X + X . . . + + + X X X X X + + + X X X X X X + + X X X X X X + + X X X X X X + + X X X X X X + + X X . . . + + + X X X X X X X + + X . . . + + + X X X X X + X . . . . . . . . . . ",
". . . . . . . . . . . . . . X X . . . . . . X X . . . X X X X . . . X X . . X X . . . X X X X . . . . X X X X . . . X X X X . . X X . . . X X X . . . X X X X . . . . X X X X . . . . X X X X . . . . . . . X X . . . X X X X . . . . . . . . . . . . . . . . . ",
". . . . . . . . . . . . . . . . . . . . . . . . . . . . . . . . . . . . . . . . . . . . . . . . . . . . . . . . . . . . . . . . . . . . . . . . . . . . . . . . . . . . . . . . . . . . . . . . . . . . . . . . . . . . . . . . . . . . . . . . . . . . . . . . ",
". . . . . . . . . . . . . . . . . . . . . . . . . . . . . . . . . . . . . . . . . . . . . . . . . . . . . . . . . . . . . . . . . . . . . . . . . . . . . . . . . . . . . . . . . . . . . . . . . . . . . . . . . . . . . . . . . . . . . . . . . . . . . . . . ",
". . . . . . . . . . . . . . . . . . . . . . . . . . . . . . . . . . . . . . . . . . . . . . . . . . . . . . . . . . . . . . . . . . . . . . . . . . . . . . . . . . . . . . . . . . . . . . . . . . . . . . . . . . . . . . . . . . . . . . . . . . . . . . . . "
};
