/* XPM */
static char *whippet256[] = {
/* columns rows colors chars-per-pixel */
"256 256 179 2 ",
"   c #0E1527",
".  c #0F1729",
"X  c #0F182A",
"o  c #10172A",
"O  c #11192C",
"+  c #151E31",
"@  c #172133",
"#  c #192336",
"$  c #15253A",
"%  c #1C2639",
"&  c #16293E",
"*  c #1D283A",
"=  c #1D2A3D",
"-  c #1D2C3F",
";  c #152C43",
":  c #1A2D43",
">  c #1D2D41",
",  c #1E2E42",
"<  c #1D2F44",
"1  c #173047",
"2  c #1B3146",
"3  c #1D3045",
"4  c #1E3146",
"5  c #17334C",
"6  c #1F3348",
"7  c #1A344B",
"8  c #1E354B",
"9  c #1F364C",
"0  c #1F384F",
"q  c #173751",
"w  c #193751",
"e  c #1F3A51",
"r  c #193A55",
"t  c #1C3E59",
"y  c #20354A",
"u  c #20364D",
"i  c #20384F",
"p  c #203950",
"a  c #203C53",
"s  c #213C55",
"d  c #213E56",
"f  c #203F58",
"g  c #1E415C",
"h  c #214059",
"j  c #21415A",
"k  c #22435D",
"l  c #21445E",
"z  c #22445F",
"x  c #1E4561",
"c  c #1F4D6C",
"v  c #214460",
"b  c #294760",
"n  c #254A64",
"m  c #244E6B",
"M  c #25516D",
"N  c #2B526E",
"B  c #255675",
"V  c #2A5773",
"C  c #2A5976",
"Z  c #235778",
"A  c #245B7C",
"S  c #2B5D7C",
"D  c #325F7C",
"F  c #2F617F",
"G  c #35607D",
"H  c #276386",
"J  c #2D6282",
"K  c #2A6689",
"L  c #2D698C",
"P  c #336584",
"I  c #346787",
"U  c #346B8B",
"Y  c #3A6C8A",
"T  c #2B6D93",
"R  c #336E90",
"E  c #2D7297",
"W  c #2C739A",
"Q  c #2F789F",
"!  c #347396",
"~  c #3A7596",
"^  c #337599",
"/  c #3A799B",
"(  c #3C7A9C",
")  c #2D7CA4",
"_  c #2C7FAB",
"`  c #337CA3",
"'  c #3A7DA2",
"]  c #437897",
"[  c #407798",
"{  c #427C9D",
"}  c #3C81A6",
"|  c #3483AC",
" . c #3B85AC",
".. c #3E88AF",
"X. c #2D87B3",
"o. c #3389B4",
"O. c #3C8BB3",
"+. c #3B8EB8",
"@. c #3993BF",
"#. c #4382A6",
"$. c #4985A6",
"%. c #4287AC",
"&. c #4588AD",
"*. c #448DB3",
"=. c #4A8FB3",
"-. c #428FB8",
";. c #4D90B4",
":. c #4491BA",
">. c #4C93BA",
",. c #5291B3",
"<. c #3494C2",
"1. c #3C96C3",
"2. c #369CCC",
"3. c #3B9FCF",
"4. c #339FD1",
"5. c #3DA1CF",
"6. c #36A5D9",
"7. c #3BA9DC",
"8. c #3FB2E7",
"9. c #3BB2E8",
"0. c #3CBBF3",
"q. c #3DBFF8",
"w. c #4397C1",
"e. c #4499C3",
"r. c #4C9BC3",
"t. c #419ECC",
"y. c #549CC2",
"u. c #599EC2",
"i. c #45A1CE",
"p. c #4CA2CC",
"a. c #52A4CD",
"s. c #59A6CD",
"d. c #45A4D2",
"f. c #4CA5D0",
"g. c #4AA9D7",
"h. c #43ABDA",
"j. c #4CADDC",
"k. c #53A7D0",
"l. c #54A9D3",
"z. c #5CA9D0",
"x. c #54AEDA",
"c. c #54B1DE",
"v. c #5CB4DF",
"b. c #64B6DF",
"n. c #45AFE1",
"m. c #4DB4E5",
"M. c #45B4E8",
"N. c #44B6EA",
"B. c #4BB9EB",
"V. c #53B5E3",
"C. c #5BB7E2",
"Z. c #5BB8E4",
"A. c #54BBEB",
"S. c #5CBEEB",
"D. c #44BDF4",
"F. c #4CBEF1",
"G. c #40BFF8",
"H. c #62B9E3",
"J. c #60BFEB",
"K. c #5DC1EF",
"L. c #46C0F6",
"P. c #4CC1F6",
"I. c #44C1F9",
"U. c #4CC3F9",
"Y. c #54C2F4",
"T. c #5BC4F4",
"R. c #54C6FA",
"E. c #58C7FA",
"W. c #5CC9FA",
"Q. c #65C1EB",
"!. c #6BC3EC",
"~. c #62C6F4",
"^. c #66C8F4",
"/. c #6AC9F5",
"(. c #63CBFA",
"). c #6BCDFB",
"_. c #70CAF4",
"`. c #71CFFB",
"'. c #73D0FB",
/* pixels */
"X X X X X X X X X X X X X X X X X X X X X X X X X X X X X X X X X X X X X X o O + @ @ # % % * * * * * * * * * * * * * * * * * * * * * * * * * * * * * * * * * * * * * * * * * * * * * * * * * * * * * * * * * * * * * * * * * * * * * * * * * * * * * * * * * * * * * * * * * * * * * * * * * * * * * * * * * * * * * * * * * * * * * * * * * * * * * * * * * * * * * * * * * * * * * * * * * * * * * * * * * * * * * * * * * * * * % % # @ @ + O o X X X X X X X X X X X X X X X X X X X X X X X X X X X X X X X X X X X X X X ",
"X X X X X X X X X X X X X X X X X X X X X X X X X X X X X X X X X X o O @ # * * * * * * * * * * * * * * * * * * * * * * * * * * * * * * * * * * * * * * * * * * * * * * * * * * * * * * * * * * * * * * * * * * * * * * * * * * * * * * * * * * * * * * * * * * * * * * * * * * * * * * * * * * * * * * * * * * * * * * * * * * * * * * * * * * * * * * * * * * * * * * * * * * * * * * * * * * * * * * * * * * * * * * * * * * * * * * * * * * * * % @ + o X X X X X X X X X X X X X X X X X X X X X X X X X X X X X X X X X X ",
"X X X X X X X X X X X X X X X X X X X X X X X X X X X X X X X o + # * * * * * * * * * * * * * * * * * * * * * * * * * * * * * * * * * * * * * * * * * * * * * * * * * * * * * * * * * * * * * * * * * * * * * * * * * * * * * * * * * * * * * * * * * * * * * * * * * * * * * * * * * * * * * * * * * * * * * * * * * * * * * * * * * * * * * * * * * * * * * * * * * * * * * * * * * * * * * * * * * * * * * * * * * * * * * * * * * * * * * * * * * * * * # + o X X X X X X X X X X X X X X X X X X X X X X X X X X X X X X X ",
"X X X X X X X X X X X X X X X X X X X X X X X X X X X X X + @ * * * * * * * * * * * * * * * * * * * * * * * * * * * * * * * * * * * * * * * * * * * * * * * * * * * * * * * * * * * * * * * * * * * * * * * * * * * * * * * * * * * * * * * * * * * * * * * * * * * * * * * * * * * * * * * * * * * * * * * * * * * * * * * * * * * * * * * * * * * * * * * * * * * * * * * * * * * * * * * * * * * * * * * * * * * * * * * * * * * * * * * * * * * * * * * * * * @ + X X X X X X X X X X X X X X X X X X X X X X X X X X X X X ",
"X X X X X X X X X X X X X X X X X X X X X X X X X X o + % * * * * * * * * * * * * * * * * * * * * * * * * * * * * * * * * * * * * * * * * * * * * * * * * * * * * * * * * * * * * * * * * * * * * * * * * * * * * * * * * * * * * * * * * * * * * * * * * * * * * * * * * * * * * * * * * * * * * * * * * * * * * * * * * * * * * * * * * * * * * * * * * * * * * * * * * * * * * * * * * * * * * * * * * * * * * * * * * * * * * * * * * * * * * * * * * * * * * * * % + o X X X X X X X X X X X X X X X X X X X X X X X X X X ",
"X X X X X X X X X X X X X X X X X X X X X X X X o + % * * * * * * * * * * * * * * * * * * * * * * * * * * * * * * * * * * * * * * * * * * * * * * * * * * * * * * * * * * * * * * * * * * * * * * * * * * * * * * * * * * * * * * * * * * * * * * * * * * * * * * * * * * * * * * * * * * * * * * * * * * * * * * * * * * * * * * * * * * * * * * * * * * * * * * * * * * * * * * * * * * * * * * * * * * * * * * * * * * * * * * * * * * * * * * * * * * * * * * * * * * % + o X X X X X X X X X X X X X X X X X X X X X X X X ",
"X X X X X X X X X X X X X X X X X X X X X X X O % * * * * * * * * * * * * * * * = * * * * * * * * * * * * * * * * * * * * * * * * * * * * * * * * * * * * * * * * * * * * * * * * * * * * * * * * * * * * * * * * * * * * * * * * * * * * * * * * * * * * * * * * * * * * * * * * * * * * * * * * * * * * * * * * * * * * * * * * * * * * * * * * * * * * * * * * * * * * * * * * * * * * * * * * * * * * * * * * * * * * * * * * * * * * * * * * * * * * * * * * * * * * * * % O X X X X X X X X X X X X X X X X X X X X X X X ",
"X X X X X X X X X X X X X X X X X X X X X O @ % * * * * * * * * * * * * * * * * * * * * * * * * * * * * * * * * * * * * * * * * * * * * * * * * * * * * * * * * * * * * * * * * * * * * * * * * * * * * * * * * * * * * * * * * * * * * * * * * * * * * * * * * * * * * * * * * * * * * * * * * * * * * * * * * * * * * * * * * * * * * * * * * * * * * * * * * * * * * * * * * * * * * * * * * * * * * * * * * * * * * * * * * * * * * * * * * * * * * * * * * * * * * * * * * % @ O X X X X X X X X X X X X X X X X X X X X X ",
"X X X X X X X X X X X X X X X X X X X X + % * * * * * * * * * * * * * * * * * * * * * * * * * * * * * * * * * * * * * * * * * * * * * * * * * * * * * * * * * * * * * * * * * * * * * * * * * * * * * * * * * * * * * * * * * * * * * * * * * * * * * * * * * * * * * * * * * * * * * * * * * * * * * * * * * * * * * * * * * * * * * * * * * * * * * * * * * * * * * * * * * * * * * * * * * * * * * * * * * * * * * * * * * * * * * * * * * * * * * * * * * * * * * * * * * * * * % + X X X X X X X X X X X X X X X X X X X X ",
"X X X X X X X X X X X X X X X X X X o @ * * * * * * * * * * * * * * * * * * * * * * * * * * * * * * * * * * * * * * * * * * * * * * * * * * * * * * * * * * * * * * * * * * * * * * * * * * * * * * * * * * * * * * * * * * * * * * * * * * * * * * * * * * * * * * * * * * * * * * * * * * * * * * * * * * * * * * * * * * * * * * * * * * * * * * * * * * * * * * * * * * * * * * * * * * * * * * * * * * * * * * * * * * * * * * * * * * * * * * * * * * * * * * * * * * * * * * * * @ . X X X X X X X X X X X X X X X X X X ",
"X X X X X X X X X X X X X X X X X O # * * * * * * * * * * * * * * * * * * * * * * * * * * * * * * * * * * * * * * * * * * * * * * * * * * * * * * * * * * * * * * * * * * * * * * * * * * * * * * * * * * * * * * * * * * * * * * * * * * * * * * * * * * * * * * * * * * * * * * * * * * * * * * * * * * * * * * * * * * * * * * * * * * * * * * * * * * * * * * * * * * * * * * * * * * * * * * * * * * * * * * * * * * * * * * * * * * * * * * * * * * * * * * * * * * * * * * * * * * # O X X X X X X X X X X X X X X X X X ",
"X X X X X X X X X X X X X X X X O % * * * * * * * * * * * * * * * * * * * * * * * * * * * * * * * * * * * * * * * * * * * * * * * * * * * * * * * * * * * * * * * * * * * * * * * * * * * * * * * * * * * * * * * * * * * * * * * * * * * * * * * * * * * * * * * * * * * * * * * * * * * * * * * * * * * * * * * * * * * * * * * * * * * * * * * * * * * * * * * * * * * * * * * * * * * * * * * * * * * * * * * * * * * * * * * * * * * * * * * * * * * * * * * * * * * * * * * * * * * * % O X X X X X X X X X X X X X X X X ",
"X X X X X X X X X X X X X X X O * * * * * * * * * * * * * * * * * * * * * * * * * * * * * * * * * * * * * * * * * * * * * * * * * * * * * * * * * * * * * * * * * * * * * * * * * * * * * * * * * * * * * * * * * * * * * * * * * * * * * * * * * * * * * * * * * * * * * * * * * * * * * * * * * * * * * * * * * * * * * * * * * * * * * * * * * * * * * * * * * * * * * * * * * * * * * * * * * * * * * * * * * * * * * * * * * * * * * * * * * * * * * * * * * * * * * * * * * * * * * * * * + X X X X X X X X X X X X X X X ",
"X X X X X X X X X X X X X X + % * * * * * * * * * * * * * * * * * * * * * * * * * * * * * * * * * * * * * * * * * * * * * * * * * * * * * * * * * * * * * * * * * * * * * * * * * * * * * * * * * * * * * * * * * * * * * * * * * * * * * * * * * * * * * * * * * * * * * * * * * * * * * * * * * * * * * * * * * * * * * * * * * * * * * * * * * * * * * * * * * * * * * * * * * * * * * * * * * * * * * * * * * * * * * * * * * * * * * * * * * * * * * * * * * * * * * * * * * * * * * * * * % + X X X X X X X X X X X X X X ",
"X X X X X X X X X X X X X + % * * * * * * * * * * * * * * * * * * * * * * * * * * * * * * * * * * * * * * * * * * * * * * * * * * * * * * * * * * * * * * * * * * * * * * * * * * * * * * * * * * * * * * * * * * * * * * * * * * * * * * * * * * * * * * * * * * * * * * * * * * * * * * * * * * * * * * * * * * * * * * * * * * * * * * * * * * * * * * * * * * * * * * * * * * * * * * * * * * * * * * * * * * * * * * * * * * * * * * * * * * * * * * * * * * * * * * * * * * * * * * * * * % * + X X X X X X X X X X X X X ",
"X X X X X X X X X X X X O % * * * * * * * * * * * * * * * * * * * * * * * * * * * * * * * * * * * * * * * * * * * * * * * * * * * * * * * * * * * * * * * * * * * * * * * * * * * * * * * * * * * * * * * * * * * * * * * * * * * = , 3 y u i p d j j j k k l v v l k k j j j d p i u y 3 , = * * * * * * * * * * * * * * * * * * * * * * * * * * * * * * * * * * * * * * * * * * * * * * * * * * * * * * * * * * * * * * * * * * * * * * * * * * * * * * * * * * * * * * * * * * * * * * * * * % % * O X X X X X X X X X X X X ",
"X X X X X X X X X X X O * * * * * * * * * * * * * * * * * * * * * * * * * * * * * * * * * * * * * * * * * * * * * * * * * * * * * * * * * * * * * * * * * * * * * * * * * * * * * * * * * * * * * * * * * * * * * * * - 3 9 a j l v v v v v v v v v v v v v v v v v v v v v v v v v v v v v v l j a 9 3 - * * * * * * * * * * * * * * * * * * * * * * * * * * * * * * * * * * * * * * * * * * * * * * * * * * * * * * * * * * * * * * * * * * * * * * * * * * * * * * * * * * * * * * * * * * * * * * * O X X X X X X X X X X X ",
"X X X X X X X X X X O % * * * * * * * * * * * * * * * * * * * * * * * * * * * * * * * * * * * * * * * * * * * * * * * * * * * * * * * * * * * * * * * * * * * * * * * * * * * * * * * * * * * * * * * * * * = 3 i d l v v v v v v v v v v v v v v v v v v v v v v v v v v v v v v v v v v v v v v v v v v l d i 3 = * * * * * * * * * * * * * * * * * * * * * * * * * * * * * * * * * * * * * * * * * * * * * * * * * * * * * * * * * * * * * * * * * * * * * * * * * * * * * * * * * * * * * * * * * * % O X X X X X X X X X X ",
"X X X X X X X X X o # * * * * * * * * * * * * * * * * * * * * * * * * * * * * * * * * * * * * * * * * * * * * * * * * * * * * * * * * * * * * * * * * * * * * * * * * * * * * * * * * * * * * * * * = 6 p j v v v v v v v v v v v v v v v v v v v v v v v v v v v v v v v v v v v v v v v v v v v v v v v v v v v v j p 6 = * * * * * * * * * * * * * * * * * * * * * * * * * * * * * * * * * * * * * * * * * * * * * * * * * * * * * * * * * * * * * * * * * * * * * * * * * * * * * * * * * * * * * * * # . X X X X X X X X X ",
"X X X X X X X X X @ * * * * * * * * * * * * * * * * * * * * * * * * * * * * * * * * * * * * * * * * * * * * * * * * * * * * * * * * * * * * * * * * * * * * * * * * * * * * * * * * * * * * * , 9 j l v v v v v v v v v v v v v v v v v v v v v v v v v v v v v v v v v v v v v v v v v v v v v v v v v v v v v v v v v v v j i 3 * * * * * * * * * * * * * * * * * * * * * * * * * * * * * * * * * * * * * * * * * * * * * * * * * * * * * * * * * * * * * * * * * * * * * * * * * * * * * * * * * * * * * @ X X X X X X X X X ",
"X X X X X X X X + * * * * * * * * * * * * * * * * * * * * * * * * * * * * * * * * * * * * * * * * * * * * * * * * * * * * * * * * * * * * * * * * * * * * * * * * * * * * * * * * * * * 3 p k v v v v v v v v v v v v v v v v v v v v v v v v v v v v v v v v v v v v v v v v v v v v v v v v v v v v v v v v v v v v v v v v v v l p 3 * * * * * * * * * * * * * * * * * * * * * * * * * * * * * * * * * * * * * * * * * * * * * * * * * * * * * * * * * * * * * * * * * * * * * * * * * * * * * * * * * * * + X X X X X X X X ",
"X X X X X X X o % % % % % % % % % % % % % % % % % % % % % % % % % % % % % % % % % % % % % % % % % % % % % % % % % % % % % % % % % % % % % % % % % % % % % % % % % % % % % % % % % < p k v v v v v v v v v v v v v v v v v v v v v v j d p u 8 6 3 , = = = = = * % = = = = = , 3 y y u p d j v v v v v v v v v v v v v v v v v v v v v v k p < % % % % % % % % % % % % % % % % % % % % % % % % % % % % % % % % % % % % % % % % % % % % % % % % % % % % % % % % % % % % % % % % % % % % % % % % % % % % % % % % % O X X X X X X X ",
"X X X X X X X @ % % % % % % % % % % % % % % % % % % % % % % % % % % % % % % % % % % % % % % % % % % % % % % % % % % % % % % % % % % % % % % % % % % % % % % % % % % % % % % = u k v v v v v v v v v v v v v v v v v v l f p 8 < - * * * % % % % % % % % * * * * % % % % % % % % * * * * % % * = 3 8 p j l v v v v v v v v v v v v v v v v v v k u = % % % % % % % % % % % % % % % % % % % % % % % % % % % % % % % % % % % % % % % % % % % % % % % % % % % % % % % % % % % % % % % % % % % % % % % % % % % % % % @ X X X X X X X ",
"X X X X X X O % % % % % % % % % % % % % % % % % % % % % % % % % % % % % % % % % % % % % % % % % % % % % % % % % % % % % % % % % % % % % % % % % % % % % % % % % % % % * 3 d l v v v v v v v v v v v v v v v v j p 8 - * % % % % * * * * % % % % % % % * * * * * * % % % % % % % * * * * % % % % * * * * * - 8 p j v v v v v v v v v v v v v v v v l d 3 % % % % % % % % % % % % % % % % % % % % % % % % % % % % % % % % % % % % % % % % % % % % % % % % % % % % % % % % % % % % % % % % % % % % % % % % % % % % % O X X X X X X ",
"X X X X X o # % % % % % % % % % % % % % % % % % % % % % % % % % % % % % % % % % % % % % % % % % % % % % % % % % % % % % % % % % % % % % % % % % % % % % % % % % % * 8 j v v v v v v v v v v v v v v v j p 3 = % % % % % % % % % % % % % % % % % % % % % % % % % % % % % % % % % % % % % % % % % * * % % % % % % % = 3 i j v v v v v v v v v v v v v v v j 8 * % % % % % % % % % % % % % % % % % % % % % % % % % % % % % % % % % % % % % % % % % % % % % % % % % % % % % % % % % % % % % % % % % % % % % % % % % % # o X X X X X ",
"X X X X X + % % % % % % % % % % % % % % % % % % % % % % % % % % % % % % % % % % % % % % % % % % % % % % % % % % % % % % % % % % % % % % % % % % % % % % % % % = u k v v v v v v v v v v v v v l d 8 = % % % % % % % % % % % % % % % % % % % % % % % % % % % % % % % % % % % % % % % % % % % % % % * % % % % % % % % % % % = 8 d l v v v v v v v v v v v v v k u = % % % % % % % % % % % % % % % % % % % % % % % % % % % % % % % % % % % % % % % % % % % % % % % % % % % % % % % % % % % % % % % % % % % % % % % % % + X X X X X ",
"X X X X o # % % % % % % % % % % % % % % % % % % % % % % % % % % % % % % % % % % % % % % % % % % % % % % % % % % % % % % % % % % % % % % % % % % % % % % % = p l v v v v v v v v v v v v l d 3 * % % % % % % % % % % % % % % % % % % % % % % % % % % % % % % % % % % % % % % % % % % % % % % % % % % % % % % % % % % % % % % % % * 3 d l v v v v v v v v v v v v l p = % % % % % % % % % % % % % % % % % % % % % % % % % % % % % % % % % % % % % % % % % % % % % % % % % % % % % % % % % % % % % % % % % % % % % % % % o X X X X ",
"X X X X + % % % % % % % % % % % % % % % % % % % % % % % % % % % % % % % % % % % % % % % % % % % % % % % % % % % % % % % % % % % % % % % % % % % % % % = e l v v v v v v v v v v v v d 6 = % % % % % % % % % % % % % % % % % % % % % % % % % % % % % % % % % % % % % % % % % % % % % % % % % % % % % % % % % % % % % % % % % % % % % % = 6 d v v v v v v v v v v v v l 0 = % % % % % % % % % % % % % % % % % % % % % % % % % % % % % % % % % % % % % % % % % % % % % % % % % % % % % % % % % % % % % % % % % % % % % % + X X X X ",
"X X X X # % % % % % % % % % % % % % % % % % % % % % % % % % % % % % % % % % % % % % % % % % % % % % % % % % % % % % % % % % % % % % % % % % % % % = 0 l v v v v v v v v v v v k 0 - % % % % % % % % % % % % % % % % % % % % % % % % % % % % % % % % % % % % % % % % % % % % % % % % % % % % % % % % % % % % % % % % % % % % % % % % % % % % - 0 k v v v v v v v v v v v l 0 = % % % % % % % % % % % % % % % % % % % % % % % % % % % % % % % % % % % % % % % % % % % % % % % % % % % % % % % % % % % % % % % % % % % % # X X X X ",
"X X X O % % % % % % % % % % % % % % % % % % % % % % % % % % % % % % % % % % % % % % % % % % % % % % % % % % % % % % % % % % % % % % % % % % % * 8 k v v v v v v v v v v v d 3 * % % % % % % % % % % % % % % % % % % % % % % % % % % % % % % % % % % % % % % % % % % % % % % % % % % % % % % % % % % % % % % % % % % % % % % % % % % % % % % % % * 3 d v v v v v v v v v v v k 8 * % % % % % % % % % % % % % % % % % % % % % % % % % % % % % % % % % % % % % % % % % % % % % % % % % % % % % % % % % % % % % % % % % % % O X X X ",
"X X X @ % % % % % % % % % % % % % % % % % % % % % % % % % % % % % % % % % % % % % % % % % % % % % % % % % % % % % % % % % % % % % % % % % % , j v v v v v v v v v v l d 3 % % % % % % % % % % % % % % % % % % % % % % % % % % % % % % % % % % % % % % % % % % % % % % % % % % % % % % % % % % % % % % % % % % % % % % % % % % % % % % % % % % % % % % , e l v v v v v v v v v v j 3 % % % % % % % % % % % % % % % % % % % % % % % % % % % % % % % % % % % % % % % % % % % % % % % % % % % % % % % % % % % % % % % % % % @ X X X ",
"X X o % % % % % % % % % % % % % % % % % % % % % % % % % % % % % % % % % % % % % % % % % % % % % % % % % % % % % % % % % % % % % % % % % = a v v v v v v v v v v l p - % % % % % % % % % % % % % % % % % % % % % % % % % % % % % % % % % % % % % % % % % % % % % % % % % % % % % % % % % % % % % % % % % % % % % % % % % % % % % % % % % % % % % % % % % % - p l v v v v v v v v v v a = % % % % % % % % % % % % % % % % % % % % % % % % % % % % % % % % % % % % % % % % % % % % % % % % % % % % % % % % % % % % % % % % % o X X ",
"X X + % % % % % % % % % % % % % % % % % % % % % % % % % % % % % % % % % % % % % % % % % % % % % % % % % % % % % % % % % % % % % % % % 6 l v v v v v v v v v l e = % % % % % % % % % % % % % % % % % % % % % % % % % % % % % % % % % % % % % % % % % % % % % % % % % % % % % % % % % % % % % % % % % % % % % % % % % % % % % % % % % % % % % % % % % % % % % % = p l v v v v v v v v v l 8 % % % % % % % % % % % % % % % % % % % % % % % % % % % % % % % % % % % % % % % % % % % % % % % % % % % % % % % % % % % % % % % % + X X ",
"X X @ % % % % % % % % % % % % % % % % % % % % % % % % % % % % % % % % % % % % % % % % % % % % % % % % % % % % % % % % % % % % % % - d v v v v v v v v v l e - % % % % % % % % % % % % % % % % % % % % % % % % % % % % % % % % % % % % % % % % % % % % % % % % % % % % % % % % % % % % % % % % % % % % % % % % % % % % % % % % % % % % % % % % % % % % % % % % % % - e l v v v v v v v v v d - % % % % % % % % % % % % % % % % % % % % % % % % % % % % % % % % % % % % % % % % % % % % % % % % % % % % % % % % % % % % % % @ X X ",
"X o % % % % % % % % % % % % % % % % % % % % % % % % % % % % % % % % % % % % % % % % % % % % % % % % % % % % % % % % % % % % % % 9 l v v v v v v v v v d , % % % % % % % % % % % % % % % % % % % % % % % % % % % % % % % % % % % % % % % % % % % % % % % % % % % % % * * % % % % % % % % % % * % % % % % % % % % % % % % % % % % % % % % % % % % % % % % % % % % % % % , d v v v v v v v v v l 8 % % % % % % % % % % % % % % % % % % % % % % % % % % % % % % % % % % % % % % % % % % % % % % % % % % % % % % % % % % % % % % o X ",
"X O % % % % % % % % % % % % % % % % % % % % % % % % % % % % % % % % % % % % % % % % % % % % % % % % % % % % % % % % % % % % = d v v v v v v v v v j 3 % % % % % % % % % % % % % % % % % % % % % % % % % % % % % % % % % % % % % % % % % % % % * % % % % % % % % % * * * % % % % % % % % % % % % % % % % % % % % % % % % % % % % % % % % % % % % % % % % % % % % % % % % % 3 j v v v v v v v v v d = % % % % % % % % % % % % % % % % % % % % % % % % % % % % % % % % % % % % % % % % % % % % % % % % % % % % % % % % % % % % O X ",
"X @ % % % % % % % % % % % % % % % % % % % % % % % % % % % % % % % % % % % % % % % % % % % % % % % % % % % % % % % % % % % 3 k v v v v v v v v l 9 % % % % % % % % % % % % % % % % % % % % % % % % % % % % % % % % % % % % % % % % % % # @ @ + + O O O O O O o o o o O O O O O O + + @ @ @ % % % % % % % % % % % % % % % % % % % % % % % % % % % % % % % % % % % % % % % % % % 9 l v v v v v v v v k 3 % % % % % % % % % % % % % % % % % % % % % % % % % % % % % % % % % % % % % % % % % % % % % % % % % % % % % % % % % % % + X ",
"X # % % % % % % % % % % % % % % % % % % % % % % % % % % % % % % % % % % % % % % % % % % % % % % % % % % % % % % % % % % e v v v v v v v v v d = % % % % % % % % % % % % % % % % % % % % % % % % % % % % % % % % % % % % % # @ @ + O o o o o o o o o o o o o o o o o o o o o o o o o o o o o O O + @ @ % % % % % % % % % % % % % % % % % % % % % % % % % % % % % % % % % % % % % = d v v v v v v v v v e % % % % % % % % % % % % % % % % % % % % % % % % % % % % % % % % % % % % % % % % % % % % % % % % % % % % % % % % % % @ X ",
"o % % % % % % % % % % % % % % % % % % % % % % % % % % % % % % % % % % % % % % % % % % % % % % % % % % % % % % % % % = f l l l l l l l l k 8 % % % % % % % % % % % % % % % % % % % % % % % % % % % % % % % % % % % @ @ O o o o o o o o o o o o o o o o o o o o o o o o o o o o o o o o o o o o o o o o o O @ @ % % % % % % % % % % % % % % % % % % % % % % % % % % % % % % % % % % % 6 k l l l l l l l l d = % % % % % % % % % % % % % % % % % % % % % % % % % % % % % % % % % % % % % % % % % % % % % % % % % % % % % % % % % o ",
"O % % % % % % % % % % % % % % % % % % % % % % % % % % % % % % % % % % % % % % % % % % % % % % % % % % % % % % % % < j l l l l l l l l d = % % % % % % % % % % % % % % % % % % % % % % % % % % % % % % % % # @ O o o o o o o o o o o o o o o o o o o o o o o o o o o o o o o o o o o o o o o o o o o o o o o o o O @ # % % % % % % % % % % % % % % % % % % % % % % % % % % % % % % % % = d l l l l l l l l k , % % % % % % % % % % % % % % % % % % % % % % % % % % % % % % % % % % % % % % % % % % % % % % % % % % % % % % % % O ",
"+ % % % % % % % % % % % % % % % % % % % % % % % % % % % % % % % % % % % % % % % % % % % % % % % % % % % % % % % 9 l l l l l l l l l 8 % % % % % % % % % % % % % % % % % % % % % % % % % % % % % % % # + O o o o o o o o o o o o o o o o o o o o o o o o o o o o o o o o o o o o o o o o o o o o o o o o o o o o o o o O @ # % % % % % % % % % % % % % % % % % % % % % % % % % % % % % % % 6 l l l l l l l l l 8 % % % % % % % % % % % % % % % % % % % % % % % % % % % % % % % % % % % % % % % % % % % % % % % % % % % % % % % O ",
"+ % % % % % % % % % % % % % % % % % % % % % % % % % % % % % % % % % % % % % % % % % % % % % % % % % % % % % % e l l l l l l l l j , % % % % % % % % % % % % % % % % % % % % % % % % % % % % % # + O o o o o o o o o o o o o o o o o o o o o o o o o o o o o o o o o o o o o o o o o o o o o o o o o o o o o o o o o o o o o O @ # % % % % % % % % % % % % % % % % % % % % % % % % % % % % % - f l l l l l l l l p % % % % % % % % % % % % % % % % % % % % % % % % % % % % % % % % % % % % % % % % % % % % % % % % % % % % % % + ",
"@ % % % % % % % % % % % % % % % % % % % % % % % % % % % % % % % % % % % % % % % % % % % % % % % % % % % % * d l l l l l l l l e % % % % % % % % % % % % % % % % % % % % % % % % % % % % % @ O o o o o o o o o o o o o o o o o o o o o o o o o o o o o o o o o o o o o o o o o o o o o o o o o o o o o o o o o o o o o o o o o o o O @ % % % % % % % % % % % % % % % % % % % % % % % % % % % % % e l l l l l l l l d * % % % % % % % % % % % % % % % % % % % % % % % % % % % % % % % % % % % % % % % % % % % % % % % % % % % % @ ",
"@ % % % % % % % % % % % % % % % % % % % % % % % % % % % % % % % % % % % % % % % % % % % % % % % % % % % = g l l l l l l l l 8 % % % % % % % % % % % % % % % % % % % % % % % % % % % # @ o o o o o o o o o o o o o o o o o o o o o o o o o o o o o o o o o o o o o o o o o o o o o o o o o o o o o o o o o o o o o o o o o o o o o o o o @ # % % % % % % % % % % % % % % % % % % % % % % % % % % % 6 l l l l l l l l j = % % % % % % % % % % % % % % % % % % % % % % % % % % % % % % % % % % % % % % % % % % % % % % % % % % % @ ",
"# % % % % % % % % % % % % % % % % % % % % % % % % % % % % % % % % % % % % % % % % % % % % % % % % % % , k l l l l l l l j , % % % % % % % % % % % % % % % % % % % % % % % % % % # @ o o o o o o o o o o o o o o o o o o o o o o o o o o o o o o o o o o o o o o o o o o o o o o o o o o o o o o o o o o o o o o o o o o o o o o o o o o o o + # % % % % % % % % % % % % % % % % % % % % % % % % % % , j l l l l l l l k , % % % % % % % % % % % % % % % % % % % % % % % % % % % % % % % % % % % % % % % % % % % % % % % % % % @ ",
"# % % % % % % % % % % % % % % % % % % % % % % % % % % % % % % % % % % % % % % % % % % % % % % % % % , k l l l l l l l d % % % % % % % % % % % % % % % % % % % % % % % % % % # O o o o o o o o o o o o o o o o o o o o o o o o o o o o o o o o o o o o o o o o o o o o o o o o o o o o o o o o o o o o o o o o o o o o o o o o o o o o o o o o o O # % % % % % % % % % % % % % % % % % % % % % % % % % = d l l l l l l l k , % % % % % % % % % % % % % % % % % % % % % % % % % % % % % % % % % % % % % % % % % % % % % % % % % # ",
"# % % % % % % % % % % % % % % % % % % % % % % % % % % % % % % % % % % % % % % % % % % % % % % % % , k l l l l l l l e % % % % % % % % % % % % % % % % % % % % % % % % % # + o o o o o o o o o o o o o o o o o o o o o o o o o o o o o o o o o o o o o o o o o o o o o o o o o o o o o o o o o o o o o o o o o o o o o o o o o o o o o o o o o o o o O # % % % % % % % % % % % % % % % % % % % % % % % % % e l l l l l l l k , % % % % % % % % % % % % % % % % % % % % % % % % % % % % % % % % % % % % % % % % % % % % % % % % # ",
"% % % % % % % % % % % % % % % % % % % % % % % % % % % % % % % % % % % % % % % % % % % % % % % % < l l l l l l l l 9 % % % % % % % % % % % % % % % % % % % % % % % % # + o o o o o o o o o o o o o o o o o o o o o o o o o o o o o o o o o o o o o o o o o o o o o o o o o o o o o o o o o o o o o o o o o o o o o o o o o o o o o o o o o o o o o o o o + # % % % % % % % % % % % % % % % % % % % % % % % % 8 l l l l l l l l 3 % % % % % % % % % % % % % % % % % % % % % % % % % % % % % % % % % % % % % % % % % % % % % % % % ",
"% % % % % % % % % % % % % % % % % % % % % % % % % % % % % % % % % % % % % % % % % % % % % % % 3 l l l l l l l l 3 % % % % % % % % % % % % % % % % % % % % % % % % @ o o o o o o o o o o o o o o o o o o o o o o o o o o o o o o o o o o o o o o o o o o o o o o o o o o o o o o o o o o o o o o o o o o o o o o o o o o o o o o o o o o o o o o o o o o o o @ % % % % % % % % % % % % % % % % % % % % % % % % 6 l l l l l l l l 3 % % % % % % % % % % % % % % % % % % % % % % % % % % % % % % % % % % % % % % % % % % % % % % % ",
"% % % % % % % % % % % % % % % % % % % % % % % % % % % % % % % % % % % % % % % % % % % % % % , l l l l l l l l 3 % % % % % % % % % % % % % % % % % % % % % % % @ O o o o o o o o o o o o o o o o o o o o o o o o o o o o o o o o o o o o o o o o o o o o o o o o o o o o o o o o o o o o o o o o o o o o o o o o o o o o o o o o o o o o o o o o o o o o o o o O # % % % % % % % % % % % % % % % % % % % % % % % 3 l l l l l l l l , % % % % % % % % % % % % % % % % % % % % % % % % % % % % % % % % % % % % % % % % % % % % % % ",
"% % % % % % % % % % % % % % % % % % % % % % % % % % % % % % % % % % % % % % % % % % % % % , k l l l l l l k < % % % % % % % % % % % % % % % % % % % % % % % + o o o o o o o o o o o o o o o o o o o o o o o o o o o o o o o o o o o o o o o o o o o o o o o o o o o o o o o o o o o o o o o o o o o o o o o o o o o o o o o o o o o o o o o o o o o o o o o o o o + # % % % % % % % % % % % % % % % % % % % % % % < k l l l l l l k , % % % % % % % % % % % % % % % % % % % % % % % % % % % % % % % % % % % % % % % % % % % % % ",
"% % % % % % % % % % % % % % % % % % % % % % % % % % % % % % % % % % % % % % % % % % % % = j l l l l l l k , % % % % % % % % % % % % % % % % % % % % % % @ O o o o o o o o o o o o o o o o o o o o o o o o o o o o o o o o o o o o o o o o o o o o o o o o o o o o o o o o o o o o o o o o o o o o o o o o o o o o o o o o o o o o o o o o o o o o o o o o o o o o o O @ % % % % % % % % % % % % % % % % % % % % % % , k l l l l l l k , % % % % % % % % % % % % % % % % % % % % % % % % % % % % % % % % % % % % % % % % % % % % ",
"% % % % % % % % % % % % % % % % % % % % % % % % % % % % % % % % % % % % % % % % % % % = k l l l l l l k , % % % % % % % % % % % % % % % % % % % % # # + o o o o o o o o o o o o o o o o o o o o o o o o o o o o o o o o o o o o o o o o o o o o o o o o o o o o o o o o o o o o o o o o o o o o o o o o o o o o o o o o o o o o o o o o o o o o o o o o o o o o o o o o O # # # % % % % % % % % % % % % % % % % % % % , k l l l l l l k = % % % % % % % % % % % % % % % % % % % % % % % % % % % % % % % % % % % % % % % % % % % ",
"# # # # # # # # # # % % # # # % # # # # # # # # # # % % # # # % # # # # # # # # # # % f l l l l l l k , # # # # # # # # # # # # # # # # # # # # # @ o o o o o o o o o o o o o o o o o o o o o o o o o o o o o o o o o o o o o o o o o o o o o o o o o o o o o o o o o o o o o o o o o o o o o o o o o o o o o o o o o o o o o o o o o o o o o o o o o o o o o o o o o o o O @ # # # # # # # # # # # # # # # # # # # # % , k l l l l l l j % # # # # % % # # # % # # # # # # # # # # % % # # # % # # # # # # # # # # % % # # # % ",
"# # # # # # # # # # # # # # % % # # # # # # # # # # # # # # % % # # # # # # # # # % e l l l l l l k , # # # # # # # # # % % # # # # # # # # # # @ o o o o o o o o o o o o o o o o o o o o o o o o o o o o o o o o o o o o o o o o o o o o o o o o o o o o o o o o o o o o o o o o o o o o o o o o o o o o o o o o o o o o o o o o o o o o o o o o o o o o o o o o o o o o o o @ # # # # # # # # # # # # # # # # # # # # # , l l l l l l l d % # # # # # # # % % # # # # # # # # # # # # # # % % # # # # # # # # # # # # # # % % ",
"# # # # # # # # # # # # # # % % # # # # # # # # # # # # # # % % # # # # # # # # # e l l l l l l k < # # # # # # # # # # % % # # # # # # # # # O o o o o o o o o o o o o o o o o o o o o o o o o o o o o o o o o o o o o o o o o o o o o o o o o o o o o o o o o o o o o o o o o o o o o o o o o o o o o o o o o o o o o o o o o o o o o o o o o o o o o o o o o o o o o o o o o O # # # % # # # # # # # # # # # # # # # # # 3 l l l l l l l e # # # # # # # % % # # # # # # # # # # # # # # % % # # # # # # # # # # # # # # % % ",
"# # # # # # # # # # # # # # # # # # # # # # # # # # # # # # # # # # # # # # # # 8 l l l l l l l 3 # # # # % % # % # # # # % # # # # # # # # O o o o o o o o o o o o o o o o o o o o o o o o o o o o o o o o o o o o o o o o o o o o o o o o o o o o o o o o o o o o o o o o o o o o o o o o o o o o o o o o o o o o o o o o o o o o o o o o o o o o o o o o o o o o o o o o o o o O # % # # # # # # # # # # # # # % % % # % % 3 l l l l l l l 8 # # # # # % # # # # # # # # # # # # # # # # # # # # # # # # # # # # # # # # # # ",
"# # % # # # # # # # % % # # # # # # % # # # # # # # % % # # # # # # % # # # # , k l l l l l l 9 # # # # # # % % # # # # % % # # # # # # @ o o o o o o o o o o o o o o o o o o o o o o o o o o o o o o o o o o o o o o o o o o o o o o o o o o o o o o o o o o o o o o o o o o o o o o o o o o o o o o o o o o o o o o o o o o o o o o o o o o o o o o o o o o o o o o o o o o o o o o # # # # # # # % # # # # # % % % % # # # # 9 l l l l l l l , # # # # # # # # # % # # # # # # # % % # # # # # # % # # # # # # # % % # # # # ",
"% % # # # # % % # % % % # # # # % % # # # # % % # % % % # # # # % % # # # # = j l l l l l l e # # # # # # # # # # # # # # % # # # # # @ o o o o o o o o o o o o o o o o o o o o o o o o o o o o o o o o o o o o o o o o o o o o o o o o o o o o o o o o o o o o o o o o o o o o o o o o o o o o o o o o o o o o o o o o o o o o o o o o o o o o o o o o o o o o o o o o o o o o o o o o @ % # # % % # # # # # # # # % # # # # # # e l l l l l l j = # # # # # # % % # # # # % % # % % % # # # # % % # # # # % % # % % % # # # # ",
"% % % % % % % # # % % % # # # # % % % % % % % # # % % % # # # # % % % % # % d l l l l l l d % # # # # # # # # # % # # # # # # # # # @ o o o o o o o o o o o o o o o o o o o o o o o o o o o o o o o o o o o o o o o o o o o o o o o o o o o o o o o o o o o o o o o o o o o o o o o o o o o o o o o o o o o o o o o o o o o o o o o o o o o o o o o o o o o o o o o o o o o o o o o o o o @ # # % % % % # # # % # # # # # # # # # % d l l l l l l d % # # # # # % % % % % % % # # % % % # # # # % % % % % % % # # % % % # # # # ",
"# # # # % # # # # # # # # # % % # # # # % # # # # # # # # # % % # # # # % e l l l l l l g % # # # % # # # # # # # % # # # # # # # @ o o o o o o o o o o o o o o o o o o o o o o o o o o o o o o o o o o o o o o o o o o o o o o o o o o o o o o o o o o o o o o o o o o o o o o o o o o o o o o o o o o o o o o o o o o o o o o o o o o o o o o o o o o o o o o o o o o o o o o o o o o o o O # # # # # # # % % # # # # # # # # # # % g l l l l l l 9 # # # # # # # # # % # # # # # # # # # % % # # # # % # # # # # # # # # % % ",
"# # # # # # # # # # # # # # % % # # # # # # # # # # # # # # % % # # # # 3 l l l l l l k , # # # # # # # % % # # # % # # % # # # + o o o o o o o o o o o o o o o o o o o o o o o o o o o o o o o o o o o o o o o o o o o o o o o o o o o o o o o o o o o o o o o o o o o o o o o o o o o o o o o o o o o o o o o o o o o o o o o o o o o o o o o o o o o o o o o o o o o o o o o o o o o o o o O # # # # # # # # # # # # # # # # # # # , k l l l l l l < # # # # # # # # # # # # # # # # # # % % # # # # # # # # # # # # # # % % ",
"# # # # # # # # # # # # # # # % # # # # # # # # # # # # # # # % # # # % g l l l l l l 3 # # # # # # % # # # # # # # # # % # # O o o o o o o o o o o o o o o o o o o o o o o o o o o o o o o o o o o o o o o o o o o o o o o o o o o o o o o o o o o o o o o o o o o o o o o o o o o o o o o o o o o o o o o o o o o o o o o o o o o o o o o o o o o o o o o o o o o o o o o o o o o o o o o o o + # # # # # # # # # # # # % % # # # # # 3 l l l l l l g = # # # # # # # # # # # # # # # # # # % # # # # # # # # # # # # # # # % ",
"# # # # # # # # # # # # # # # % # # # # # # # # # # # # # # # % # # # e l l l l l l e # # # # # # # # # # # % % # # # # % % O o o o o o o o o o o o o o o o o o o o o o o o o o o o o o o o o o o o o o o o o o o o o o o o o o o o o o o o o o o o o o o o o o o o o o o o o o o o o o o o o o o o o o o o o o o o o o o o o o o o o o o o o o o o o o o o o o o o o o o o o o o o o o o o o o o + # # # # # # # # # # % % % % # # # # # 9 l l l l l l t % # # # # # # # # # # # # # # # # # % # # # # # # # # # # # # # # # % ",
"# # # % # # # # # % % # # # # # # # # % # # # # # # # # # # # # % % 6 k k g k k k t % # # # # # % % # # # # # # # # # # # + o o o o o o o o o o o o o o o o o o o o o o o o o o o o o o o o o o o o o o o o o o o o o o o o o o o o o o . . . o o o o o o o o o o o o o o o o o o o o o o o o o o o o o o o o o o o o o o o o o o o o o o o o o o o o o o o o o o o o o o o o o o o o o o o o o o o O # # # # # # % # % # # # # % # # # # % t k g g g g l 8 % % # # # % # # # # # % % # # # # # # # # % # # # # # % % # # # # # ",
"# # # # # # # # # # # % # # # # # # # # # # # # # # # # # # # # % = k k k g k k k = % % # # # # % % # # # # # # # # # # + o o o o o o o o o o o o o o o o o o o o o o o o o o o o o o o o o o o o o o o o o o o o o o o o o o o o o o o . . . o o o o o o o o o o o o o o o o o o o o o o o o o o o o o o o o o o o o o o o o o o o o o o o o o o o o o o o o o o o o o o o o o o o o o o o o o o o o + # # # # # # % # # # # # % # # # # # = k g g g k k k = # # # # # # # # # # # # % # # # # # # # # # # # # # # # % # # # # ",
"# # # % # # # # # # # # # # # # # # % # # # # # # # # # # # # # % e g g k k k k 6 # # # # # # # # # # # # # # # # # # + o o o o o o o o o o o o o o o o o o o o o o o o o o o o o o o o o o o o o o o o o o o o o o o o o o o o o o o o . . . . o o o o o o o o o o o o o o o o o o o o o o o o o o o o o o o o o o o o o o o o o o o o o o o o o o o o o o o o o o o o o o o o o o o o o o o o o o o o + # # # # # # # # # # # % # # # # # # 6 g g k k k k e # # # # % # # # # # # # # # # # # # # # % # # # # # # # # # # # # ",
"# # # # # # # # # # # # # # # # # # # # # # # # # # # # % # # # 6 k g g g k k e % # # # # # # # # # # # # # # # # # @ o o o o o o o o o o o o o o o o o o o o o o o o o o o o o o o o o o o o o o o o o o o o o o o o o o o o o o o o o . . . . o o o o o o o o o o o o o o o o o o o o o o o o o o o o o o o o o o o o o o o o o o o o o o o o o o o o o o o o o o o o o o o o o o o o o o o o o o o o o @ # # # # # # # # # # # # # # # # # # e g k k k k k 3 # # # # # # # # # # # # # # # # # # # # # # # # # # # # # # # # ",
"# # # # # # # # # # # # # # # # # # # # # # # # # # # # # # # % k g g g k k j % # # # # # # # # 6.q.q.q.q.q.q.q.q.q.q.q.q.q.q.q.q.q.q.q.q.q.q.q.q.q.q.q.; o o o o o o o o o o o o o o o o o o o o o o o o o o o o o o o o & I.I.U.U.I.I.U.U.U.U.U.U.U.U.U.U.U.U.U.U.U.U.U.U.& o o o o o o o o o o o o o o o o o o o o o o o o o o o o o o o o : R.R.R.R.E.E.E.E.R.R.R.E.E.E.E.E.E.E.E.E.E.E.E.c.o o o o o o @ # # # # # # # # # # # # # # # # # & k l l g g g j % # # # # # # # # # # # # # # # # # # # # # # # # # # # # # # # ",
"# # # # # # # # # # # # # # # # # # # # # # # # # # # # # # # e k k g g k k 3 # # # # # # # # # _ q.q.q.q.q.q.q.q.q.q.q.q.q.q.q.q.q.q.q.q.q.q.q.q.q.q.q.B o o o o o o o o o o o o o o o o o o o o o o o o o o o o o o o o m I.U.U.U.I.U.U.U.U.U.U.U.U.U.U.U.U.U.U.U.U.U.U.U.m o o o o o o o o o o o o o o o o o o o o o o o o o o o o o o o o V R.R.R.R.E.E.R.R.R.R.E.E.E.E.E.E.E.E.E.E.E.E.W.} o o o o o o o @ # # # # # # # # # # # # # # # # # 3 l l g g g g e # # # # # # # # # # # # # # # # # # # # # # # # # # # # # # # ",
"# # # # # # # # # # # # # # # # # # # # # # # # # # # # # # , k k k g g k t # # # # # # # # # # Z q.q.q.q.q.q.q.q.q.q.q.q.q.q.q.q.q.q.q.q.q.q.q.q.q.q.q.) o o o o o o o o o o o o o o o o o o o o o o o o o o o o o o o o E I.U.U.U.U.U.U.U.U.U.U.U.U.U.U.U.U.U.U.U.U.U.U.U.! o o o o o o o o o o o o o o o o o o o o o o o o o o o o o o o o } R.R.R.R.R.R.R.R.E.E.E.E.E.E.E.E.E.E.E.E.E.W.W.N o o o o o o o O @ # # # # # # # # # # # # # # # # # t l g g k k k , # # # # # # # # # # # # # # # # # # # # # # # # # # # # # # ",
"# # # # # # # # # # # # # # # # # # # # # # # # # # # # # # t k k k k g j = # # # # # # # # # # : 0.q.q.q.q.q.q.q.q.q.q.q.q.q.q.q.q.q.q.q.q.q.q.q.q.q.G.5.o o o o o o o o o o o o o o o o o o o o o o o o o o o o o o o o 1.I.I.U.U.U.U.U.U.U.U.U.U.U.U.U.U.U.U.U.U.U.U.U.U.1.o o o o o o o o o o o o o o o o o o o o o o o o o o o o o o o o g.R.R.R.R.R.R.R.E.E.E.E.E.E.E.E.E.E.E.E.E.W.W.E.$ o o o o o o o o O # # # # # # # # # # # # # # # # # = k k k k k k t # # # # # # # # # # # # # # # # # # # # # # # # # # # # # # ",
"# # # # # # # # # # # # # # # # # # # # # # # # # # # # # 3 k k k k g g 6 # # # # # # # # # # # # 4.q.q.q.q.q.q.q.q.q.q.q.q.q.q.q.q.q.q.q.q.q.q.q.G.G.I.G.$ . . o o o o o o o o o o o o o o o o o o o o o o o o o o o o . N.I.U.U.U.U.U.U.U.U.U.U.U.U.U.U.U.U.U.U.U.U.U.U.U.B.o o o o o o o o o o o o o o o o o o o o o o o o o o o o o o o $ R.R.R.E.E.R.R.E.E.E.E.E.E.E.E.E.E.E.E.E.E.E.E.p.o o o o o o o o o o @ # # # # # # # # # # # # # # # # # 6 k k k k k k 3 # # # # # # # # # # # # # # # # # # # # # # # # # # # # # ",
"# # # # # # # # # # # # # # # # # # # # # # # # # # # # % g k k l k g g % # # # # # # # # # # # # W q.q.q.q.q.q.q.q.q.q.q.q.q.q.q.q.q.q.q.q.q.q.G.G.I.I.I.c . . o o o o o o o o o o o o o o o o o o o o o o o o o o o o 5 I.U.U.U.U.U.U.U.U.U.U.U.U.U.U.U.U.U.U.U.U.U.U.U.U.U.5 o o o o o o o o o o o o o o o o o o o o o o o o o o o o o o m R.R.E.E.E.R.E.E.E.E.E.E.E.E.E.E.E.E.W.E.E.E.E.~ o o o o o o o o o o o @ # # # # # # # # # # # # # # # # % t k k k k k g % # # # # # # # # # # # # # # # # # # # # # # # # # # # # ",
"# # # # # # # # # # # # # # # # # # # # # # # # # # # # 8 k k k l k k : # # # # # # # # # # # # # m q.q.q.q.q.q.q.q.q.q.q.q.q.q.q.q.q.G.q.q.q.G.G.I.I.I.I.W . . o o o o o o o o o o o o o o o o o o o o o o o o o o o o Z U.U.U.U.U.U.U.U.U.U.U.U.U.U.U.U.U.U.U.U.U.U.U.U.U.R.C o o o o o o o o o o o o o o o o o o o o o o o o o o o o o o ^ R.E.E.E.E.E.E.E.E.E.E.E.E.E.E.E.E.E.E.E.E.W.W.b o o o o o o o o o o o O @ # # # # # # # # # # # # # # # # < k k k k k k 8 # # # # # # # # # # # # # # # # # # # # # # # # # # # # ",
"# # # # # # # # # # # # # # # # # # # # # # # # # # # % k k k k k k e # # # # # # # # # # # # # # = 0.q.q.q.q.q.q.q.q.q.q.q.q.q.q.q.G.G.q.q.q.q.I.I.I.I.I.2.. . o o o o o o o o o o o o o o o o o o o o o o o o o o o o ` U.U.U.U.U.U.U.U.U.U.U.U.U.U.U.U.U.U.U.U.U.U.U.U.R.R.` o o o o o o o o o o o o o o o o o o o o o o o o o o o o o o p.R.E.E.E.E.E.E.E.E.E.E.E.E.E.E.E.E.W.E.E.W.W.T.+ o o o o o o o o o o o o O # # # # # # # # # # # # # # # # # e k k k k k k % # # # # # # # # # # # # # # # # # # # # # # # # # # # ",
"# # # # # # # # # # # # # # # # # # # # # # # # # # # 9 k k k k l l = # # # # # # # # # # # # # # # <.q.q.q.q.q.q.q.q.q.q.q.q.q.q.q.G.G.q.q.q.G.G.I.I.I.I.G.+ o o o o o o o o o o o o o o o o o o o o o o o o o o o o o 3.U.U.U.U.U.U.U.U.U.U.U.U.U.U.U.U.U.U.U.U.U.U.U.U.U.U.t.o o o o o o o o o o o o o o o o o o o o o o o o o o o o o + Y.R.R.E.E.E.E.E.E.E.E.E.E.E.E.E.E.E.W.W.W.W.W.e.o o o o o o o o o o o o o o @ # # # # # # # # # # # # # # # # = l l k l k k 9 # # # # # # # # # # # # # # # # # # # # # # # # # # # ",
"# # # # # # # # # # # # # # # # # # # # # # # # # # = g g g g g l e # # # # # # # # # # # # # # # # T q.q.q.q.q.q.q.q.q.q.q.q.q.q.q.q.q.q.G.G.G.I.I.I.I.I.I.g . . . . . . . . . . . . . X X X . . . . . . . . . . . . O D.U.U.U.U.U.U.U.U.U.U.U.U.U.U.U.U.U.U.U.U.U.U.U.U.U.U.P.O . . . X X . . . . . . . . . . . . . . . . . . . . . . . l R.R.E.E.E.E.E.E.E.E.E.E.E.E.E.E.E.E.W.W.W.W.W.U . . . . . . . . . . . . . . O # # # # # # # # # # # # # # # # # e l g g g g g % # # # # # # # # # # # # # # # # # # # # # # # # # # ",
"# # @ # @ @ @ @ @ @ # # @ @ @ @ # # @ # @ @ @ @ @ # 9 g g g g g k = @ # @ @ @ @ @ @ @ # # # @ @ @ @ t q.q.q.q.q.q.q.q.q.q.q.q.q.q.q.q.G.G.G.G.I.I.I.I.I.I.I.L X X X X X X X X X . . . . X X X X . . . . X X X X . . . t U.U.U.U.U.U.U.U.U.U.U.U.U.U.U.U.U.U.U.U.U.R.U.U.U.R.R.R.t . . . X X X X . . . . X X X X . . . X X X X X . . . . X R R.E.E.E.E.E.E.E.E.E.E.E.E.W.E.E.E.E.W.W.W.W.W.e X X X X X X . . . . X X . X X O @ @ # # @ # @ @ @ @ @ @ @ @ @ @ = k g g g g g 9 @ @ @ @ # # @ @ @ @ # # @ # @ @ @ @ # @ @ @ # # # # ",
"# # @ @ @ @ @ @ @ @ # @ @ @ # # # # @ @ @ @ @ @ @ % g g g g g g 0 # @ @ @ @ @ @ @ @ @ # # @ @ @ @ @ X 9.q.q.q.q.q.q.q.q.q.G.q.q.q.G.G.I.G.G.I.I.I.I.I.I.I.I.@.X X X X X X X X X . . . . X X X X . . . . X X X X . . . J U.U.U.U.U.U.U.U.U.U.U.U.U.U.U.U.U.U.U.U.R.R.U.U.R.R.R.R.J . . . X X X X . . . . X X X X . . . X X X X X X . . . X w.E.E.E.E.E.E.E.E.E.E.E.E.W.W.W.E.W.W.W.W.W.W.A.o X X X X . . . . . . X X X X X o @ # # # @ @ @ @ @ @ @ @ @ @ @ @ # e g g g g g g % @ @ @ # @ @ @ # # # # @ @ @ @ @ @ # # @ @ @ @ # # ",
"# @ @ @ @ @ @ @ @ @ # # # @ @ @ @ @ @ # # # @ @ @ 6 g g k g g g = @ @ @ @ @ @ @ @ @ # # # # @ @ @ O X X.q.q.q.q.q.q.q.q.q.q.q.q.G.G.I.I.I.I.I.I.I.I.I.I.I.I.8.O X X X X X X X X X X X X X X X X X X X X X X X X X X X | U.U.U.U.U.U.U.U.U.U.U.U.U.U.U.U.U.U.U.R.U.U.U.R.R.R.U.R. .X X X X X X X X X X X X X X X X X X X X X X X X X X X o A.E.E.E.E.E.E.E.E.E.E.E.W.E.E.E.W.W.W.W.W.W.W.*.o X X X X X X X X X X X X X X X X o @ @ @ @ # # # @ @ @ @ @ @ @ @ @ = g g g g g g 6 @ @ @ @ # # @ @ @ @ @ @ # # # @ @ @ @ @ @ @ @ @ @ ",
"# @ @ @ @ @ @ @ @ @ # # # # @ @ @ @ @ @ # # @ # % t g g k k g 9 @ @ @ @ @ # @ @ @ @ # # # # @ @ + X X A q.q.q.q.q.q.q.q.q.q.q.G.G.I.I.I.I.I.I.I.I.I.I.I.I.I.I.w X X X X X X X X X X X X X X X X X X X X X X X X X X X h.U.U.U.U.U.U.U.U.U.U.U.U.U.U.U.U.U.U.R.R.U.U.R.R.R.R.R.R.h.X X X X X X X X X X X X X X X X X X X X X X X X X X X e E.E.E.E.E.E.E.E.E.E.E.W.W.E.E.W.W.W.W.W.W.W.W.D o X X X X X X X X X X X X X X X X X + @ @ @ # # # @ @ @ @ @ @ @ @ @ @ 9 g g g g g t % # # @ @ @ @ # # @ @ @ @ # # @ # @ @ @ @ @ @ @ @ ",
"@ @ @ @ # # # # @ # # # @ @ @ @ @ @ @ # # # # # 6 k g g g k g = @ @ @ @ # # # # @ # # # @ @ @ @ o X X ; q.q.q.q.q.q.q.q.q.q.q.G.I.I.I.I.I.I.I.I.I.I.I.I.I.I.I.H X X X X X X X X X X X X X X X X X X X X X X X X X X @ L.U.U.U.U.U.U.U.U.U.U.U.U.U.U.U.U.U.U.R.R.U.R.U.U.R.R.R.R.R.@ X X X X X X X X X X X X X X X X X X X X X X X X X X J E.E.E.E.E.E.E.E.E.E.W.W.W.W.W.W.W.W.W.W.W.W.W.: X X X X X X X X X X X X X X X X X X o @ # @ @ # # # # # # @ # @ @ @ # = g g g g g g 3 # # # @ # # # # @ @ @ # # # # # # # @ @ @ @ # # ",
"# @ @ @ # # # # # # # # @ @ @ @ @ @ @ # # # # # t g g g g g e # @ @ @ @ # # # # @ # # # @ @ @ O X X X X 7.q.q.q.q.q.q.q.q.q.G.G.I.I.I.I.I.I.I.I.I.I.I.I.I.I.I.o.X X X X X X X X X X X X X X X X X X X X X X X X X X x U.U.U.U.U.U.U.U.U.U.U.U.U.U.U.U.U.U.R.R.R.U.U.U.U.R.R.R.R.R.v X X X X X X X X X X X X X X X X X X X X X X X X X X *.E.E.E.E.E.E.E.E.E.E.E.W.W.W.W.W.W.W.W.W.W.W.c.X X X X X X X X X X X X X X X X X X X X O @ @ # # # # # # # # # @ @ @ # @ e g g g g g t # # @ @ @ # # # @ @ @ # # # # # # # # # @ @ @ # ",
"# # @ @ @ @ # # @ @ @ @ # # # # # # # # @ @ @ : g g g k g g = @ # # @ @ @ @ # # @ @ # # @ # @ o X X X X ) q.q.q.q.q.q.G.G.I.G.G.I.I.I.I.I.I.I.I.I.I.I.I.I.I.I.8.X X X X X X X X X X X X X X X X X X X X X X X X X X L U.U.U.U.U.U.U.U.U.U.U.U.U.U.U.U.U.U.U.U.U.U.U.R.R.R.R.R.R.R.L X X X X X X X X X X X X X X X X X X X X X X X X X X V.E.E.E.E.E.E.E.E.E.E.E.W.W.W.W.W.W.W.W.W.W.W.} X X X X X X X X X X X X X X X X X X X X o @ # # @ @ # # # # @ @ @ @ # # @ = g g g g g g : # # # # # @ @ # # # # @ @ # # # # @ @ @ @ # # ",
"# # @ # @ @ # # # @ @ @ # # # # # # # # @ @ @ e g g g g g e @ @ # # # # @ @ # # # @ # # # # O o X X X X c q.q.q.G.G.G.G.I.I.I.I.I.I.I.I.I.I.I.I.I.I.I.I.I.I.I.I.; X X X X X X X X X X X X X X X X X X X X X X X X X +.U.U.U.U.U.U.U.U.U.U.U.U.U.U.U.U.U.U.R.U.U.U.R.R.R.R.R.R.R.R.+.X X X X X X X X X X X X X X X X X X X X X X X X X 2 E.E.E.E.E.E.E.W.E.E.E.W.W.W.W.W.W.W.W.W.W.W.W.N X X X X X X X X X X X X X X X X X X X X o O # # @ # # # # # @ @ @ @ # # # # t g g g g g e # # # # # @ @ # # # # @ @ @ # # # @ @ @ @ # # ",
"# # # # @ @ @ # # # @ @ @ # # # # # @ @ @ @ % g g g g g g : # @ # # # # @ @ @ # # @ @ # # @ o o X X X X $ q.q.q.G.G.G.I.I.I.I.I.I.I.I.I.I.I.I.I.I.I.I.I.I.I.I.I.Z X X X X X X X X X X X X X X X X X X X X X X X X X n.U.U.U.U.U.U.U.U.U.U.U.U.U.U.U.U.R.R.R.U.R.R.R.R.R.R.R.R.R.R.m.X X X X X X X X X X X X X X X X X X X X X X X X X S E.E.E.E.E.E.W.E.E.E.W.W.W.W.W.W.W.W.W.W.W.W.T.$ X X X X X X X X X X X X X X X X X X X X o o @ @ @ @ # # # @ @ @ # # # # # @ : g k g g g k % # # @ @ @ @ # # @ @ @ @ # # # # @ @ @ # # # ",
"# # # # @ @ @ # # # @ @ @ # # # # # @ @ @ @ 6 g g g g g g # @ @ # # # # @ @ @ @ # @ @ @ # O o o X X X o X 2.q.q.G.I.I.I.I.I.I.I.I.I.I.I.I.I.I.I.I.I.I.I.I.I.I.I._ X X X X X X X X X X X X X X X X X X X X X X X X & U.U.U.U.U.U.U.U.U.U.U.U.U.R.U.U.U.R.R.R.R.R.R.R.R.R.R.R.R.R.R.R.& X X X X X X X X X X X X X X X X X X X X X X X X  .E.E.E.E.E.W.W.E.E.W.W.W.W.W.W.W.W.W.W.W.W.W.p.X X X X X X X X X X X X X X X X X X X X X X X O @ @ @ # # # # @ @ # # # # @ @ # g k k g g g 6 # @ # @ @ @ # # @ @ @ @ # # # # @ @ # # # # ",
"# # @ @ # # # # # # @ @ @ @ @ @ # @ @ @ @ @ f g g g g g 8 # # # # # @ @ @ # # # # # # @ @ o o X X X X X X E q.G.G.G.G.I.I.I.I.I.I.I.I.I.I.I.I.I.I.I.I.I.I.I.I.I.7.X X X X X X X X X X X X X X X X X X X X X X X o m U.U.U.U.U.U.U.U.U.U.U.R.R.R.U.R.R.R.U.U.R.R.R.R.R.R.R.R.R.R.R.R.m X X X X X X X X X X X X X X X X X X X X X X X X j.E.E.E.E.W.W.W.W.W.W.W.W.W.W.W.W.W.W.W.W.(.(.~ X X X X X X X X X X X X X X X X X X X X X X X o @ @ @ # # # # @ @ # # # # # @ @ 8 g k g g g t @ @ @ @ @ @ # # @ @ @ @ # # # # @ @ # # # # ",
"# @ @ @ # # # # # # @ @ @ @ # # # # @ @ @ = k k g g g g = # # # # # # @ @ # # # @ @ # # O o X X X X X X X x G.I.G.G.I.I.I.I.I.I.I.I.I.I.I.I.I.I.I.I.I.I.I.I.I.I.I.& X X X X X X X X X X X X X X X X X X X X X X o ! U.U.U.U.U.U.U.U.U.U.U.R.R.R.R.R.R.R.R.R.R.R.R.R.R.R.R.R.R.R.R.R.! X X X X X X X X X X X X X X X X X X X X X X X & E.E.E.W.W.W.W.W.W.W.W.W.W.W.W.W.W.W.W.W.W.(.(.b X X X X X X X X X X X X X X X X X X X X X X X X O @ @ # # # @ @ @ # # # # # @ @ % g g g g g g = @ @ @ @ @ # # @ @ @ @ # # # @ @ @ # # # # ",
"# # @ @ @ @ # # # # # @ # # # # # # # # @ 9 k k k k g e @ @ # # # # @ @ @ @ # # @ # # @ . X X X X X X X X O 0.I.I.I.I.I.I.I.I.I.I.I.I.I.I.I.I.I.I.I.I.I.I.I.I.I.I.m X X X X X X X X X X X X X X X X X X X X X X o 1.U.U.U.U.U.U.U.U.U.U.U.U.U.R.R.R.R.R.R.R.R.R.R.R.R.R.R.R.R.R.R.R.w.X X X X X X X X X X X X X X X X X X X X X X X N E.E.E.E.W.E.W.W.W.W.W.W.W.W.W.W.W.W.W.W.W.W.T.+ X X X X X X X X X X X X X X X X X X X X X X X X . @ @ @ @ # # @ @ @ @ # # # # @ @ e g g g g g 9 @ # # # # # # # # @ @ @ # # # @ @ @ @ # # ",
"# # @ @ @ @ # # # # @ @ # # # # # # # @ # g k k g k g : @ @ # # # # @ @ @ @ # # @ @ # + X X X X X X X X X X <.G.I.I.I.I.I.I.I.I.I.I.I.I.I.I.I.I.I.I.I.I.I.I.I.I.I.Q X X X X X X X X X X X X X X X X X X X X X X . B.U.U.U.U.U.U.U.U.U.U.U.U.R.R.R.R.R.R.R.R.R.R.R.R.R.R.R.R.R.R.R.R.A.o X X X X X X X X X X X X X X X X X X X X X X ( E.E.E.E.W.W.W.W.W.W.W.W.W.W.W.W.W.W.W.W.W.W.r.X X X X X X X X X X X X X X X X X X X X X X X X X X O @ @ @ # # @ @ @ @ # # # # @ @ : g g g g g g # # # # # # # # # @ @ # # # # @ @ @ @ # # ",
"@ @ @ @ @ @ @ @ @ @ @ @ @ @ @ @ @ @ @ @ , g g g g g g % @ @ @ @ @ @ @ @ @ @ @ @ @ @ @ o X X X X X X X X X X K I.I.I.I.I.I.I.I.I.I.I.I.I.I.I.I.I.I.I.I.I.I.I.I.I.I.5.o X X X X X X X X X X X X X X X X X X X X X 5 U.U.U.U.U.U.U.U.R.R.R.U.U.U.U.U.R.R.R.R.R.R.R.R.R.R.R.R.R.R.R.R.R.R.5 X X X X X X X X X X X X X X X X X X X X X X f.E.E.E.E.W.W.W.W.W.W.W.W.W.W.W.W.W.W.W.(.(.W.U X X X X X X X X X X X X X X X X X X X X X X X X X X o @ @ @ @ @ @ @ @ @ @ @ @ @ @ @ # g g g g g k , @ @ @ @ @ @ @ @ @ @ @ @ @ @ @ @ @ @ @ @ ",
"@ @ @ @ @ @ @ @ @ @ @ @ @ @ @ @ @ @ @ @ 9 g g g g g e @ @ @ @ @ @ @ @ @ @ @ @ @ @ @ + X X X X X X X X X X X r I.I.I.I.I.I.I.I.I.I.I.I.I.I.I.I.I.I.I.I.I.I.I.U.U.I.L.@ X X X X X X X X X X X X X X X X X X X X X Z U.U.U.U.U.U.U.R.R.R.R.U.U.U.U.R.R.R.R.R.R.R.R.R.R.R.R.R.R.R.R.R.R.R.C X X X X X X X X X X X X X X X X X X X X X @ E.E.E.E.W.W.W.W.W.W.W.W.W.W.W.W.W.W.W.W.(.(.(.e X X X X X X X X X X X X X X X X X X X X X X X X X X o @ @ @ @ @ @ @ @ @ @ @ @ @ @ @ @ e g g g g k 9 @ @ @ @ @ @ @ @ @ @ @ @ @ @ @ @ @ @ @ @ ",
"@ @ @ @ @ @ @ @ @ @ @ @ @ @ @ @ @ @ @ @ t g g g g g : @ @ @ @ @ @ @ @ @ @ @ @ @ @ @ O X X X X X X X X X X X . 9.I.I.I.I.I.I.I.I.I.I.I.I.I.I.I.I.I.I.I.I.I.U.U.U.I.U.x X X X X X X X X X X X X X X X X X X X X X ` U.U.U.U.U.U.U.U.U.R.R.U.U.R.R.R.R.R.R.R.R.R.R.R.R.R.R.R.R.R.R.R.R.R.' X X X X X X X X X X X X X X X X X X X X X n E.E.W.W.W.W.W.W.W.W.W.W.W.W.W.(.(.W.W.(.(.(.S.o X X X X X X X X X X X X X X X X X X X X X X o X o o o O @ @ @ @ @ @ @ @ @ @ @ @ @ @ @ : g g g g g g @ @ @ @ @ @ @ @ @ @ @ @ @ @ @ @ @ @ @ @ ",
"@ @ @ @ @ @ @ @ @ @ @ @ @ @ @ @ @ @ @ = g g g g g g # @ @ @ @ @ @ @ @ @ @ @ @ @ @ @ o X X X X X X X X X X X X o.I.I.I.I.I.I.I.I.I.I.I.I.I.I.I.I.I.I.I.I.U.U.U.U.U.U.T X X X X X X X X X X X X X X X X X X X X X i.U.U.U.U.R.U.U.U.R.R.R.U.R.R.R.R.R.R.R.R.R.R.R.R.R.R.R.R.R.R.R.R.R.R.i.X X X X X X X X X X X X X X X X X X X X X ! E.W.W.W.W.W.W.W.W.W.W.W.W.W.(.(.(.(.W.(.(.(.*.X X X X X X X X X X X X X X X X X X X X X X X o o o o o o @ @ @ @ @ @ @ @ @ @ @ @ @ @ @ # g g g g g g = @ @ @ @ @ @ @ @ @ @ @ @ @ @ @ @ @ @ @ ",
"@ @ @ @ @ @ @ @ @ @ @ @ @ @ @ @ @ @ @ 6 g g g g g e @ @ @ @ @ @ @ @ @ @ @ @ @ @ @ + o o X X X X X X X X X X X A I.I.I.I.I.I.I.I.I.I.I.I.I.I.I.I.I.I.I.I.I.I.I.I.U.U.1.X X X X X X X X X X X X X X X X X X X X O P.U.U.U.R.R.U.U.U.U.U.U.R.R.R.R.R.R.R.R.R.R.R.R.R.R.R.R.R.R.R.R.R.R.R.Y.O X X X X X X X X X X X X X X X X X X X X r.W.W.W.W.W.W.W.W.W.W.W.W.W.(.W.W.W.(.W.W.(.(.D X X X X X X X X X X X X X X X X X X X X X X X X X X X X X O @ @ @ @ @ @ @ @ @ @ @ @ @ @ @ e g g g g g 6 @ @ @ @ @ @ @ @ @ @ @ @ @ @ @ @ @ @ @ ",
"@ @ @ @ @ @ @ @ @ @ @ @ @ @ @ @ @ @ @ t g g g g g : @ @ @ @ @ @ @ @ @ @ @ @ @ @ @ O o o X X X X X X X X X X X ; I.I.I.I.I.I.I.I.I.I.I.I.I.I.I.I.I.I.I.I.I.U.U.I.U.U.D.O X X X X X X X X X X X X X X X X X X X t U.U.U.U.R.R.U.R.U.U.U.R.R.R.R.R.R.R.R.R.R.R.R.R.R.R.R.R.R.R.R.R.R.R.R.R.t X X X X X X X X X X X X X X X X X X X O T.W.W.W.W.W.W.W.W.W.W.W.W.W.(.W.(.(.W.(.W.(.(.: X X X X X X X X X X X X X X X X X X X X X X X X X X X X X o @ @ @ @ @ @ @ @ @ @ @ @ @ @ @ 3 g g g g g e @ @ @ @ @ @ @ @ @ @ @ @ @ @ @ @ @ @ @ ",
"@ @ @ @ @ @ @ @ @ @ @ @ @ @ @ @ @ @ % g g g g g g % @ @ @ @ @ @ @ @ @ @ @ @ @ @ @ . o o . . . . . . . . . . . . 7.I.I.I.I.I.I.I.I.I.I.I.I.I.I.I.I.I.U.U.I.U.I.I.U.U.U.t . . X X . . . . . . . . . . . . . . . J U.U.U.U.R.R.R.R.R.R.R.R.R.R.R.R.R.R.R.R.R.R.R.R.R.R.R.R.R.R.R.R.R.R.R.E.J . X X . . . . . . . . X . . . . . . . d W.W.W.W.W.W.W.W.W.W.W.W.W.(.W.W.W.(.(.(.(.(.c.. . . . . . X . . . . . . . . . X X . . . . . . . . . . . . . @ @ @ @ @ @ @ @ @ @ @ @ @ @ @ % g g g g g g # @ @ @ @ @ @ @ @ @ @ @ @ @ @ @ @ @ @ ",
"@ @ @ @ @ @ @ @ @ @ @ @ @ @ @ @ @ @ : g g g g g t @ @ @ @ @ @ @ @ @ @ @ @ @ @ @ O o o o . . . . . . . . . . . . ) I.I.I.I.I.I.I.I.I.I.I.I.I.I.U.I.I.U.U.U.U.I.U.U.U.U.K . . X X . . . . . . . . . . . . . . . | U.U.U.U.R.R.R.R.R.R.R.R.R.R.R.R.R.R.R.R.R.R.R.R.R.R.R.R.R.R.R.R.R.R.E.E. .X X X X . . X . . . . X X . . . . . . U W.W.W.W.W.W.W.W.W.W.W.W.W.(.(.W.W.(.(.(.(.(.#.. . . . . . X X . . . . . . . . . . . . . . . . . . . . . . . O @ @ @ @ @ @ @ @ @ @ @ @ @ @ @ t g g g g g : @ @ @ @ @ @ @ @ @ @ @ @ @ @ @ @ @ @ ",
"@ @ @ @ @ @ @ @ @ @ @ @ @ @ @ @ @ @ 9 g g g g g 9 @ @ @ @ @ @ @ @ @ @ @ @ @ @ @ o X X X . . . . . . . . X X X X M I.I.I.I.I.I.I.I.I.I.I.I.I.I.U.I.U.U.U.I.I.U.U.U.U.U.+.. . . X . . . . . . . . . . X X . X X h.U.U.U.R.U.U.U.R.R.R.R.R.R.R.R.R.R.R.R.R.R.R.R.R.R.R.R.R.R.R.R.R.E.E.R.R.j.X X X . . . . . . . . . . . . . . . . :.W.W.W.W.W.W.W.W.W.(.(.W.W.(.(.W.(.(.(.(.(.(.N . . . X . . . . X X . . . . . . . . . . . . . . . . . . . . X o @ @ @ @ @ @ @ @ @ @ @ @ @ @ @ 9 g g g g g 9 @ @ @ @ @ @ @ @ @ @ @ @ @ @ @ @ @ @ ",
"@ @ @ @ @ @ @ @ @ @ @ @ @ @ @ @ @ @ t g g g g g : @ @ @ @ @ @ @ @ @ @ @ @ @ @ @ X X X X . . . . . . . . X X . X $ D.I.I.I.I.I.I.I.I.I.I.I.I.I.U.U.U.U.U.I.U.U.U.U.U.U.N.o . . X . . . . . . . . . X X X . X @ P.U.R.R.R.U.U.R.R.R.R.R.R.R.R.R.R.R.R.R.R.R.R.R.R.R.R.R.R.R.R.R.R.E.E.R.E.E.@ o X . . . . . . . . . . . . . . . . A.W.W.W.W.W.W.W.W.(.(.(.W.W.(.(.(.(.(.(.(.(.(.$ . . X X . . . . X . . . . . . . . . . . . . . . . . . . . . X X @ @ @ @ @ @ @ @ @ @ @ @ @ @ @ : g g g g g t @ @ @ @ @ @ @ @ @ @ @ @ @ @ @ @ @ @ ",
"@ @ @ @ @ @ @ @ @ @ @ @ @ @ @ @ @ # g g g g g g % @ @ @ @ @ @ @ @ @ @ @ @ @ @ + X X X X . . . . . . . . . . . . o 3.I.I.I.I.I.I.I.I.I.U.I.I.I.I.U.U.U.U.U.U.U.U.U.U.U.U.7 . . . X X . . . . X X . . . X . X l U.U.R.U.U.U.R.R.R.R.R.R.R.R.R.R.R.R.R.R.R.R.R.R.R.R.R.R.R.R.R.R.R.E.R.E.E.E.l X X . . . X X . . . . . X . . . X 8 W.W.W.W.W.W.W.W.W.W.(.(.W.W.W.W.(.(.(.(.(.(.a.. . . X X . . . . X X . . . . X . . . . . . . X . . . X . . . . X + @ @ @ @ @ @ @ @ @ @ @ @ @ @ % g g g g g g # @ @ @ @ @ @ @ @ @ @ @ @ @ @ @ @ @ ",
"@ @ @ @ @ @ @ @ @ @ @ @ @ @ @ @ @ : g g g g g t @ @ @ @ @ @ @ @ @ @ @ @ @ @ @ O X X X X . . . . . . . . . . . . o E I.I.I.I.I.I.I.I.U.U.I.I.I.I.I.U.U.U.U.U.U.U.U.U.U.U.S . . . . X . . . . X . . . . . . X L R.R.R.R.U.R.R.R.R.R.R.R.R.R.R.R.R.R.R.R.R.R.R.R.R.R.R.R.R.R.E.R.R.E.E.E.E.E.U X X . . . X . . . . . . X X . . X F W.W.W.W.W.W.W.W.W.W.(.(.W.W.(.(.(.(.(.(.(.(.~ . . . X X . . . . . . . . . . . . X X X . . . X X . . . . . . X X O @ @ @ @ @ @ @ @ @ @ @ @ @ @ @ t g g g g g , @ @ @ @ @ @ @ @ @ @ @ @ @ @ @ @ @ ",
"@ @ @ @ @ @ @ @ @ @ @ @ @ @ @ @ @ 5 g g g g g 9 @ @ @ @ @ @ @ @ @ @ @ @ @ @ @ o . . . . . . . . . X X X . . . X X g I.I.I.I.I.I.I.U.I.I.I.I.U.U.I.U.U.U.U.U.U.U.U.U.U.U.| X X X . . . X X . . . . . . . X X +.U.U.R.R.R.R.R.R.R.R.R.R.R.R.R.R.R.R.R.R.R.R.R.R.R.R.R.R.R.E.E.R.R.E.E.E.E.E.-.X X . . X X . . . X X . . . o o X *.W.W.W.W.W.W.W.W.W.W.(.(.(.(.(.(.(.(.(.(.(.(.b X X X X . . . X X . . . . . . . . . . . . . . . . . . X X . . . . o @ @ @ @ @ @ @ @ @ @ @ @ @ @ @ 9 g g g g g 5 @ @ @ @ @ @ @ @ @ @ @ @ @ @ @ @ @ ",
"@ @ @ @ @ @ @ @ @ @ @ @ @ @ @ @ @ e g g g g g : @ @ @ @ @ @ @ @ @ @ @ @ @ @ @ o . . . . X . . . . . X X . . . X . O D.I.I.I.I.I.U.U.I.I.I.I.U.U.U.U.U.U.U.U.U.U.U.U.U.U.n.X X X . . . X . . . . . . . . X X m.U.U.R.R.R.R.R.R.R.R.R.R.R.R.R.R.R.R.R.R.R.R.R.R.R.R.R.E.E.E.E.E.E.E.E.E.E.E.V.X X . . X X . . . X . . . . o o . C.W.W.W.W.(.(.W.W.W.W.(.(.(.(.(.(.(.(.(.(.(.T.+ X . . . . . . X . . . . . . . . . . . X . . . . . . . . X . . . . o @ @ @ @ @ @ @ @ @ @ @ @ @ @ @ : g g g g g e @ @ @ @ @ @ @ @ @ @ @ @ @ @ @ @ @ ",
"@ @ @ @ @ @ @ @ @ @ @ @ @ @ @ @ @ t g g g g g % @ @ @ @ @ @ @ @ @ @ @ @ @ @ + o . . . . X X . . . . . . . . . . X X <.I.I.I.I.I.U.I.U.U.U.U.U.U.U.U.U.U.U.U.U.U.U.U.U.U.U.; X X . . . . . . . . . . . . X & R.R.R.R.R.R.R.R.R.R.R.R.R.R.R.R.R.R.R.R.R.R.R.R.R.R.R.E.R.R.E.E.E.E.E.E.E.E.E.E.= o . . . . . . . . . . . . o o & W.W.W.W.(.W.W.W.(.W.W.W.(.(.(.(.(.(.(.(.(.(.r.X X . . . . . . . . X . . . X . . . . . X X . . . . . . . X . . . . o O @ @ @ @ @ @ @ @ @ @ @ @ @ @ % g g g g g t @ @ @ @ @ @ @ @ @ @ @ @ @ @ @ @ @ ",
"@ @ @ @ @ @ @ @ @ @ @ @ @ @ @ @ % g g g g g t @ @ @ @ @ @ @ @ @ @ @ @ @ @ @ O o X X . . . . . . . . . . . . . . X X K I.I.I.I.I.I.U.U.U.U.U.U.U.U.U.U.U.U.U.U.U.U.U.U.U.U.B X X . . . . . . . . . . . . X m R.R.R.R.R.R.R.R.R.R.R.R.R.R.R.R.R.R.R.R.R.R.R.R.R.R.E.R.R.R.E.E.E.E.E.E.E.E.E.E.M o . . . . . . . . . . . . o . V W.W.W.(.(.W.(.(.(.W.W.(.(.(.(.(.(.(.(.(.(.(.U X X . . . . . . . . X . . . X X . . . . . . . . . . . . . . . . . . o O @ @ @ @ @ @ @ @ @ @ @ @ @ @ @ g g g g g g % @ @ @ @ @ @ @ @ @ @ @ @ @ @ @ @ ",
"@ @ @ @ @ @ @ @ @ @ @ @ @ @ @ @ , g g g g g e @ @ @ @ @ @ @ @ @ @ @ @ @ @ @ o . X . . . X . . . . . . . . . . . X X w I.I.I.U.U.I.I.I.I.U.U.U.U.U.U.U.U.U.U.U.U.U.U.U.U.U.` . . . X X . X X . . . . . . . ! R.R.R.R.R.R.R.R.R.R.R.R.R.R.R.R.R.R.R.R.R.R.R.R.R.E.R.R.R.E.E.E.E.E.E.E.E.E.E.E.! o . . . . . . . . . X . . . . } W.W.W.W.W.(.(.(.(.(.(.(.(.(.(.(.(.(.(.(.(.(.p . . . . . . . . X X . . . . X X . . . . . . . . X X . . . . . . . . X o @ @ @ @ @ @ @ @ @ @ @ @ @ @ @ e g g g g g = @ @ @ @ @ @ @ @ @ @ @ @ @ @ @ @ ",
"@ @ @ @ @ @ @ @ @ @ @ @ @ @ @ @ 2 g g g g g 9 @ @ @ @ @ @ @ @ @ @ @ @ @ @ + . . . . . . X X . . . . . . . . X X X X o N.I.I.I.U.I.I.I.U.U.U.U.U.U.U.U.U.U.U.U.U.U.U.U.U.U.d.. . . . X . . X X . . . . . . w.R.R.R.R.R.R.R.R.R.R.R.R.R.R.R.R.R.R.R.R.R.R.R.R.E.E.R.R.E.E.E.E.E.E.E.E.E.E.E.E.r.o . . . . . . X X X X . . . . x.W.W.W.W.W.(.(.(.(.(.(.(.(.(.(.(.(.(.(.(.(.S.o . . X X . . . . . X . . . . X X . . . . . X . . X . . . X . . . . . X o + @ @ @ @ @ @ @ @ @ @ @ @ @ @ 9 g g g g g : @ @ @ @ @ @ @ @ @ @ @ @ @ @ @ @ ",
"@ @ @ @ @ @ @ @ @ @ @ @ @ @ @ @ 9 g g g g g < @ @ @ @ @ @ @ @ @ @ @ @ @ @ O X X . . . . . . . . . . X . . . . X X . X o.I.I.U.U.I.I.U.U.U.U.U.U.U.U.U.U.U.U.U.U.U.U.U.U.U.U.$ . . . . . . . . . . X X . . B.R.R.R.R.R.R.R.R.R.R.R.R.R.R.R.R.R.R.R.R.R.R.E.E.E.E.E.E.E.E.E.E.E.E.E.E.E.E.E.W.A.o . . X . . . . X . . . . X @ W.W.W.W.W.W.(.(.(.(.(.(.(.(.(.(.(.(.(.(.(.(.=.X . . . X . . . . . . . . . . . . . . . . . X . . . . . . X X X X X X X o + @ @ @ @ @ @ @ @ @ @ @ @ @ @ : g g g g g 9 @ @ @ @ @ @ @ @ @ @ @ @ @ @ @ @ ",
"@ @ @ @ @ @ @ @ @ @ @ @ @ @ @ @ e g g g g g = @ @ @ @ @ @ @ @ @ @ @ @ @ @ O X . . . . . . . . . . . X . . . . X X . . A U.U.U.U.I.U.U.U.U.U.U.U.U.U.U.U.U.U.U.U.U.U.U.U.U.U.n . . . . . . . . . X X X . 5 R.R.R.R.R.R.R.R.R.R.R.R.R.R.R.R.R.R.R.R.R.R.E.E.E.E.E.E.E.E.E.E.E.E.E.E.E.E.E.W.E.E.5 . . X X . . . . . . . . X m W.W.(.(.W.W.W.(.(.(.(.(.(.(.(.(.(.(.(.(.(.(.D X X . . . . . . . . . . . . . . . . . . . . X . . . . . . . . X X o X X X + @ @ @ @ @ @ @ @ @ @ @ @ @ @ = g g g g g e @ @ @ @ @ @ @ @ @ @ @ @ @ @ @ @ ",
"@ @ @ @ @ @ @ @ @ @ @ @ @ @ @ @ t g g g g g $ @ @ @ @ @ @ @ @ @ @ @ @ @ @ O X X X X . . . . . . . . . . . . . . X X X ; I.I.U.U.U.U.U.U.U.U.U.U.U.U.U.U.U.U.U.U.U.U.U.U.U.U.^ o o X X X . . . . X X X X Z R.R.R.R.R.R.R.R.R.R.R.R.R.R.R.R.R.R.R.R.R.E.E.R.R.E.E.E.E.E.E.E.E.E.E.E.E.E.W.E.E.E.C X X . . . . . . . . X X X / W.(.(.(.(.(.(.(.(.(.(.(.(.(.(.(.(.(.(.(.(.(.: o X X . . . . . . . . . . . . . . . . . . . X . . . . . . . . . . . . . . O @ @ @ @ @ @ @ @ @ @ @ @ @ @ % g g g g g t @ @ @ @ @ @ @ @ @ @ @ @ @ @ @ @ ",
"@ @ @ @ @ @ @ @ @ @ @ @ @ @ @ @ g g g g g g @ @ @ @ @ @ @ @ @ @ @ @ @ @ @ o X X X X . . . . . . . . . . . . . . X X X X 7.U.U.U.U.U.U.U.U.U.U.U.U.U.U.U.U.U.U.U.U.U.U.U.U.U.t.o X X X X . . . . X X X X ` R.R.R.R.R.R.R.R.R.R.R.R.R.R.R.R.R.R.R.R.E.E.E.R.E.E.E.E.E.E.E.E.E.E.E.E.W.W.W.E.E.W.' X X . . . . . . . . X X X p.(.W.(.(.(.(.(.(.(.(.(.(.(.(.(.(.(.(.(.(.(.v.o o X X . . . . . . . . . . . . . . . . . . . X . . . . . . . . . . . . X . . @ @ @ @ @ @ @ @ @ @ @ @ @ @ @ g g g g g g @ @ @ @ @ @ @ @ @ @ @ @ @ @ @ @ ",
"@ @ @ @ @ @ @ @ @ @ @ @ @ @ @ % g g g g g t @ @ @ @ @ @ @ @ @ @ @ @ @ @ @ X X X . . . . X X . . . . . . . . . . X X X X ` U.U.U.U.U.U.U.U.U.U.U.U.U.U.U.U.U.U.U.U.U.U.U.U.U.P.+ . . X . X . . . X X X X i.R.R.R.R.R.R.R.R.R.R.R.R.R.R.R.R.R.R.R.E.E.E.E.E.E.E.E.E.E.E.E.E.E.E.E.E.W.W.W.W.W.W.p.. . . . . . . . X . X X + T.W.W.W.(.(.(.(.(.(.(.(.(.(.(.(.(.(.(.(.(.(.#.o X X X . . . . . . X X . . . . X X . . . . . X . . X . . . . . . . X X X . X @ @ @ @ @ @ @ @ @ @ @ @ @ @ @ t g g g g g % @ @ @ @ @ @ @ @ @ @ @ @ @ @ @ ",
"@ @ @ @ @ @ @ @ @ @ @ @ @ @ @ = g g g g g e @ @ @ @ @ @ @ @ @ @ @ @ @ @ @ X X X . . . . X . . . . . X X . . . . . X X X M U.U.U.U.U.U.U.U.U.U.U.U.U.U.U.U.U.U.U.U.U.U.U.U.R.R.k . . . . X . . . X X X O Y.R.R.R.R.R.R.R.R.R.R.R.R.R.R.R.R.R.R.R.E.E.E.E.E.E.E.E.E.E.E.E.E.E.E.E.E.W.W.W.W.W.W.E.O . . . . . . . . . o o l (.W.W.(.(.(.(.(.(.(.(.(.(.(.(.(.(.(.(.(.(.(.N X X X X . . . . . . X . X . . . . X . . . . . . . . X X . X X X . . . X X . . + @ @ @ @ @ @ @ @ @ @ @ @ @ @ w g g g g g = @ @ @ @ @ @ @ @ @ @ @ @ @ @ @ ",
"@ @ @ @ @ @ @ @ @ @ @ @ @ @ @ : g g g g g 7 @ @ @ @ @ @ @ @ @ @ @ @ @ @ O . . . . . . . . X . . . X X X . X X X . . . . $ L.U.U.U.U.U.U.U.U.U.U.U.U.U.U.U.U.U.U.U.U.U.U.U.U.U.L . . . . . X . . . . . t R.R.R.R.R.R.R.R.R.R.R.R.R.R.R.R.R.E.R.m.m.E.E.E.E.E.E.E.E.E.E.E.E.E.E.E.E.E.W.W.W.W.W.W.d . . . X . . . . . . . Y W.W.(.(.(.(.(.(.(.(.(.(.(.(.(.(.(.(.(.(.(.(.$ . . . . . . X X X . . . X . . . X X . . . . . . . . . . . . X X . . . . X X X + @ @ @ @ @ @ @ @ @ @ @ @ @ @ 7 g g g g g : @ @ @ @ @ @ @ @ @ @ @ @ @ @ @ ",
"@ @ @ @ @ @ @ @ @ @ @ @ @ @ @ 2 g g g g g 5 @ @ @ @ @ @ @ @ @ @ @ @ @ @ O . . . . . . . X X . . . X . . . . X X . . . . X 5.U.U.U.U.U.U.U.U.U.U.U.U.U.U.U.U.U.U.U.U.U.U.U.U.U.@.. . . . X X . . . . . J R.R.R.R.R.R.R.R.R.R.R.R.R.R.R.R.E.E.E.*.*.E.E.E.E.E.E.E.E.E.E.E.E.E.E.E.E.W.W.W.W.W.W.W.P . . . X X . . . . . . r.(.(.(.(.(.(.(.(.(.(.(.(.(.(.(.(.(.(.(.(.(.k.X . . . . . . X . . . . . X . . . X . . . . . X X . . . . . . X . . . . . X X X O @ @ @ @ @ @ @ @ @ @ @ @ @ @ 5 g g g g g 2 @ @ @ @ @ @ @ @ @ @ @ @ @ @ @ ",
"@ @ @ @ @ @ @ @ @ @ @ @ @ @ @ 5 g g g g g : @ @ @ @ @ @ @ @ @ @ @ @ @ @ O . . . . . . . X . . . . . . . . . . . . . . . X E U.U.U.U.U.U.U.U.U.U.U.U.U.U.U.U.U.U.U.U.R.R.U.R.U.B.o . . . X . . . . . .  .R.R.R.R.R.R.R.R.R.R.R.R.R.R.R.E.E.E.R.P J E.E.E.E.E.E.E.E.E.E.W.E.E.E.E.W.W.W.W.W.W.W.W.%.X . . X X X X . . . o K.(.(.(.(.(.(.(.(.(.(.(.(.(.(.(.(.(.(.(.(.(.~ . . . . . . . . . . . . . . . . . . . . . . . X . . . . . . . . . . . . . X X X O @ @ @ @ @ @ @ @ @ @ @ @ @ @ : g g g g g 5 @ @ @ @ @ @ @ @ @ @ @ @ @ @ @ ",
"@ @ @ @ @ @ @ @ @ @ @ @ @ @ @ 7 g g g g g : @ @ @ @ @ @ @ @ @ @ @ @ @ @ O . . X . . . . . . . . . . . . . . . . . . . . X g U.U.U.U.U.U.U.U.U.U.U.U.U.U.U.U.U.U.U.R.R.R.R.R.U.U.e . X . . . . . . . . g.R.R.R.R.R.R.R.R.R.R.R.R.R.R.E.E.E.E.E.t t E.E.E.E.E.E.E.E.E.W.W.W.E.W.W.W.W.W.W.W.W.W.W.x.X . . X X X . . . . e (.(.(.(.(.(.(.(.(.(.(.(.(.(.(.(.(.(.(.(.(.(.l . . . . . . . . . . . . . . . . . . . . . . . . . . . . . . . . . . . . . X X X O @ @ @ @ @ @ @ @ @ @ @ @ @ @ : g g g g g 7 @ @ @ @ @ @ @ @ @ @ @ @ @ @ @ ",
"@ @ @ @ @ @ @ @ @ @ @ @ @ @ @ e g g g g g = @ @ @ @ @ @ @ @ @ @ @ @ @ @ O X X X . . X X . . . . . . . . . . . . . . . . X O F.U.U.U.U.U.U.U.U.U.U.U.U.U.U.U.U.R.U.U.U.R.R.R.U.R.J . X X . . . . . . @ R.R.R.R.R.R.R.R.R.R.R.R.R.R.R.R.R.E.E.Y.O O Y.E.E.E.E.E.E.E.E.E.W.W.W.W.W.W.W.W.W.W.W.W.W.W.@ X X X o . . . . . P (.(.(.(.(.(.(.(.(.(.(.(.(.(.(.(.(.(.(.(.(.~.O . . X . . . . . . . . . . . . . . . . . X X X X . . . X X . . . . . . . . X X . o @ @ @ @ @ @ @ @ @ @ @ @ @ @ = g g g g g w @ @ @ @ @ @ @ @ @ @ @ @ @ @ @ ",
"@ @ @ @ @ @ @ @ @ @ @ @ @ @ @ e g g g g g % @ @ @ @ @ @ @ @ @ @ @ @ @ @ o X X X . . X . . . . X . . . . . . . . . . . . X X 1.U.U.U.U.U.U.U.U.U.U.U.U.U.U.U.R.R.U.U.R.R.R.R.R.R.O.X X X . . . . . . v R.R.R.R.R.R.R.R.R.R.R.R.E.R.R.R.E.E.E.i.X X p.E.E.E.E.E.E.E.E.E.E.W.W.W.W.W.W.W.W.W.W.W.W.W.l X X X o . . . . X *.(.(.(.(.(.(.(.(.(.(.(.(.(.(.(.(.(.(.(.(.(.r.. . X X . X . . . . . . . . X X . . . . X X . . . . . . X . . . . . . . . . X X . o @ @ @ @ @ @ @ @ @ @ @ @ @ @ & g g g g g e @ @ @ @ @ @ @ @ @ @ @ @ @ @ @ ",
"@ @ @ @ @ @ @ @ @ @ @ @ @ @ @ e g g g g g % @ @ @ @ @ @ @ @ @ @ @ @ @ @ o X X X . . . . . . X X . X X . . . . X . . . . X X K U.U.U.U.U.U.U.U.U.U.U.U.U.U.U.R.R.U.R.U.U.R.R.R.R.m.. . . . . . . . X U R.R.R.R.R.R.R.R.R.R.R.E.E.R.R.E.E.E.E./ X X / E.E.E.E.E.W.E.E.E.W.W.W.W.W.W.W.W.W.W.W.W.W.W.U X X . . . . . . X Z.(.(.(.(.(.(.(.(.(.(.(.(.(.(.(.(.(.(.(.(.(.Y X X o X o X . . X X . . . . X . . . . . . . . . . . . . . . . . . . X X . . X . . o @ @ @ @ @ @ @ @ @ @ @ @ @ @ % g g g g g e @ @ @ @ @ @ @ @ @ @ @ @ @ @ @ ",
"@ @ @ @ @ @ @ @ @ @ @ @ @ @ @ t g g g g g @ @ @ @ @ @ @ @ @ @ @ @ @ @ @ o X X X . . . . . . . . . X . . . . X X . . . . X X w U.U.U.U.U.U.U.U.U.U.U.U.U.U.R.R.R.U.U.U.U.R.R.R.R.R.2 . . . . . . . X +.R.R.R.R.R.R.R.R.R.R.E.E.E.R.E.E.E.E.E.M . X N E.E.E.E.E.E.E.E.W.W.W.W.W.W.W.W.W.W.W.W.W.W.W.:.X X . . . . . . 2 (.(.(.(.(.(.(.(.(.(.(.(.(.(.(.(.(.(.(.(.(.(.p X X o X X X . . X . . . . X . . . . . . . . . . . . . . . . . . . X X X . . . . . o @ @ @ @ @ @ @ @ @ @ @ @ @ @ $ g g g g g e @ @ @ @ @ @ @ @ @ @ @ @ @ @ @ ",
"@ @ @ @ @ @ @ @ @ @ @ @ @ @ @ t g g g g g @ @ @ @ @ @ @ @ @ @ @ @ @ @ @ X . . . . . . . . . . . . . . . . . . . . . . . X X o N.U.U.U.U.U.U.U.U.U.U.U.U.U.U.U.U.U.U.R.R.R.R.R.R.R.C . . . . . . o o m.R.R.R.R.R.R.R.R.R.R.R.R.R.E.E.E.E.E.E.& . X & E.E.W.W.W.W.W.W.W.W.W.W.W.W.W.W.W.W.W.W.W.W.W.Z.. . . . . . X X S (.(.(.(.(.(.(.(.(.(.(.(.(.(.(.(.(.(.(.).).J.o X X . X . . . . X X . . . X . . . . . . . . . . . . . . X X . . . . . . . . X X X X @ @ @ @ @ @ @ @ @ @ @ @ @ @ @ g g g g g t @ @ @ @ @ @ @ @ @ @ @ @ @ @ @ ",
"@ @ @ @ @ @ @ @ @ @ @ @ @ @ @ t g g g g g @ @ @ @ @ @ @ @ @ @ @ @ @ @ @ X . . . . . . . . . . . . . . . . . . . . . . . X X X O.U.U.U.U.U.U.U.U.U.U.U.U.U.R.U.U.U.R.R.R.R.R.R.R.R.} X . . . . . o & R.R.R.R.R.R.R.R.R.R.R.R.E.E.E.E.E.E.E.V.. . X X V.E.W.W.W.W.W.W.W.W.W.W.W.W.W.W.W.W.W.W.W.W.(.(.& X . . . . X X %.(.(.(.(.(.(.(.(.(.(.(.(.(.(.(.(.(.(.).).).=.. X X . X X . . . . X . . . X X . . . . . . . X X . . . . . X X X . . . . . . X X X X @ @ @ @ @ @ @ @ @ @ @ @ @ @ @ g g g g g t @ @ @ @ @ @ @ @ @ @ @ @ @ @ @ ",
"@ @ @ @ @ @ @ @ @ @ @ @ @ @ @ t g g g g g @ @ @ @ @ @ @ @ @ @ @ @ @ @ @ X X . . . . X X . . . X . . . . X X . . . . X . X X X S U.U.U.U.U.U.U.U.U.U.U.R.R.R.U.R.R.R.R.R.R.R.R.R.R.j.X X X X o o o M R.R.R.R.R.R.R.E.E.R.R.E.E.E.E.E.E.E.E.*.X X X o *.E.E.E.W.W.W.W.W.W.W.W.W.W.W.W.W.(.W.W.W.(.(.(.M X . . . . X X c.(.(.(.(.(.(.(.(.(.(.(.(.(.(.(.(.(.(.).).).G . . . . . . . . . . . . . . . X X . . . . X X . X . . . . . X . . . . . . . . X X X X @ @ @ @ @ @ @ @ @ @ @ @ @ @ @ g g g g g t @ @ @ @ @ @ @ @ @ @ @ @ @ @ @ ",
"@ @ @ @ @ @ @ @ @ @ @ @ @ @ @ t g g g g g @ @ @ @ @ @ @ @ @ @ @ @ @ @ @ X X . . . . . X . . . X X . . . . X . . . . X X X X X ; U.U.U.U.U.U.U.U.U.U.U.R.R.R.R.R.R.R.R.R.R.R.R.R.R.R.& X X X X o o ! R.R.R.R.R.R.E.E.E.R.E.E.E.E.E.E.E.E.E.P X X X X P E.E.W.W.W.W.W.W.W.W.W.W.W.W.(.(.(.W.(.(.(.(.(.~ . . . . . X $ (.(.(.(.(.(.(.(.(.(.(.(.(.(.(.(.(.(.(.).).).: . . . . . . . . . . . . . . . . . . . . . . X . . . . . . . . . . . . . . . . X X X X @ @ @ @ @ @ @ @ @ @ @ @ @ @ @ g g g g g t @ @ @ @ @ @ @ @ @ @ @ @ @ @ @ ",
"@ @ @ @ @ @ @ @ @ @ @ @ @ @ @ t g g g g g @ @ @ @ @ @ @ @ @ @ @ @ @ @ @ . . . . . . . . . . . . . . . . . . . . . X . . . . X X h.U.U.U.U.R.U.U.U.R.R.R.U.U.R.R.R.R.R.R.R.R.R.R.R.R.M X X X . . . w.R.R.R.R.R.E.E.E.R.E.E.E.E.E.E.E.E.E.E.d X X X . d E.W.W.W.W.W.W.W.W.W.W.W.W.(.(.W.W.W.(.(.(.(.(.r.X X X . . . N (.(.(.(.(.(.(.(.(.(.(.(.(.(.(.(.(.(.(.(.).v.X X X X . . . X X X . . . X X . . . . . . . . . . . . . . . . . . . . . . . . . . . . . @ @ @ @ @ @ @ @ @ @ @ @ @ @ @ g g g g g t @ @ @ @ @ @ @ @ @ @ @ @ @ @ @ ",
"@ @ @ @ @ @ @ @ @ @ @ @ @ @ @ t g g g g g @ @ @ @ @ @ @ @ @ @ @ @ @ @ @ X . . . . . . . . . . . . . . . . . . . X X . . . . . X ` U.U.U.R.R.U.U.U.U.U.U.R.R.R.R.R.R.R.R.R.R.R.R.R.R./ X X X . . . A.R.R.R.R.E.E.E.E.E.E.E.E.E.E.E.E.E.E.E.O X X . . O T.W.W.W.W.W.W.W.W.W.W.W.W.(.(.W.(.W.W.(.(.(.(.S.o X X . X . ( (.(.(.(.(.(.(.(.(.(.(.(.(.(.).).(.(.).).).#.X X X X . . . . . . . . . X . . . X . . . . . . . . . . . . . . . . . . . . . . . . X X @ @ @ @ @ @ @ @ @ @ @ @ @ @ @ g g g g g t @ @ @ @ @ @ @ @ @ @ @ @ @ @ @ ",
"@ @ @ @ @ @ @ @ @ @ @ @ @ @ @ t g g g g g @ @ @ @ @ @ @ @ @ @ @ @ @ @ @ X . . . . . X . . X . . . . X X . . . . . . . . . . . . M U.U.U.U.R.R.R.R.R.R.R.R.R.R.R.R.R.R.R.R.R.R.R.R.R.d.X X X X X 5 R.R.R.R.R.R.R.E.E.E.E.E.E.E.E.E.E.E.E.p.o X X . . . p.W.W.W.W.W.W.W.W.W.W.W.W.(.W.(.(.(.(.(.(.(.(.(.6 X X X X X l.(.(.(.(.(.(.(.(.(.(.(.(.(.).).).(.).).).).N . X X X . . . . . . . . . . . . X X . . . . . X X X . . . . X . . X . . . . X X . . . X @ @ @ @ @ @ @ @ @ @ @ @ @ @ @ g g g g g t @ @ @ @ @ @ @ @ @ @ @ @ @ @ @ ",
"@ @ @ @ @ @ @ @ @ @ @ @ @ @ @ t g g g g g @ @ @ @ @ @ @ @ @ @ @ @ @ @ @ X . . . . X X . X X . . . . . X . . . X . . . . . . . . $ P.U.U.U.R.R.R.R.R.R.R.R.R.R.R.R.R.R.R.R.R.R.R.R.R.R.@ X X X X C R.R.R.R.R.R.E.E.E.E.E.E.E.E.E.E.E.E.E./ o X X . . . / W.W.W.W.W.W.W.W.W.W.W.W.W.(.(.(.(.(.(.(.(.(.(.C X X X X @ (.(.(.(.(.(.(.(.(.(.(.(.(.).).(.(.).).).).(.$ . X X X . . . . . . . . . . . . . . . . . . X X . X . . . X X . X X . . . . . X . . . X @ @ @ @ @ @ @ @ @ @ @ @ @ @ @ g g g g g t @ @ @ @ @ @ @ @ @ @ @ @ @ @ @ ",
"@ @ @ @ @ @ @ @ @ @ @ @ @ @ @ t g g g g g @ @ @ @ @ @ @ @ @ @ @ @ @ @ @ X X X X . . . . . . . . . . . . . . X X X . . . . . . . X i.U.U.U.U.U.U.R.R.R.R.R.R.R.R.R.R.R.R.R.R.R.R.R.R.R.v . X X X ' R.R.R.R.R.E.E.E.E.E.E.E.E.E.E.E.E.E.E.N . . . X X . N W.W.W.W.W.W.W.W.W.W.(.(.W.W.W.W.(.(.(.(.(.(.(.' X X X X n (.(.(.(.(.(.(.(.(.(.(.(.).).).(.(.(.(.).).k.X . . . . . . X . X X . . . . . X . . . . . . . . . . . X X X . . . . . . . . . . X X X X @ @ @ @ @ @ @ @ @ @ @ @ @ @ @ g g g g g e @ @ @ @ @ @ @ @ @ @ @ @ @ @ @ ",
"@ @ @ @ @ @ @ @ @ @ @ @ @ @ @ e g g g g g $ @ @ @ @ @ @ @ @ @ @ @ @ @ @ . X . X . . . . . . . . . . X X . . . . X . . . . . X . X ^ U.U.U.U.U.U.R.R.R.R.R.R.R.R.R.R.R.R.R.R.R.R.R.R.R.! . X . X p.R.R.R.R.E.E.E.E.E.E.E.E.E.E.E.E.E.E.E.& . . . X X . & W.W.W.W.W.W.W.W.W.W.(.(.W.W.(.(.(.(.(.(.(.(.(.a.X X . X ~ (.(.(.(.(.(.(.(.(.(.(.).).(.).(.(.).).).).( X . . . . . . X X . X . . . . X X . . . . . . . . . . . . . . . . . . . . . . . . X X X . @ @ @ @ @ @ @ @ @ @ @ @ @ @ $ g g g g g e @ @ @ @ @ @ @ @ @ @ @ @ @ @ @ ",
"@ @ @ @ @ @ @ @ @ @ @ @ @ @ @ w g g g g g $ @ @ @ @ @ @ @ @ @ @ @ @ @ @ o . . . . . . X . . . . . . . X . . . . X . . . . . X X o v R.R.U.U.R.R.R.R.R.R.R.R.R.R.R.R.R.R.R.R.R.R.R.R.R.e.. . X O Y.E.E.E.E.E.E.E.E.E.E.E.E.E.E.E.E.E.E.V.. . . . X X X . C.W.W.W.W.(.(.W.W.(.(.(.W.(.(.(.(.(.(.(.(.(.(.~.O . X X r.(.(.(.(.(.(.(.(.(.(.(.(.(.).).).(.).).).).n X . . . . . . . X . . . . . . . . . . . . . . X . . . . . . . . . . . . . . X . . X X X o @ @ @ @ @ @ @ @ @ @ @ @ @ @ % g g g g g e @ @ @ @ @ @ @ @ @ @ @ @ @ @ @ ",
"+ + + + + + + + + + + + + + + 7 t t t t t = + + + + + + + + + + + + + + o . . . . . . X X . . . . . . . . . . . . . . . . . . . o O F.R.R.R.R.R.R.R.R.R.R.R.R.R.R.R.R.R.R.R.R.R.R.R.R.Y.O X X t E.E.E.E.E.E.E.E.E.E.E.E.E.E.E.E.E.E.E.*.. . . . X X X X =.W.W.W.(.(.(.(.W.(.(.(.(.(.(.(.(.(.(.(.(.(.(.(.d . X O ~.(.(.(.(.(.(.(.(.).(.(.(.).).).).).).).).^.+ X . . . . . . . . . . . . . . . . X X X . . . X X . . . . . . . . X X . . . X X . X X X O + + + + + + + + + + + + + + = t t t t t 7 + + + + + + + + + + + + + + + ",
"+ + + + + + + + + + + + + + + 7 t t t t t , + + + + + + + + + + + + + + o . . . . X X X . . X . . . . . X X . . . . X X . . . . X X 1.R.R.R.R.R.R.R.R.R.R.R.R.R.R.R.R.R.R.R.R.R.R.R.R.R.t X X J R.E.E.E.E.E.E.E.E.E.E.E.E.E.W.W.E.E.W.P X X . . X X o o P W.W.W.W.W.W.(.W.W.W.(.(.(.(.(.(.(.(.(.(.(.(.(.P X X d (.(.(.(.(.(.(.(.).).).).(.(.(.).).).).).).y.. X X . . . . X . . . . . . . . . . . . . X . . . . . . . . . . . . X . . . . . . . . . . o + + + + + + + + + + + + + + , t t t t t 7 + + + + + + + + + + + + + + + ",
"+ + + + + + + + + + + + + + + 5 t g t t t : + + + + + + + + + + + + + + O . . . . X X X . . X X . . . . X . . . . . X . . . . . . . L R.R.R.R.R.R.R.R.R.R.R.R.R.R.R.R.R.R.R.R.R.R.R.R.R.I X X  .E.E.E.E.E.E.E.E.E.E.E.E.E.W.W.W.E.W.W.d X . . . X o o o d W.W.W.W.(.(.(.W.W.(.(.(.(.(.(.(.(.(.(.(.(.(.(.&.X X U (.(.(.(.(.(.(.).).).).).(.(.(.).).).).).).Y . . X . . . . X X . . . X X . . . . . . X X . . . . . . . . . . . . . . . . X X . . . . . O + + + + + + + + + + + + + + : t t t t t 5 + + + + + + + + + + + + + + + ",
"+ + + @ + + @ + + + + + + + + : g g t g t 2 + + + @ + + @ + + + + + + + O . X X . . X X . . . . X X . . . . . . . . . . . . . . . . e R.R.R.R.R.R.R.R.R.R.R.R.R.R.R.R.R.R.R.R.R.R.R.R.E.:.X X j.E.E.E.E.E.E.E.E.E.E.E.E.E.W.W.W.W.W.E.O X X X X X . o o O T.W.W.W.W.(.(.(.(.(.(.(.(.(.(.(.(.(.(.(.(.(.(.x.X X >.(.(.(.(.(.(.(.(.(.(.).).(.(.).).).).).).).p . . X . . . . . . . . . . X X . . . . . . . . . . . . . X X . . . . . . . . . X . . X X . O + + + + + + + + + + + + + + 2 t t t t t : + + + + + + + + @ + + @ + + + ",
"+ + + + + + + + + + + + + + + : t t t g t 5 @ + + + + + + + + + + + + + + X X X . . . X . . . . . X . . . . . . . . . . . . . . . . o m.R.R.R.R.R.R.R.R.R.R.R.R.R.R.R.R.R.R.R.R.R.E.E.E.A.o @ R.E.E.E.E.E.E.E.E.E.E.E.E.E.W.W.W.W.W.p.X X X X X . . o o o p.W.W.W.W.(.(.(.(.(.(.(.(.(.(.(.(.(.(.(.(.(.(.(.@ X S.(.(.(.(.(.(.(.).(.).).).(.).).).).).).).J.o . . . . . . . . . . . . . . X . . . . . . . . . . . . . X . . . . X . . . . . . . . X X X O + + + + @ + + + + + + + + + 5 t g t t t : + + + + + + + + + + + + + + + ",
"+ + @ + + + + + + + + + + + + = t t t t t w + + + + + + + @ + + + + + + + o X X . . . . . . . . . . . . . . . . . . . X X . . . X X X O.R.R.R.R.R.R.R.R.R.R.R.R.R.R.R.R.R.R.R.R.E.E.R.R.E.7 v E.E.E.E.E.E.E.E.E.E.E.E.E.E.W.W.W.W.W./ X X . . . . . . . X / W.W.W.(.(.(.(.(.(.(.(.(.(.(.(.(.(.(.(.(.(.(.(.l 9 (.(.(.(.).(.(.(.).(.(.).).).).).).).).).).=.X X X . . . . . . . . . . . . X . . . X X X . . X . . . . X X . . . X . X . . . . . . X X . + + + + + + + + + + + + + + + w g g g g t = + + + + + + + + + + + + @ + + ",
"+ + + + + + + + + + + + + + + % t t t t t e + + + + + + + + + + + + + + + o X X . . . . . . . . . . . . . X . . . . . X X X . . X X X S R.R.R.R.R.R.R.R.R.R.R.R.R.R.R.R.R.R.R.E.E.E.R.E.E.S U E.E.E.E.E.E.E.E.E.E.E.E.E.W.W.W.W.W.W.N X X . . . . . . . X N W.W.W.(.(.(.(.(.(.(.(.(.(.(.(.(.(.(.(.(.(.(.(.Y G (.(.(.).).(.(.).).(.(.).).).).).).).).).).D X X X . . . . . . . . . . . . . . . . . . . . . X X . . . . X . . . X X X . . . . . . X X . + + + + + + + + + + + + @ + @ t t g g t t % + + + + + + + + + + + + + + + ",
"+ + + + + + + + + + + + + + + @ t t t t t t @ + + + + + + + + + + + + + + o o X . . . . . . X X . . . . X X . . . . . X . . . . X X X : R.R.R.R.R.R.R.R.R.R.R.R.R.R.R.R.R.R.E.E.E.R.E.E.E...:.E.E.E.E.E.E.E.E.W.E.E.E.W.W.W.W.W.W.W.& . X X . . . . . . X & (.(.(.(.(.(.(.(.(.(.(.(.(.(.(.(.(.(.(.(.(.(.(.>.=.(.(.).).).(.).).(.(.).).).).).).).).).).).: X X X X X . . X . . . . . X X . . . . . . . . . . . . . . . . . . . . . . . . X . . . X X . + + + + + + + + + + + + + + @ t t t t t t @ + + + + @ + + + + + + + + + + ",
"+ + + + + + + + + + + + + + + + t t t t g g @ + + + + + + + + + + + + + + o o X . . . . . . X X X . . . . . . . . . . . . . . . X X X X j.R.R.R.R.R.R.R.R.R.R.R.R.R.R.R.R.E.E.E.E.E.E.E.E.V.V.E.E.E.E.E.E.W.W.W.E.E.W.W.W.W.W.W.W.C.. . . . . . . . . . X X C.(.(.(.(.(.(.(.(.(.(.(.(.(.(.(.(.(.(.(.(.(.(.Z.C.).).).).).(.(.).(.).).).).).).).).).).).v.X X X X X . . . X X . . . . X . . . . . . . . . . . . . . . . . . . . . . . . . X X . . X X o + + + + + + + + + + + + + + @ t t t t t e + + + + + + + + + + + + + + + + ",
"+ + + + + + @ + + + + + + + + + e t t t t t % + + + + + + + + + + + + + + O X X . . . . . . . . X . . . X . . . . . . . . . . . . . . . ' R.R.R.R.R.R.R.R.R.R.R.R.R.R.E.R.R.R.R.E.E.E.E.E.E.E.E.E.E.E.E.W.W.W.E.W.W.W.W.W.W.W.W.W.*.X X X X X X . X X . . . =.(.(.(.(.(.(.(.(.(.(.(.(.(.(.(.(.(.(.(.(.(.(.(.).).(.(.(.).).).(.).).).).).).).).).).).).#.. X . . . . . . . . . . . . . . . . . . . . . X X X . . . X X . . X X . . . . . . . . . X X O + + + + + @ + + + + + + + + = t g t t t w @ @ + + + + + + + + + + + + + + ",
"+ + + + + + + + + + + + + + + + 5 t t t t t : @ + + + + + + + + + + + + + O X X . . . . . . . . X . . . X X . . . . X X . . . . . . . . M R.R.R.R.R.R.R.R.R.R.R.R.R.E.E.R.R.E.E.E.E.E.E.E.E.E.E.E.E.E.E.W.W.E.W.W.W.W.W.W.W.W.W.W.P X X X X . X . . X X . . P (.(.(.(.(.(.(.(.(.(.(.(.(.(.(.(.(.(.(.(.(.(.).).).(.).(.).(.).).).).).).).).).).).).).).N . X X . . . . . . X . . . . . . . . . . . . . . . . . . . X . . . . X . . . . . . . . . X X O + + + + + + + + + @ + + + + : t t t t t 7 + @ + + + + + + + + + + + + + + ",
"+ + + + + + + + + + + + + + + + : t t t t t 5 @ + + + + + + + + + + + + + O X X . . . . X X . . . . . . . . . . . . . X X . . . . . . . $ R.R.R.R.R.R.R.R.R.R.R.R.R.E.E.R.E.E.E.E.E.E.E.E.E.E.E.E.E.W.W.E.E.W.W.W.W.W.W.W.W.W.W.W.d X X . . . . . . . . . . d (.(.(.(.(.(.(.(.(.(.(.(.(.(.(.(.(.(.(.(.(.(.).).).).).(.(.).).).).).).).).).).).).).).(.$ . . . . . . . . X X . . . . . X X X . . . . . . . . . . . . . . . . . . X X . . . . . . X X + + + + + + + + + + + + + + + 5 t t t t t : + + + + + + + + + + + + + + + + ",
"+ + + + + + + + + + + + + + + + & t t t t g w @ + + + + + + + + + + + + + + X X X X . . . . . . . . . . . . . . . . . . X . . . . . . . X d.R.R.R.R.R.R.R.R.R.R.R.R.R.R.E.E.E.E.E.E.E.E.E.E.E.E.E.E.W.W.E.W.W.W.W.W.W.W.W.W.W.W.T.O X X . . . . . . . . . . O T.(.(.(.(.(.(.(.(.(.(.(.(.(.(.(.(.(.(.(.).(.).).).).).).).).).).).).).).).).).).).).).s.. . . . . . . . . . . . . . . X X . X . . . . . . . . . . . . . . . . . . X X . . . . . . X X + + + + + + + + + + + + + + + w t t t t t & + + + + + + + + + + + + + + + + ",
"+ + + + + + + + + + + + + + + + @ t t t t t t @ + + + + + + + + + + + + + + o X X . . . X X . . . . . . . . . . . . . . X . . . . . . . X ^ R.R.R.R.R.R.R.R.R.R.E.R.E.E.E.E.E.E.E.E.E.E.E.E.E.W.E.E.E.E.W.W.W.W.W.W.W.W.W.W.W.W.p.. X X . . . . . . . . X X X p.(.(.(.(.(.(.(.(.(.(.(.(.(.(.(.(.(.(.(.(.(.(.(.(.(.(.).).).).).).).).).).).).).).).).[ X . . . . X X . . . . . . . . . . . . . . . . X . X X . . . . . . . . . . . . . . X X X . X o + + + + + + + + + + + + + + @ t t t t t t @ + + + + + + + + + + + + + + + + ",
"+ + + + + + + + + + + + + + + + + r t t t t t @ + + + + + + + + + + + + + + O X X . . . X X . . X X . . . . . . . . . . . . . . . X X . X v R.R.R.R.R.R.R.E.E.E.R.R.E.E.E.E.E.E.E.E.E.E.E.E.W.W.E.E.W.W.W.W.W.W.W.W.W.W.W.W.W.W./ . X X . . . . . . . . X X X ( (.(.(.(.(.(.(.(.(.(.(.(.(.(.(.(.(.(.(.(.).(.(.(.(.).).).).).).).).).).).).).).).).).b X . . . . . X . . X . . . . . . . . . . . . . X X X . . . . . . . . . . . . . . . X X X . X O + + + + + + + + + + + + + + @ t t t t t r + + + + + + + + + + + + + + + + + ",
"+ + + + + + + + + + + + + + + + + 7 t t t t t ; + + + + + + + + + + + + + + O . . . . . . X . . X . . . . X . . . . X X . . . . X X X X X O F.R.R.R.R.R.E.E.E.E.E.E.E.E.E.E.E.E.E.E.E.E.E.E.E.E.E.W.W.W.W.W.W.W.W.W.W.W.W.W.W.W.N . . . . . . . . . . X X X . N (.(.(.(.(.(.(.(.(.(.(.(.(.(.(.).(.(.).).).).).).).).).).).).).).).).).).).).).).)./.+ X . . . . . . . . X . . . . . . . . . . . . . . . . . . . . X . . . . X . . . . . X X X X X O + + + + + + + + + + + + + + ; t t t t t 7 + + + + + + + + + + + + + + + + + ",
"+ + + + + + + + + + + + + + + + + : t t t t t 5 + + + + + + + + + + + + + + + X . . . . . . . . . . . . X X . . . . X . . . . . X X X X X X w.R.R.R.R.E.E.E.E.E.E.E.E.E.E.E.E.E.E.E.E.E.E.E.E.E.W.W.W.W.W.W.W.W.W.W.W.W.(.W.W.W.& . . . . . . . . . . . . . . & (.(.(.(.(.(.(.(.(.(.(.(.(.(.).).(.(.).).).).).).).).).).).).).).).).).).).).).).).y.X X . . . . . . . . X . . . . . X X X . . . . . . . . . . . X X . . . . X X . . . . X X X X X + + + + + + + + + + + + + + + 5 t t t t t : + + + + + + + + + + + + + + + + + ",
"+ + + + + + + + + + + + + + + + + & t t t t t w + + + + + + + + + + + + + + + O X . . . . . . . . . X X . . . . . . . . . . . . . . . . . . L R.R.R.R.R.R.R.E.E.E.E.E.E.E.E.E.E.E.E.E.W.W.W.E.W.W.W.W.W.W.W.W.W.W.W.W.(.W.W.W.C.. . . . . . . . . . . . . . . . C.(.(.(.(.(.(.(.(.(.(.(.(.(.(.).(.).).).(.).).).).).).).).).).).).).).).).).).).).Y X X X X . . . . X X . . . . . . . . . . . X . . . . . . . . . . X X . . . . X X . . . X X X o + + + + + + + + + + + + + + + r t t t t t & + + + + + + + + + + + + + + + + + ",
"+ + + + + + + + + + + + + + + + + @ t t t t t t @ + + + + + + + + + + + + + + O X X . . . . . . . X X . . . . . . . . . . . X . . . . . . . e R.R.E.E.R.R.E.E.E.E.E.E.E.E.E.E.E.E.W.E.W.W.W.W.W.W.W.W.W.W.W.W.W.W.W.(.W.W.W.(.=.. . X . . . . . . . . . . . . . =.(.(.(.(.(.(.(.(.(.(.).(.(.(.).).).).).).).).).).).).).).).).).).).).).).).).).).p X X X X . . . X X . . . . . X X . . . . X X . . . . . . . . . X X . . . . . . X . . . . . . O + + + + + + + + + + + + + + @ t t t t t t @ + + + + + + + + + + + + + + + + + ",
"+ + + + + + + + + + + + + + + + + + w t t t t t & + + + + + + + + + + + + + + + X X X X . . . . . . . . . . . . X . . . . . X X . . . . X X . A.R.R.R.R.E.E.E.E.E.E.E.E.E.E.E.E.E.E.E.E.W.W.W.W.W.W.W.W.W.W.W.W.W.(.(.(.W.(.W.P X X X X . . . . . . X X . . . . P (.(.(.(.(.(.(.(.(.).).(.(.(.(.).).).).).).).).).).).).).).).).).).).).).).).).Q.. . . X X X . . . . . . . . . X . . . . . . . . . . . . X X . . . . . . . . . . . . . . . . . + + + + + + + + + + + + + + + = t t t t t w + + + + + + + + + + + + + + + + + + ",
"+ + + + + + + + + + + + + + + + + + 5 t t t t t 5 + + + + + + + + + + + + + + + . X X X . . . . . . . . . . . . X X . . . . . . . . . . X X X O.E.R.E.E.E.E.E.E.E.E.E.E.E.E.E.E.E.E.E.W.W.W.W.W.W.W.W.W.W.W.W.W.W.(.(.(.(.(.W.t X X X X . . . . . X X X . . . . d (.(.(.(.(.(.(.(.).).).(.(.(.(.).).).).).).).).).).).).).).).).).).).).).).).).;.. . . X X . . . . . . . . . . . . . . . . . . . . . . X X . . . . . . . . . . . . . . . . . X + + + + + + + + + + + + + + + 5 t t t t t 5 + + + + + + + + + + + + + + + + + + ",
"+ + + + + + + + + + + + + + + + + + & t t t t t r + + + + + + + + + + + + + + + o . . X . . . . . . . . . . . . . . . . . . . . . . . . X X X S E.E.E.E.E.E.E.E.E.E.E.E.E.E.W.W.E.E.W.W.W.W.W.W.W.W.W.W.W.W.W.W.W.W.W.(.(.(.T.O . . . . . . . . . . . . . . . . O ~.(.(.(.(.(.(.).).(.(.).).).(.).).).).).).).).).).).).).).).).).).).).).).).).D . . . . . . . . . . . . . . . . . . . . . . . . . . . . . . . . . . . . . . . . . . X . . . O + + + + + + + + + + + + + + + w t t t t t , + + + + + + + + + + + + + + + + + + ",
"+ + + + + + + + + + + + + + + + + + @ t t t t t t @ + + + + + + + + + + + + + + O . . . . . . . . . . . . . . . . . . . . . . . . . . . X X X : E.E.E.E.E.E.E.E.E.E.E.E.E.W.W.W.E.W.W.W.W.W.W.W.W.W.W.W.W.(.W.W.W.(.(.(.(.(.p.X . . . . . . . . . . . . . . . . X a.(.(.(.(.(.).(.(.).).).).).).).).).).).).).).).).).).).).).).).).).).).).).).: . . . . . . . . . . . . . . . . . . . . . . . . . . . . . . . . . . . . . . . . X . X . . X + + + + + + + + + + + + + + + @ t t t t t t @ + + + + + + + + + + + + + + + + + + ",
"+ + + + + + + + + + + + + + + + + + + w t t t t t , + + + + + + + + + + + + + + O X . . . . . . . . . . . . . . . . . . . . . . . . . . . . . . j.E.E.E.E.E.E.E.E.E.E.E.E.E.W.W.W.W.W.W.W.W.W.W.W.W.W.W.(.(.(.W.(.W.W.(.(.(.( . . . . . . . . . . . . . . . . . . ( (.(.(.).).).(.(.(.).).).).).).).).).).).).).).).).).).).).).).).).).).).).b.. . . . . . . . . . . . . . . . . . . . . . . . . . . . . . . . . . . . . . . . . . . . . . . + + + + + + + + + + + + + + + : t t t t t 7 + + + + + + + + + + + + + + + + + + + ",
"+ + + + + + + + + + + + + + + + + + + : t t t t t 7 + + + + + + + + + + + + + + O o . . . . . . . . . . . . . . . . . . . . . . . . . . . . . . } E.E.E.E.E.E.E.E.E.E.E.E.W.W.W.W.W.W.W.W.W.W.W.W.W.W.W.(.(.(.(.W.(.W.(.(.(.N . . . . . . . . . . . . . . . . . . N (.(.).).).).).).).).).).).).).).).).).).).).).).).).).).).).).).).).).).`.$.. . . . . . . . . . . . . . . . . . . . . . . . . . . . . . . . . . . . . . . . . . . . . . O + + + + + + + + + + + + + + + 7 t t t t t : + + + + + + + + + + + + + + + + + + + ",
"+ + + + + + + + + + + + + + + + + + + $ t t t t t t @ + + + + + + + + + + + + + + O X . . . . . . . . . . . . . . . . . . . . . . . . . . . . . M E.E.E.E.E.E.E.E.W.E.E.E.W.W.W.W.W.W.W.W.W.W.W.W.W.W.W.W.W.W.W.W.W.(.(.(.(.& . . . . . . . . . . . . . . . . . . & (.(.).).(.).(.(.(.).).).).).).).).).).).).).).).).).).).).).).).).).`.`.`.N . . . . . . . . . . . . . . . . . . . . . . . . . . . . . . . . . . . . . . . . . . . . . . O O + + + + + + + + + + + + + @ t t t t t t $ + + + + + + + + + + + + + + + + + + + ",
"+ + + + + + + + + + + + + + + + + + + + r t t t t t & + + + + + + + + + + + + + + + o . . . . . . . . . . . . . . . . . . . . . . . . . . . . . @ E.E.E.E.E.E.E.W.W.E.E.W.W.W.W.W.W.W.W.W.W.W.W.W.W.W.W.W.(.W.W.W.(.(.(.(.C.. . . . . . . . . . . . . . . . . . . . Z.(.(.(.).).(.(.).).).).).).).).).).).).).).).).).).).).).).).).).`.`.`.).$ . . . . . . . . . . . . . . . . . . . . . . . . . . . . . . . . . . . . . . . . . . . . . o O O + + + + + + + + + + + + + & t t t t t r + + + + + + + + + + + + + + + + + + + + ",
"+ + + + + + + + + + + + + + + + + + + + 5 t t t t t 7 + + + + + + + + + + + + + + + O X . . . . . . . . . . . . . . . . . . . . . . . . . . . . . p.E.E.E.E.E.W.W.W.E.W.W.W.W.W.W.W.W.W.W.W.W.(.W.W.(.(.(.(.W.W.(.(.(.(.(.=.. . . . . . . . . . . . . . . . . . . . =.(.(.).(.).(.).).).).).).).).).).).).).).).).).).).).).).).).).`.`.).`.z.. . . . . . . . . . . . . . . . . . . . . . . . . . . . . . . . . . . . . . . . . . . . . . O O O + + + + + + + + + + + + + 7 t t t t t 5 + + + + + + + + + + + + + + + + + + + + ",
"+ + + + + + + + + + + + + + + + + + + + $ t t t t t t @ + + + + + + + + + + + + + + + X . . . . . . . . . . . . . . . . . . . . . . . . . . . . . ! E.E.E.E.E.W.W.W.W.W.W.W.W.W.W.W.W.W.W.W.(.(.W.W.(.(.(.(.(.(.(.(.(.(.(.P . . . . . . . . . . . . . . . . . . . . P (.).).(.(.).).).).).).).).).).).).).).).).).).).).).).).).).`.`.`.).`.] . . . . . . . . . . . . . . . . . . . . . . . . . . . . . . . . . . . . . . . . . . . . . X O O O + + + + + + + + + + + + @ t t t t t t $ + + + + + + + + + + + + + + + + + + + + ",
"+ + + + + + + + + + + + + + + + + + + + + r t t t t t & + + + + + + + + + + + + + + + O . . . . . . . . . . . . . . . . . . . . . . . . . . . . . v E.E.E.E.W.W.W.W.W.W.W.W.W.W.W.W.W.W.W.W.(.(.W.(.(.(.W.(.(.(.(.(.(.(.(.d . . . . . . . . . . . . . . . . . . . . d ).(.(.(.).).).).).).).).).).).).).).).).).).).).).).).).).).).).).`.`.b . . . . . . . . . . . . . . . . . . . . . . . . . . . . . . . . . . . . . . . . . . . . . O + + + + + + + + + + + + + + + ; t t t t t r + + + + + + + + + + + + + + + + + + + + + ",
"+ + + + + + + + + + + + + + + + + + + + + 5 t t t t t 7 + + + + + + + + + + + + + + + + . . . . . . . . . . . . . . . . . . . . . . . . . . . . . O Y.E.E.E.W.W.W.W.W.W.W.W.W.W.W.W.W.W.W.(.(.(.(.(.(.(.(.(.(.(.(.(.(.(.~.O . . . . . . . . . . . . . . . . . . . . O ~.(.).).).).).).).).).).).).).).).).).).).).).).).).).`.`.).).).`.`./.O . . . . . . . . . . . . . . . . . . . . . . . . . . . . . . . . . . . . . . . . . . . . X O + + + + + + + + + + + + + + + 7 t t t t t 2 + + + + + + + + + + + + + + + + + + + + + ",
"+ + + + + + + + + + + + + + + + + + + + + $ t t t t t t @ + + + + + + + + + + + + + O O o . . . . . . . . . . . . . . . . . . . . . . . . . . . . . e.E.E.W.W.W.W.W.W.W.W.W.W.W.W.W.W.W.W.W.W.(.(.(.(.(.(.(.(.(.(.(.(.(.a.. . . . . . . . . . . . . . . . . . . . . . a.).).).).).).).).).).).).).).).).).).).).).).).).).).).).).`.`.`.`.y.. . . . . . . . . . . . . . . . . . . . . . . . . . . . . . . . . . . . . . . . . . . . . o + + + + + + + + + + + + + + + @ t t t t t t $ + + + + + + + + + + + + + + + + + + + + + ",
"+ + + + + + + + + + + + + + + + + + + + + + r t t t t t : + + + + + + + + + + + + O O O O . . . . . . . . . . . . . . . . . . . . . . . . . . . . . U E.E.W.W.W.W.W.W.W.W.W.W.W.W.W.W.W.W.W.(.(.(.(.(.(.(.(.(.(.(.(.(.(.( . . . . . . . . . . . . . . . . . . . . . . { ).).).).).).).).).).).).).).).).).).).).).).).).).).).).`.`.`.`.`.Y . . . . . . . . . . . . . . . . . . . . . . . . . . . . . . . . . . . . . . . . . . . . X O + + + + + + + + + + + + + + + : t t t t t r + + + + + + + + + + + + + + + + + + + + + + ",
"+ + + + + + + + + + + + + + + + + + + + + + : t t t t t r + + + + + + + + + + + + + + + + o . . . . . . . . . . . . . . . . . . . . . . . . . . . . e E.W.W.W.W.W.W.W.W.W.W.W.W.(.(.(.W.W.W.W.(.(.(.(.(.(.(.(.(.(.(.(.(.N . . . . . . . . . . . . . . . . . . . . . . N ).).).).).).).).).).).).).).).).).).).).).).).`.`.`.).`.`.`.`.`.`.p . . . . . . . . . . . . . . . . . . . . . . . . . . . . . . . . . . . . . . . . . . . . o O + + + + + + + + + + + + + + + r t t t t t ; + + + + + + + + + + + + + + + + + + + + + + ",
"+ + + + + + + + + + + + + + + + + + + + + + + r t t t t t & + + + + + + + + + + + + + + + O X . . . . . . . . . . . . . . . . . . . . . . . . . . . . A.W.W.W.W.W.W.W.W.W.W.W.W.(.(.W.(.W.W.W.(.(.(.(.(.(.(.(.(.(.(.(.(.& . . . . . . . . . . . . . . . . . . . . . . = ).).).).).).).).).).).).).).).).).).).).).).).`.`.`.`.`.`.`.`.`.!.. . . . . . . . . . . . . . . . . . . . . . . . . . . . . . . . . . . . . . . . . . . . . O O + + + + + + + + + + + + + + & t t t t t t @ + + + + + + + + + + + + + + + + + + + + + + ",
"+ + + + + + + + + + + + + + + + + + + + + + + 7 t t t t t 7 + + + + + + + + + + + + + + + + o . . . . . . . . . . . . . . . . . . . . . . . . . . . . *.W.W.W.W.W.W.W.W.W.W.W.W.W.W.(.(.W.W.(.(.(.(.(.(.(.(.(.(.(.(.(.C.. . . . . . . . . . . . . . . . . . . . . . . . Z.).).).).).).).).).).).).).).).).).).).).).).).`.`.`.`.`.`.`.`.,.. . . . . . . . . . . . . . . . . . . . . . . . . . . . . . . . . . . . . . . . . . . . O O O + + + + + + + + + + + + + + 7 t t t t t 7 + + + + + + + + + + + + + + + + + + + + + + + ",
"+ + + + + + + + + + + + + + + + + + + + + + + & t t t t t t $ + + + + + + + + + + + + + + + O X . . . . . . . . . . . . . . . . . . . . . . . . . . . S W.W.W.W.W.W.W.W.W.W.W.W.W.(.(.(.W.(.(.(.(.(.(.(.(.(.(.(.(.(.(.=.. . . . . . . . . . . . . . . . . . . . . . . . ;.).).).).).).).).).).).).).).).).).).`.).).).`.`.`.`.`.`.`.`.`.G . . . . . . . . . . . . . . . . . . . . . . . . . . . . . . . . . . . . . . . . . . . X + + O + + + + + + + + + + + + + $ t t t t t t & + + + + + + + + + + + + + + + + + + + + + + + ",
"+ + + + + + + + + + + + + + + + + + + + + + + + w t t t t t 5 + + + + + + + + + + + + + + + + o . . . . . . . . . . . . . . . . . . . . . . . . . . . : W.W.W.W.W.W.W.W.W.W.(.(.W.W.(.(.(.(.(.(.(.(.(.(.(.(.(.(.(.(.(.P . . . . . . . . . . . . . . . . . . . . . . . . P ).).).).).).).).).).).).).).).).).`.`.).).`.`.`.`.`.`.`.`.`.`.: . . . . . . . . . . . . . . . . . . . . . . . . . . . . . . . . . . . . . . . . . . . O + + + + + + + + + + + + + + + + 7 t t t t t w + + + + + + + + + + + + + + + + + + + + + + + + ",
"+ + + + O O O O O O O O + O O O + + + + O O O O ; t t t t t t @ O O O O + + O O O O O O + + O O . . . . . . . . . . . . . . . . . . . . . . . . . . . . c.W.W.W.W.W.W.W.W.W.(.(.(.W.(.(.(.(.(.(.(.(.(.(.(.(.(.(.(.(.(.d . . . . . . . . . . . . . . . . . . . . . . . . d ).).).).).).).).).).).).).).).).`.`.`.).`.`.`.`.`.`.`.`.`.`.b.. . . . . . . . . . . . . . . . . . . . . . . . . . . . . . . . . . . . . . . . . . . X O O O O O + O O O O O O + + O O @ t t t t t t ; O + O O O O O O + + + + O O O O O O + + + + + + ",
"+ + O O O O O O O O + + + + O O + O + O O O O O + r t t t t t 2 O O O O + + + O O O O O + + + O O . . . . . . . . . . . . . . . . . . . . . . . . . . . } W.W.W.W.(.(.W.W.(.(.(.(.(.(.(.(.(.(.(.(.(.(.(.(.(.(.(.(.(.~.O . . . . . . . . . . . . . . . . . . . . . . . . O /.).).).).).).).).).).).).).).`.`.`.`.`.`.`.`.`.`.`.`.`.`.'.$.. . . . . . . . . . . . . . . . . . . . . . . . . . . . . . . . . . . . . . . . . . . O + + O O O + + + O O O O + + + O 5 t t t t t r + O + + + O O O O + + O O O O O O O O O O + + + + ",
"+ + + O O O O O O O O + + + O O O O + + O O O O O : t t t t t t @ O O O + + + + O O O O + + + + O X . . . . . . . . . . . . . . . . . . . . . . . . . . N W.W.W.(.(.(.(.W.(.(.(.(.(.(.(.(.(.(.(.(.(.(.(.(.(.(.(.(.(.a.. . . . . . . . . . . . . . . . . . . . . . . . . . a.).).).).).).).).).).).).).).`.`.`.`.`.`.`.`.`.`.`.`.`.'.'.N . . . . . . . . . . . . . . . . . . . . . . . . . . . . . . . . . . . . . . . . . . X O + + O O O O + + O O O O + + + @ t t t t t t : O O O + + + O O O + + + O O O O O O O O O O + O O ",
"O O O O O O O O O O + + + O O O O O O O O + O O O @ t t t t t t 5 O O O + + + + O + + + O O O O O O . . . . . . . . . . . . . . . . . . . . . . . . . . @ W.W.W.W.W.W.(.W.W.W.(.(.(.(.(.(.(.(.(.(.(.(.(.(.(.(.(.(.(.( . . . . . . . . . . . . . . . . . . . . . . . . . . { ).).).).).).).).).).).).).).`.`.`.`.`.`.`.`.`.`.`.`.`.`.`.@ . . . . . . . . . . . . . . . . . . . . . . . . . . . . . . . . . . . . . . . . X X O O O O O O + + + O + + + + O O O 5 t t t t t t @ O O O + + + + + + O O O O O + O O O O O O O O O O ",
"O O O O O O O O O O + + O O O O O O O O + + + + O O 2 t t t t t t @ O O + + + + O + + + O O O O O O o . . . . . . . . . . . . . . . . . . . . . . . . . . f.W.W.W.(.(.(.W.W.(.(.(.(.(.(.(.(.(.(.(.(.(.(.(.(.(.(.(.(.N . . . . . . . . . . . . . . . . . . . . . . . . . . N ).).).).).).).).).).).).).).`.`.`.`.`.`.`.`.`.`.`.'.`.`.z.. . . . . . . . . . . . . . . . . . . . . . . . . . . . . . . . . . . . . . . . . X o O O O O O O + + + O + + + + O O @ t t t t t t 2 O O + O + + + + + + O O O O + + + + O O O O O O O O ",
"+ O O O O O + + + + + + O O O O O O + + + + + + + + + r r r t t t 5 O O + + O O O O + + O + O O O O O X . . . . . . . . . . . . . . . . . . . . . . . . . ~ W.W.W.W.(.(.(.(.(.(.(.(.(.(.(.(.(.(.(.(.(.(.(.(.(.(.(.(.= . . . . . . . . . . . . . . . . . . . . . . . . . . = ).).).).).).).).).`.).).).`.`.`.`.`.`.`.`.`.`.`.'.'.`.`.] . . . . . . . . . . . . . . . . . . . . . . . . . . . . . . . . . . . . . . . . . X + + + O O + O + + O O + + O O O O 5 t t t t t t + + + O O O + O O O O O O + + + + + + + + O O O O + + ",
"+ O O O + + + + + + + + + O O O O O O + + + + + + O O ; t t t t t t $ O + + O O O O + + + + O O O O O O . . . . . . . . . . . . . . . . . . . . . . . . . l W.(.W.W.(.(.(.(.(.(.(.(.(.(.(.(.(.(.(.(.(.(.(.(.(.(.(.C.. . . . . . . . . . . . . . . . . . . . . . . . . . . . H.).).).).).).).`.`.).).`.`.`.`.`.`.`.`.`.`.'.'.'.'.'.'.l . . . . . . . . . . . . . . . . . . . . . . . . . . . . . . . . . . . . . . . . . O + + + O O + + + + O O + + O O O @ r r t t t t ; O O + O O O O O O O O O O O + + + + + + + O O O O + + ",
"+ + O O O O + + + O O O + + + + + + + + O O + + O O + @ t t t t t t w O O O O O O O O O + + + O O O + + o X . . . . . . . . . . . . . . . . . . . . . . . O T.(.W.(.(.(.(.(.(.(.(.(.(.(.(.(.(.(.(.(.(.(.(.(.(.(.(.=.. . . . . . . . . . . . . . . . . . . . . . . . . . . . =.).).).).).`.`.`.`.).`.`.`.`.`.`.`.`.`.`.'.'.'.'.'.'._.O . . . . . . . . . . . . . . . . . . . . . . . . . . . . . . . . . . . . . . . . o O O O + O + + + O + O O + O O O O 7 t t t t t r + O O + O O O O O O O O + + + + O O + + + + O O O O + + ",
"+ + O O O O + + + O O O + + + + + + + + O O + + O O O O ; t t t t t t & O O O O O O O O + + + + O O + + + . . . . . . . . . . . . . . . . . . . . . . . . . r.(.W.(.(.(.(.(.(.(.(.(.(.(.(.(.(.(.(.(.(.(.(.(.(.(.(.P . . . . . . . . . . . . . . . . . . . . . . . . . . . . I ).).).).).`.`.`.`.`.`.`.`.`.`.`.`.`.`.'.'.'.'.'.'.'.u.. . . . . . . . . . . . . . . . . . . . . . . . . . . . . . . . . . . . . . . . X O O O O O + + + + O O O O O O O O & t t t t t r ; O O + + O O O O O O + + + + + + O O + + + + O O O O + + ",
"+ + + O O O O + + + O O O O + + + + O O O O + + O + + + + r t t t t t w + O + + + + + + + + + O O O + + + O . . . . . . . . . . . . . . . . . . . . . . . . U (.(.(.(.(.(.(.(.(.(.(.(.(.(.(.(.(.(.(.(.(.(.(.(.(.(.d . . . . . . . . . . . . . . . . . . . . . . . . . . . . d ).).).).).).).`.`.`.`.`.`.`.`.`.`.`.'.'.'.'.'.'.'.'.Y . . . . . . . . . . . . . . . . . . . . . . . . . . . . . . . . . . . . . . . . O O O O + O O + + + + + + + O O O + w t t t t r r + O O O + O O + O + + + + + + O O O O + + + + + O O + + + ",
"+ + + + O O + + + + O O O O + + O O O O O O + + O O + + O ; t t t t t t ; + + + + + + + + + + O O O + + O O O . . . . . . . . . . . . . . . . . . . . . . . e (.(.(.(.(.(.(.(.(.(.(.(.(.(.(.(.(.(.(.(.(.(.(.(.).~.O . . . . . . . . . . . . . . . . . . . . . . . . . . . . O /.).`.).).).`.`.`.`.`.`.`.`.`.`.`.'.'.'.'.'.'.'.'.'.p . . . . . . . . . . . . . . . . . . . . . . . . . . . . . . . . . . . . . . . o O O O O + O O + + + + + + + + O O ; t t t t r r & O + + + + O O + + + + + + O O O O O O + + + + O O O O + + ",
"O O O O + + + + + + O O O O O + + + + O O O + + O O O O + + w t t t r r r @ O O + + + + + + O O + O O O + + + O . . . . . . . . . . . . . . . . . . . . . . X S.(.(.(.(.(.(.(.(.(.(.(.(.(.(.(.(.(.(.(.(.(.(.(.(.a.. . . . . . . . . . . . . . . . . . . . . . . . . . . . . . s.`.`.).).`.`.`.`.`.`.`.`.`.`.'.'.'.'.'.'.`.`.`.`.!.X . . . . . . . . . . . . . . . . . . . . . . . . . . . . . . . . . . . . . . o O O O + + + + O O + + + + + + O O @ t t t r r t w + O + + + + O + O O O O O O + + + O O O + + O O O O + + + + ",
"+ O O O + + + + + + O O O O + + + + O O O O + + + O O O + + $ t t t r r t 7 + O + + + + + + O O + O O O + + + + X . . . . . . . . . . . . . . . . . . . . . . =.(.(.(.(.(.(.(.(.(.(.(.(.(.(.(.(.(.(.(.(.(.(.(.(.( . . . . . . . . . . . . . . . . . . . . . . . . . . . . . . { `.`.).`.`.`.`.`.`.`.`.`.`.'.'.'.'.'.'.'.`.`.`.`.,.. . . . . . . . . . . . . . . . . . . . . . . . . . . . . . . . . . . . . . X + O O O + + + + O O + + + + + + O O 7 t t t t t t $ O O + + + + + + + + O O O O + + O O O O + + + O O O + + + + ",
"+ + O O + O + + + O O O + + + + + + + + O O O + + + O O + O + 7 t t t r t t ; + O O O O O O O O + + O O O O + + O . . . . . . . . . . . . . . . . . . . . . . D (.(.(.(.(.(.(.(.(.(.(.(.(.(.(.(.(.(.(.(.(.(.(.(.N . . . . . . . . . . . . . . . . . . . . . . . . . . . . . . N `.`.`.`.`.`.`.`.`.`.`.`.'.'.'.'.'.'.'.'.`.'.`.`.G . . . . . . . . . . . . . . . . . . . . . . . . . . . . . . . . . . . . . . O + + O O + O + + O O O O O O + O O ; r t t t t t 7 + O O + O + + + + + + + + O O + + + + O O O + + + O O + O + + ",
"+ + O O O O + + + + O O + + + + + + + + O O O O + + O O O O + @ r t t r t t r + O O O + O O O O + + O O O O + + O O . . . . . . . . . . . . . . . . . . . . . : (.(.(.(.(.(.(.(.(.(.(.(.(.(.(.(.(.(.(.).).).(.(.& . . . . . . . . . . . . . . . . . . . . . . . . . . . . . . & `.`.`.`.`.`.`.`.`.`.`.`.'.'.'.'.'.'.'.'.'.'.`.`., . . . . . . . . . . . . . . . . . . . . . . . . . . . . . . . . . . . . . O O + + O O O O + + O O O O O O O O + r r t t t t r @ + O O O O + + + + + + + + O O + + + + O O O O + + O O O O + + ",
"O O O O O O O O O O O O O O O O O O O O O O O O O O O O O O O O & r r t t t t 7 + O O O O O O O O O O O O O O O O O o . . . . . . . . . . . . . . . . . . . . . . . . . . . . . . . . . . . . . . . . . . . . . . . . . . . . . . . . . . . . . . . . . . . . . . . . . . . . . . . . . . . . . . . . . . . . . . . . . . . . . . . . . . . . . . . . . . . . . . . . . . . . . . . . . . . . . . . X . X O O O O O O O O O O O O O O O O O O O 7 t t t t t t & O O O O O O O O O O O O O O O O O O O O O O O O O O O O O O O O ",
"O O O O O O O O O O O O O O O O O O O O O O O O O O O O O O O O O 7 r t t t t t ; O O O O O O O O O O O O O O O O O O o . . . . . . . . . . . . . . . . . . . . . . . . . . . . . . . . . . . . . . . . . . . . . . . . . . . . . . . . . . . . . . . . . . . . . . . . . . . . . . . . . . . . . . . . . . . . . . . . . . . . . . . . . . . . . . . . . . . . . . . . . . . . . . . . . . . . . . . . O O O O O O O O O O O O O O O O O O O ; t t t t t t 7 O O O O O O O O O O O O O O O O O O O O O O O O O O O O O O O O O ",
"O O O O O O O O O O O O O O O O O O O O O O O O O O O O O O O O O @ t t t t t t t $ O O O O O O O O O O O O O O O O O O o . . . . . . . . . . . . . . . . . . . . . . . . . . . . . . . . . . . . . . . . . . . . . . . . . . . . . . . . . . . . . . . . . . . . . . . . . . . . . . . . . . . . . . . . . . . . . . . . . . . . . . . . . . . . . . . . . . . . . . . . . . . . . . . . . . . X X X O O O O O O O O O O O O O O O O O O O $ t t t t t t t @ O O O O O O O O O O O O O O O O O O O O O O O O O O O O O O O O O ",
"O O O O O O O O O O O O O O O O O O O O O O O O O O O O O O O O O O ; t r t t t t w + O O O O O O O O O O O O O O O O O O o . . . . . . . . . . . . . . . . . . . . . . . . . . . . . . . . . . . . . . . . . . . . . . . . . . . . . . . . . . . . . . . . . . . . . . . . . . . . . . . . . . . . . . . . . . . . . . . . . . . . . . . . . . . . . . . . . . . . . . . . . . . . . . . . . . X X o O O O O O O O O O O O O O O O O O O + w t t t t t t ; O O O O O O O O O O O O O O O O O O O O O O O O O O O O O O O O O O ",
"O O O O O O O O O O O O O O O O O O O O O O O O O O O O O O O O O O O 7 t t t t t t 5 O O O O O O O O O O O O O O O O O O O o X X X . . . . . . . . . . . . . . . . . . . . . . . . . . . . . . . . . . . . . . . . . . . . . . . . . . . . . . . . . . . . . . . . . . . . . . . . . . . . . . . . . . . . . . . . . . . . . . . . . . . . . . . . . . . . . . . . . . . . . . . . . . . . . . . X O O O O O O O O O O O O O O O O O O O 1 t t t t t t 7 O O O O O O O O O O O O O O O O O O O O O O O O O O O O O O O O O O O ",
"O O O O O O O O O O O O O O O O O O O O O O O O O O O O O O O O O O O + r t t t t t t & O O O O O O O O O O O O O O O O O O O o X X . . . . . . . . . . . . . . . . . . . . . . . . . . . . . . . . . . . . . . . . . . . . . . . . . . . . . . . . . . . . . . . . . . . . . . . . . . . . . . . . . . . . . . . . . . . . . . . . . . . . . . . . . . . . . . . . . . . . . . . . . . . . . . X O O O O O O O O O O O O O O O O O O O & t t t t t r w + O O O O O O O O O O O O O O O O O O O O O O O O O O O O O O O O O O O ",
"O O O O O O O O O O O O O O O O O O O O O O O O O O O O O O O O O O O O & t t t r r t r $ O O O O O O O O O O O O O O O O O O O O X X . . . . . . . . . . . . . . . . . . . . . . . . . . . . . . . . . . . . . . . . . . . . . . . . . . . . . . . . . . . . . . . . . . . . . . . . . . . . . . . . . . . . . . . . . . . . . . . . . . . . . . . . . . . . . . . . . . . . . . . . . . . . o O O O O O O O O O O O O O O O O O O O $ r r r r t t t & O O O O O O O O O O O O O O O O O O O O O O O O O O O O O O O O O O O O ",
"O O O O O O O O O O O O O O O O O O O O O O O O O O O O O O O O O O O O O 5 t t r r r r w + O O O O O O O O O O O O O O O O O O O O X . . . . . . . . . . . . . . . . . . . . . . . . . . . . . . . . . . . . . . . . . . . . . . . . . . . . . . . . . . . . . . . . . . . . . . . . . . . . . . . . . . . . . . . . . . . . . . . . . . . . . . . . . . . . . . . . . . . . . . . . . . . o O O O O O O O O O O O O O O O O O O O + r r r r r t t : O O O O O O O O O O O O O O O O O O O O O O O O O O O O O O O O O O O O O ",
"O O O O O O O O O O O O O O O O O O O O O O O O O O O O O O O O O O O O O + w t t t t t r 5 + O O O O O O O O O O O O O O O O O O O X . . . . . . . . . . . . . . . . . . . . . . . . . . . . . . . . . . . . . . . . . . . . . . . . . . . . . . . . . . . . . . . . . . . . . . . . . . . . . . . . . . . . . . . . . . . . . . . . . . . . . . . . . . . . . . . . . . . . . . X X . X O O O O O O O O O O O O O O O O O O O O + 7 t t t t r t w + O O O O O O O O O O O O O O O O O O O O O O O O O O O O O O O O O O O O O ",
"O O O O O O O O O O O O O O O O O O O O O O O O O O O O O O O O O O O O O O @ r t t t t t t 5 O O O O O O O O O O O O O O O O O O O O o . . . . . . . . . . . . . . . . . . . . . . . . . . . . . . . . . . . . . . . . . . . . . . . . . . . . . . . . . . . . . . . . . . . . . . . . . . . . . . . . . . . . . . . . . . . . . . . . . . . . . . . . . . . . . . . . . . . . . . X . O O O O O O O O O O O O O O O O O O O O O 5 t t t t t t r @ O O O O O O O O O O O O O O O O O O O O O O O O O O O O O O O O O O O O O O ",
"O O O O O O O O O O O O O O O O O O O O O O O O O O O O O O O O O O O O O O O $ r t t t t r t ; O O O O O O O O O O O O O O O O O O O O o . . . . . . . . . . . . . . . . . . . . . . . . . . . . . . . . . . . . . . . . . . . . . . . . . . . . . . . . . . . . . . . . . . . . . . . . . . . . . . . . . . . . . . . . . . . . . . . . . . . . . . . . . . . . . . . . . . . X X X O O O O O O O O O O O O O O O O O O O O O ; t t t t t t t $ O O O O O O O O O O O O O O O O O O O O O O O O O O O O O O O O O O O O O O O ",
"O O O O O O O O O O O O O O O O O O O O O O O O O O O O O O O O O O O O O O O O ; t t t r r t t ; O O O O O O O O O O O O O O O O O O O O O X . . . . . . . . . . . . . . . . . . . . . . . . . . . . . . . . . . . . . . . . . . . . . . . . . . . . . . . . . . . . . . . . . . . . . . . . . . . . . . . . . . . . . . . . . . . . . . . . . . . . . . . . . . . . . . . . . X X O O O O O O O O O O O O O O O O O O O O O & t t t t t t t ; O O O O O O O O O O O O O O O O O O O O O O O O O O O O O O O O O O O O O O O O ",
"O O O O O O O O O O O O O O O O O O O O O O O O O O O O O O O O O O O O O O O O O 5 t t t t t t t & O O O O O O O O O O O O O O O O O O O O O o X X X X . . . . . . . . . . . . . . . . . . . . . . . . . . . . . . . . . . . . . . . . . . . . . . . . . . . . . . . . . . . . . . . . . . . . . . . . . . . . . . . . . . . . . . . . . . . . . . . . . . . . . . . . . . . . . O O O O O O O O O O O O O O O O O O O O O $ r t t t t t t 5 O O O O O O O O O O O O O O O O O O O O O O O O O O O O O O O O O O O O O O O O O ",
"O O O O O O O O O O O O O O O O O O O O O O O O O O O O O O O O O O O O O O O O O O 5 t t t t t t t $ O O O O O O O O O O O O O O O O O O O O O O X X X . . . . . . . . . . . . . . . . . . . . . . . . . . . . . . . . . . . . . . . . . . . . . . . . . . . . . . . . . . . . . . . . . . . . . . . . . . . . . . . . . . . . . . . . . . . . . . . . . . . . . . . . . . . O O O O O O O O O O O O O O O O O O O O O O $ r t t t t t t 7 + O O O O O O O O O O O O O O O O O O O O O O O O O O O O O O O O O O O O O O O O O ",
"O O O O O O O O O O O O O O O O O O O O O O O O O O O O O O O O O O O O O O O O O O + q t t t t t t t $ O O O O O O O O O O O O O O O O O O O O O O X X . . . . . . . . . . . . . . . . . . . . . . . . . . . . . . . . . . . . . . . . . . . . . . . . . . . . . . . . . . . . . . . . . . . . . . . . . . . . . . . . . . . . . . . . . . . . . . . . . . . . . . . . . X O O O O O O O O O O O O O O O O O O O O O O $ r t t t t t t w + O O O O O O O O O O O O O O O O O O O O O O O O O O O O O O O O O O O O O O O O O O ",
"O O O O O O O O O O O O O O O O O O O O O O O O O O O O O O O O O O O O O O O O O O O + w r t t t t t r @ O O O O O O O O O O O O O O O O O O O O O O o . . . . . . . . . . . . . . . . . . . . . . . . . . . . . . . . . . . . . . . . . . . . . . . . . . . . . . . . . . . . . . . . . . . . . . . . . . . . . . . . . . . . . . . . . . . . . . . . . . . . . . . . X O O O O O O O O O O O O O O O O O O O O O O $ w t t t t t t r @ O O O O O O O O O O O O O O O O O O O O O O O O O O O O O O O O O O O O O O O O O O O ",
"O O O O O O O O O O O O O O O O O O O O O O O O O O O O O O O O O O O O O O O O O O O O @ w t t t t t t r $ O O O O O O O O O O O O O O O O O O O O O O o X . . . . . . . . . . . . . . . . . . . . . . . . . . . . . . . . . . . . . . . . . . . . . . . . . . . . . . . . . . . . . . . . . . . . . . . . . . . . . . . . . . . . . . . . . . . . . . . . . . . . . o O O O O O O O O O O O O O O O O O O O O O O @ r t t t t t r w @ O O O O O O O O O O O O O O O O O O O O O O O O O O O O O O O O O O O O O O O O O O O O ",
"O O O O O O O O O O O O O O O O O O O O O O O O O O O O O O O O O O O O O O O O O O O O O @ w t t t t t t r $ O O O O O O O O O O O O O O O O O O O O O O O o . . . . . . . . . . . . . . . . . . . . . . . . . . . . . . . . . . . . . . . . . . . . . . . . . . . . . . . . . . . . . . . . . . . . . . . . . . . . . . . . . . . . . . . . . . . . . . . . . . X O O O O O O O O O O O O O O O O O O O O O O O $ r t t t t t r w @ O O O O O O O O O O O O O O O O O O O O O O O O O O O O O O O O O O O O O O O O O O O O O ",
"O O O O O O O O O O O O O O O O O O O O O O O O O O O O O O O O O O O O O O O O O O O O O O $ r r r r r r r r $ O O O O O O O O O O O O O O O O O O O O O O O O . . . . . . . . . . . . . . . . . . . . . . . . . . . . . . . . . . . . . . . . . . . . . . . . . . . . . . . . . . . . . . . . . . . . . . . . . . . . . . . . . . . . . . . . . . . . . . . X o O O O O O O O O O O O O O O O O O O O O O O O & r t t r r r r r $ O O O O O O O O O O O O O O O O O O O O O O O O O O O O O O O O O O O O O O O O O O O O O O ",
"O O O O O O O O O O O O O O O O O O O O O O O O O O O O O O O O O O O O O O O O O O O O O O O $ r r r r r r r r & O O O O O O O O O O O O O O O O O O O O O O O O o . . . . . . . . . . . . . . . . . . . . . . . . . . . . . . . . . . . . . . . . . . . . . . . . . . . . . . . . . . . . . . . . . . . . . . . . . . . . . . . . . . . . . . . . . . . X o O O O O O O O O O O O O O O O O O O O O O O O O & r t t r r r r r $ O O O O O O O O O O O O O O O O O O O O O O O O O O O O O O O O O O O O O O O O O O O O O O O ",
"O O O O O O O O O O O O O O O O O O O O O O O O O O O O O O O O O O O O O O O O O O O O O O O O $ r r r r r r r r ; O O O O O O O O O O O O O O O O O O O O O O O O O X X . . . . . . . . . . . . . . . . . . . . . . . . . . . . . . . . . . . . . . . . . . . . . . . . . . . . . . . . . . . . . . . . . . . . . . . . . . . . . . . . . . . . . .   o O O O O O O O O O O O O O O O O O O O O O O O O O ; r r r r r r r r $ O O O O O O O O O O O O O O O O O O O O O O O O O O O O O O O O O O O O O O O O O O O O O O O O ",
"O O O O O O O O O O O O O O O O O O O O O O O O O O O O O O O O O O O O O O O O O O O O O O O O O $ r r r r r r r r 5 + O O O O O O O O O O O O O O O O O O O O O O O O O X . . . . . . . . . . . . . . . . . . . . . . . . . . . . . . . . . . . . . . . . . . . . . . . . . . . . . . . . . . . . . . . . . . . . . . . . . . . . . . . . . . . . X O O O O O O O O O O O O O O O O O O O O O O O O O O 1 r r r r r r r r $ O O O O O O O O O O O O O O O O O O O O O O O O O O O O O O O O O O O O O O O O O O O O O O O O O ",
"O O O O O O O O O O O O O O O O O O O O O O O O O O O O O O O O O O O O O O O O O O O O O O O O O O $ r r r r r r r r 7 + O O O O O O O O O O O O O O O O O O O O O O O O O O X . . . . . . . . . . . . . . . . . . . . . . . . . . . . . . . . . . . . . . . . . . . . . . . . . . . . . . . . . . . . . . . . . . . . . . . . . . . . . . . . X o O O O O O O O O O O O O O O O O O O O O O O O O O + 7 r r r r r r r r @ O O O O O O O O O O O O O O O O O O O O O O O O O O O O O O O O O O O O O O O O O O O O O O O O O O ",
"O O O O O O O O O O O O O O O O O O O O O O O O O O O O O O O O O O O O O O O O O O O O O O O O O O O @ w r t r r r r r w @ O O O O O O O O O O O O O O O O O O O O O O O O O O O o . . . . . . . . . . . . . . . . . . . . . . . . . . . . . . . . . . . . . . . . . . . . . . . . . . . . . . . . . . . . . . . . . . . . . . . . . . . . X o O O O O O O O O O O O O O O O O O O O O O O O O O O @ w r r r r r r r w @ O O O O O O O O O O O O O O O O O O O O O O O O O O O O O O O O O O O O O O O O O O O O O O O O O O O ",
"O O O O O O O O O O O O O O O O O O O O O O O O O O O O O O O O O O O O O O O O O O O O O O O O O O O O + 7 r r r r r r r r ; O O O O O O O O O O O O O O O O O O O O O O O O O O O O . . . . . . . . . . . . . . . . . . . . . . . . . . . . . . . . . . . . . . . . . . . . . . . . . . . . . . . . . . . . . . . . . . . . . . . . . o O O O O O O O O O O O O O O O O O O O O O O O O O O O O & r r r r r r r r w + O O O O O O O O O O O O O O O O O O O O O O O O O O O O O O O O O O O O O O O O O O O O O O O O O O O O ",
"O O O O O O O O O O O O O O O O O O O O O O O O O O O O O O O O O O O O O O O O O O O O O O O O O O O O O + 5 r r r r r r r r ; + O O O O O O O O O O O O O O O O O O O O O O O O O O O O . X . . . . . . . . . . . . . . . . . . . . . . . . . . . . . . . . . . . . . . . . . . . . . . . . . . . . . . . . . . . . . . . . . . X o O O O O O O O O O O O O O O O O O O O O O O O O O O O O O 1 r r r r r r r r 5 + O O O O O O O O O O O O O O O O O O O O O O O O O O O O O O O O O O O O O O O O O O O O O O O O O O O O O ",
"O O O O O O O O O O O O O O O O O O O O O O O O O O O O O O O O O O O O O O O O O O O O O O O O O O O O O O O ; r r r r r r r r w @ O O O O O O O O O O O O O O O O O O O O O O O O O O O O O o X . . . . . . . . . . . . . . . . . . . . . . . . . . . . . . . . . . . . . . . . . . . . . . . . . . . . . . . . . . . . . . X O O O O O O O O O O O O O O O O O O O O O O O O O O O O O O @ 7 r r r r r r r r 5 + O O O O O O O O O O O O O O O O O O O O O O O O O O O O O O O O O O O O O O O O O O O O O O O O O O O O O O ",
"X O O O O O O O O O O O O O O O O O O O O O O O O O O O O O O O O O O O O O O O O O O O O O O O O O O O O O O O ; r r r r r r r r r ; O O O O O O O O O O O O O O O O O O O O O O O O O O O O O O O X X . . . . . . . . . . . . . . . . . . . . . . . . . . . . . . . . . . . . . . . . . . . . . . . . . . . . . . . . X X O O O O O O O O O O O O O O O O O O O O O O O O O O O O O O O ; r r r r r r r r r ; O O O O O O O O O O O O O O O O O O O O O O O O O O O O O O O O O O O O O O O O O O O O O O O O O O O O O O O o ",
"O O O O O O O O O O O O O O O O O O O O O O O O O O O O O O O O O O O O O O O O O O O O O O O O O O O O O O O O O $ w r r r r r r r r 5 + O O O O O O O O O O O O O O O O O O O O O O O O O O O O O O O O O o X X . . . . . . . . . . . . . . . . . . . . . . . . . . . . . . . . . . . . . . . . . . . . . . . X X o O O O O O O O O O O O O O O O O O O O O O O O O O O O O O O O O + 5 r r r r r r r r w $ O O O O O O O O O O O O O O O O O O O O O O O O O O O O O O O O O O O O O O O O O O O O O O O O O O O O O O O O X ",
"X O O O O O O O O O O O O O O O O O O O O O O O O O O O O O O O O O O O O O O O O O O O O O O O O O O O O O O O O O + 5 r r r r r r r r r ; O O O O O O O O O O O O O O O O O O O O O O O O O O O O O O O O O O O . . X . . . . . . . . . . . . . . . . . . . . . . . . . . . . . . . . . . . . . . . . X o X O O O O O O O O O O O O O O O O O O O O O O O O O O O O O O O O O O O & r r r r r r r r r 5 + O O O O O O O O O O O O O O O O O O O O O O O O O O O O O O O O O O O O O O O O O O O O O O O O O O O O O O O O O X ",
"X O O O O O O O O O O O O O O O O O O O O O O O O O O O O O O O O O O O O O O O O O O O O O O O O O O O O O O O O O O O ; r r r r r r r r r 5 + O O O O O O O O O O O O O O O O O O O O O O O O O O O O O O O O O O O o O O . X . . . . . . . . . . . . . . . . . . . . . . . . . . . . . . . . X . O O O O O O o o o o O O O O O O O O O O O O O O O O O O O O O O O O O O O O @ 5 r r r r r r r r r ; O O O O O O O O O O O O O O O O O O O O O O O O O O O O O O O O O O O O O O O O O O O O O O O O O O O O O O O O O O O X ",
"X O O O O O O O O O O O O O O O O O O O O O O O O O O O O O O O O O O O O O O O O O O O O O O O O O O O O O O O O O O O O $ w r r r r r r r r w ; O O O O O O O O O O O O O O O O O O O O O O O O O O O O O O O O O O O O O O O o o o o . X X X X X X . . . . . . . . . . . . . X X o o o o o o O O O O O O O O o o o o O O O O O O O O O O O O O O O O O O O O O O O O O O O ; w r r r r r r r r w $ O O O O O O O O O O O O O O O O O O O O O O O O O O O O O O O O O O O O O O O O O O O O O O O O O O O O O O O O O O O O X ",
"X . O O O O O O O O O O O O O O O O O O O O O O O O O O O O O O O O O O O O O O O O O O O O O O O O O O O O O O O O O O O O + 5 r r r r r r r r r w $ O O O O O O O O O O O O O O O O O O O O O O O O O O O O O O O O O O O O O O O O O o o o o O O O O O O O O O O O O o o o o O O O O O O O O O o o o O O O O O O O O O O O O O O O O O O O O O O O O O O O O O O O O O $ w r r r r r r r r r 5 + O O O O O O O O O O O O O O O O O O O O O O O O O O O O O O O O O O O O O O O O O O O O O O O O O O O O O O O O O O O O . X ",
"X . o O O O O O O O O O O O O O O O O O O O O O O O O O O O O O O O O O O O O O O O O O O O O O O O O O O O O O O O O O O O O O ; w r r r r r r r r r 5 @ O O O O O O O O O O O O O O O O O O O O O O O O O O O O O O O O O O O O O O O o o o o O O O O O O O O O O O O o o o o O O O O O O O O O o o o O O O O O O O O O O O O O O O O O O O O O O O O O O O O O O O @ 5 r r r r r r r r r w & O O O O O O O O O O O O O O O O O O O O O O O O O O O O O O O O O O O O O O O O O O O O O O O O O O O O O O O O O O O O O o X X ",
"X X o O O O O O O O O O O O O O O O O O O O O O O O O O O O O O O O O O O O O O O O O O O O O O O O O O O O O O O O O O O O O O O + 5 r r r r r r r r r r ; + O O O O O O O O O O O O O O O O O O O O O O O O O O O O O O O O O O O O O O O o o O O O O O O O O O O O O O o o o O O O O O O O O O O o O O O O O O O O O O O O O O O O O O O O O O O O O O O O O O + ; r r r r r r r r r r 5 + O O O O O O O O O O O O O O O O O O O O O O O O O O O O O O O O O O O O O O O O O O O O O O O O O O O O O O O O O O O O O O O X X ",
"X X o O O O O O O O O O O O O O O O O O O O O O O O O O O O O O O O O O O O O O O O O O O O O O O O O O O O O O O O O O O O O O O O O & w r r r r r r r r r r ; + O O O O O O O O O O O O O O O O O O O O O O O O O O O O O O O O O O O O O o o O O O O O O O O O O O O O o o o O O O O O O O O O O O O O O O O O O O O O O O O O O O O O O O O O O O O O O O + ; r r r r r r r r r r w & O O O O O O O O O O O O O O O O O O O O O O O O O O O O O O O O O O O O O O O O O O O O O O O O O O O O O O O O O O O O O O O O o X X ",
"X X X O O O O O O O O O O O O O O O O O O O O O O O O O O O O O O O O O O O O O O O O O O O O O O O O O O O O O O O O O O O O O O O O O + 5 r r r r r r r r r r r ; + O O O O O O O O O O O O O O O O O O O O O O O O O O O O O O O O O O O O O O O O O O O O O O O O O O O O O O O O O O O O O O O O O O O O O O O O O O O O O O O O O O O O O O O O O O + ; r r r r r r r r r r r 5 + O O O O O O O O O O O O O O O O O O O O O O O O O O O O O O O O O O O O O O O O O O O O O O O O O O O O O O O O O O O O O O O O O X X X ",
"X X X o O O O O O O O O O O O O O O O O O O O O O O O O O O O O O O O O O O O O O O O O O O O O O O O O O O O O O O O O O O O O O O O O O O @ 5 r r r r r r r r r r r 5 $ O O O O O O O O O O O O O O O O O O O O O O O O O O O O O O O O O O O O O O O O O O O O O O O O O O O O O O O O O O O O O O O O O O O O O O O O O O O O O O O O O O O O O O @ ; r r r r r r r r r r r 5 @ O O O O O O O O O O O O O O O O O O O O O O O O O O O O O O O O O O O O O O O O O O O O O O O O O O O O O O O O O O O O O O O O O O O X X X ",
"X X X . O O O O O O O O O O O O O O O O O O O O O O O O O O O O O O O O O O O O O O O O O O O O O O O O O O O O O O O O O O O O O O O O O O O O & w r r r r r r r r r r r 5 $ O O O O O O O O O O O O O O O O O O O O O O O O O O O O O O O O O O O O O O O O O O O O O O O O O O O O O O O O O O O O O O O O O O O O O O O O O O O O O O O O O O $ 5 r r r r r r r r r r r w & O O O O O O O O O O O O O O O O O O O O O O O O O O O O O O O O O O O O O O O O O O O O O O O O O O O O O O O O O O O O O O O O O O O O . X X X ",
"X X X X o O O O O O O O O O O O O O O O O O O O O O O O O O O O O O O O O O O O O O O O O O O O O O O O O O O O O O O O O O O O O O O O O O O O O O ; r r r r r r r r r r r r w ; + O O O O O O O O O O O O O O O O O O O O O O O O O O O O O O O O O O O O O O O O O O O O O O O O O O O O O O O O O O O O O O O O O O O O O O O O O O O O + ; w r r r r r r r r r r r r ; O O O O O O O O O O O O O O O O O O O O O O O O O O O O O O O O O O O O O O O O O O O O O O O O O O O O O O O O O O O O O O O O O O O O O O X X X X ",
"X X X X o O O O O O O O O O O O O O O O O O O O O O O O O O O O O O O O O O O O O O O O O O O O O O O O O O O O O O O O O O O O O O O O O O O O O O O + ; w r r r r r r r r r r r r 5 & O O O O O O O O O O O O O O O O O O O O O O O O O O O O O O O O O O O O O O O O O O O O O O O O O O O O O O O O O O O O O O O O O O O O O O O O & 5 r r r r r r r r r r r r r ; + O O O O O O O O O O O O O O O O O O O O O O O O O O O O O O O O O O O O O O O O O O O O O O O O O O O O O O O O O O O O O O O O O O O O O O X X X X X ",
"X X X X X O O O O O O O O O O O O O O O O O O O O O O O O O O O O O O O O O O O O O O O O O O O O O O O O O O O O O O O O O O O O O O O O O O O O O O O O + ; w r r r r r r r r r r r r r 5 & O O O O O O O O O O O O O O O O O O O O O O O O O O O O O O O O O O O O O O O O O O O O O O O O O O O O O O O O O O O O O O O O O O & 5 r r r r r r r r r r r r r w ; + O O O O O O O O O O O O O O O O O O O O O O O O O O O O O O O O O O O O O O O O O O O O O O O O O O O O O O O O O O O O O O O O O O O O O O O O X X X X X ",
"X X X X X o O O O O O O O O O O O O O O O O O O O O O O O O O O O O O O O O O O O O O O O O O O O O O O O O O O O O O O O O O O O O O O O O O O O O O O O O O + ; q r r r r r r r r r r r r r w 5 & + O O O O O O O O O O O O O O O O O O O O O O O O O O O O O O O O O O O O O O O O O O O O O O O O O O O O O O O O O O + & 5 w r r r r r r r r r r r r r q ; + O O O O O O O O O O O O O O O O O O O O O O O O O O O O O O O O O O O O O O O O O O O O O O O O O O O O O O O O O O O O O O O O O O O O O O O O O o X X X X X ",
"X X X X X X X O O O O O O O O O O O O O O O O O O O O O O O O O O O O O O O O O O O O O O O O O O O O O O O O O O O O O O O O O O O O O O O O O O O O O O O O O O O & 5 r r r r r r r r r r r r r r r 5 ; $ O O O O O O O O O O O O O O O O O O O O O O O O O O O O O O O O O O O O O O O O O O O O O O O O X X O O $ ; 5 r r r r r r r r r r r r r r r 5 & O O O O O O O O O O O O O O O O O O O O O O O O O O O O O O O O O O O O O O O O O O O O O O O O O O O O O O O O O O O O O O O O O O O O O O O O O O O o X X X X X X ",
"X X X X X X . O O O O O O O O O O O O O O O O O O O O O O O O O O O O O O O O O O O O O O O O O O O O O O O O O O O O O O O O O O O O O O O O O O O O O O O O O O O O O $ 5 r r r r r r r r r r r r r r r r r 5 ; $ + O O X X X X X X O O O O O O O O O O O O O O O O O X X X X O O O O O O X O X X X X X + $ ; 5 r r r r r r r r r r r r r r r r r 5 $ O O O O O O O O O O O O O O O O O O O O O O O O O O O O O O O O O O O O O O O O O O O O O O O O O O O O O O O O O O O O O O O O O O O O O O O O O O O O O X X X X X X X ",
"X X X X X X X o o o o o o o o o o o o o o o o o o o o o o o o o o o o o o o o o o o o o o o o o o o o o o o o o o o o o o o o o o o o o o o o o o o o o o o o o o o o o o o O & 5 r r r r r r r r r r r r r r r r r r w 5 ; & @ + O . o o o o o o o o o o o o o . o o o . . . . o o o o o o O + @ $ ; 5 q r r r r r r r r r r r r r r r r r r 5 & O o o o o o o o o o o o o o o o o o o o o o o o o o o o o o o o o o o o o o o o o o o o o o o o o o o o o o o o o o o o o o o o o o o o o o o o o o o o o o o X X X X X X X X ",
"X X X X X X X . o o o o o o o o o o o o o o o o o o o o o o o o o o o o o o o o o o o o o o o o o o o o o o o o o o o o o o o o o o o o o o o o o o o o o o o o o o o o o o o o . @ ; q r r r r r r r r r r r r r r r r r r r r r r 5 5 ; ; & $ @ @ + + O O O o . O O O + + @ @ $ & ; ; 5 5 r r r r r r r r r r r r r r r r r r r r r r q ; @ o o o o o o o o o o o o o o o o o o o o o o o o o o o o o o o o o o o o o o o o o o o o o o o o o o o o o o o o o o o o o o o o o o o o o o o o o o o o o o o o o o X X X X X X X ",
"X X X X X X X X X o o o o o o o o o o o o o o o o o o o o o o o o o o o o o o o o o o o o o o o o o o o o o o o o o o o o o o o o o o o o o o o o o o o o o o o o o o o o o o o . . o O @ ; q r r r r r r r r r r r r r r r r r r r r r r r r r r r r r r r r r r r r r r r r r r r r r r r r r r r r r r r r r r r r r r r r r r q ; @ O o o o o o o o o o o o o o o o o o o o o o o o o o o o o o o o o o o o o o o o o o o o o o o o o o o o o o o o o o o o o o o o o o o o o o o o o o o o o o o o o o o o X X X X X X X X ",
"X X X X X X X X . o o o o o o o o o o o o o o o o o o o o o o o o o o o o o o o o o o o o o o o o o o o o o o o o o o o o o o o o o o o o o o o o o o o o o o o o o o o o o o o o o . o o o O @ & 5 q r r r r r r r r r r r r r r r r r r r r r r r r r r r r r r r r r r r r r r r r r r r r r r r r r r r r r r r r r r r 5 ; @ X . . o o o o o o o o o o o o o o o o o o o o o o o o o o o o o o o o o o o o o o o o o o o o o o o o o o o o o o o o o o o o o o o o o o o o o o o o o o o o o o o o o o o X X X X X X X X X ",
"X X X X X X X X X o o o o o o o o o o o o o o o o o o o o o o o o o o o o o o o o o o o o o o o o o o o o o o o o o o o o o o o o o o o o o o o o o o o o o o o o o o o o o o o o o o o o o o o . . O $ ; 5 w r r r r r r r r r r q r r r r r r r r r r r r r r r r r r r r r r r r r r r r r r r r r r r r r r r q 5 ; $ O o o . . . . o o o o o o o o o o o o o o o o o o o o o o o o o o o o o o o o o o o o o o o o o o o o o o o o o o o o o o o o o o o o o o o o o o o o o o o o o o o o o o o o o o X X X X X X X X X X ",
"X X X X X X X X X X o o o o o o o o o o o o o o o o o o o o o o o o o o o o o o o o o o o o o o o o o o o o o o o o o o o o o o o o o o o o o o o o o o o o o o o o o o o o o o o O o O o o o o o o . . . o O @ ; 5 q r r r r r r r r r r r r r r r r r r r r r r r r r r r q r r r r r r r r r r r r r r q 5 ; @ O . o o o o o o o o o o o o o o o o o o o o o o o o o o o o o o o o o o o o o o o o o o o o o o o o o o o o o o o o o o o o o o o o o o o o o o o o o o o o o o o o o o o o o o o o o o X X X X X X X X X X X ",
"X X X X X X X X X X . . . o o o o o o o o o o o o o o o o o o o o o o o o o o o o o o o o o o o o o o o o o o o o o o o o o o o o o o o o o o o o o o o o o o o o o o o o o o o o O O O o o o o o o o . . X X o . . . O @ $ ; 5 q r r r r r r r r r r r r r r r r r r r r r r r r r r r r r r q 5 ; $ @ O . o o o . . o o o o o O o o o o o o o o o o o o o o o o o o o o o o o o o o o o o o o o o o o o o o o o o o o o o o o o o o o o o o o o o o o o o o o o o o o o o o o o o o o o o o o o o o . X X X X X X X X X X X X ",
"X X X X X X X X X X X X X o o o o o o o o o o o o o o o o o o o o o o o o o o o o o o o o o o o o o o o o o o o o o o o o o o o o o o o o o o o o o o o o o o o o o o o o o o o o o o o o o o o o o o o o o o o o o o o o o o o o O + @ & ; ; ; 5 5 5 5 q q w r r q q q 5 5 5 5 ; ; ; & @ + X . X o O o o o o o o o o o o o o o O O o o o o o o o o o o o o o o o o o o o o o o o o o o o o o o o o o o o o o o o o o o o o o o o o o o o o o o o o o o o o o o o o o o o o o o o o o o o o o o o o o . X X X X X X X X X X X X ",
"X X X X X X X X X X X X X X o o o o o o o o o o o o o o o o o o o o o o o o o o o o o o o o o o o o o o o o o o o o o o o o o o o o o o o o o o o o o o o o o o o o o o o o o o o o o o o o o o o o o o o o o o o o o o o o o o o o o o o o o o o o o o o o o o o o o o o o o o o o o o o o o o o o O o o o o o o o o o o o o o O O o o o o o o o o o o o o o o o o o o o o o o o o o o o o o o o o o o o o o o o o o o o o o o o o o o o o o o o o o o o o o o o o o o o o o o o o o o o o o o o o o X X X X X X X X X X X X X ",
"X X X X X X X X X X X X X X X o o o o o o o o o o o o o o o o o o o o o o o o o o o o o o o o o o o o o o o o o o o o o o o o o o o o o o o o o o o o o o o o o o o o o o o o o o o o o o o o o o o o o o o o o o o o o o o o o o o o o . . o o o o o o o o o o o o o o o o o o o o o o o o o o o o o o o o o o o o o o o o o o O o o o o o o o o o o o o o o o o o o o o o o o o o o o o o o o o o o o o o o o o o o o o o o o o o o o o o o o o o o o o o o o o o o o o o o o o o o o o o o o o o . . X X X X X X X X X X X X ",
"X X X X X X X X X X X X X X X X o o o o o o o o o o O O o o o o o o o o o o o o o o O O o o o o o o o o o o o o o o O O o o o o o o o o o o o o o o O O o o o o o o o o o o o o o o O O o o o o o o o o o o o o o o O O o o o o o o o o . o o o o o O O o o o o o o o o o o o o o o O O o o o o o o o o o o o o o o O O o o o o o o o o o o o o o o O O o o o o o o o o o o o o o o O O o o o o o o o o o o o o o o O O o o o o o o o o o o o o o o O O o o o o o o o o o o o o o o o o o o o o . . . . X X X X X X X X X X X X ",
"X X X X X X X X X X X X X X X X X o o o o o o o o o O O o o o o O O O o o o o o o o O O o o o o O O O o o o o o o o O O o o o o O O O o o o o o o o O O o o o o O O O o o o o o o o O O o o o o O O O o o o o o o o O O o o o o O o o o o o o o o o O O o o o o O O O o o o o o o o O O o o o o O O O o o o o o o o O O o o o o O O O o o o o o o o O O o o o o O O O o o o o o o o O O o o o o O O O o o o o o o o O O o o o o O O O o o o o o o o O O o o o o O O O o o o o o o o o o o o o X X X X X X X X X X X X X X X X X ",
"X X X X X X X X X X X X X X X X . o o o o o o o o o O O o o o o O O O o o o o o o o O O o o o o O O O o o o o o o o O O o o o o O O O o o o o o o o O O o o o o O O O o o o o o o o O O o o o o O O O o o o o o o o O O o o o o o o o o o o o o o o O O o o o o O O O o o o o o o o O O o o o o O O O o o o o o o o O O o o o o O O O o o o o o o o O O o o o o O O O o o o o o o o O O o o o o O O O o o o o o o o O O o o o o O O O o o o o o o o O O o o o o O O O o o o o o o o o o o o X X X X X X X X X X X X X X X X X X ",
"X X X X X X X X X X X X X X X X X X o . o o o o o o o o o o o o O o o o o o o o o o o o o o o o O o o o o o o o o o o o o o o o O o o o o o o o o o o o o o o o O o o o o o o o o o o o o o o o O o o o o o o o o o o o o o o o o o o o O O o o o o o o o o o o O o o o o o o o o o o o o o o o O o o o o o o o o o o o o o o o O o o o o o o o o o o o o o o o O o o o o o o o o o o o o o o o O o o o o o o o o o o o o o o o O o o o o o o o o o o o o o o o O o o o o o o o o o o o X X X X X X X X X X X X X X X X X X X X ",
"X X X X X X X X X X X X X X X X X X . . . . . . . . . . . . X X X X . . . . . . . . . . . . X X X X . . . . . . . . . . . . X X X X . . . . . . . . . . . . X X X X . . . . . . . . . . . . X X X . . . . . . . . . . . . . X X X . . . . X X . . . . . . . X X X . . . . . . . . . . . . . X X X . . . . . . . . . . . . . X X X . . . . . . . . . . . . . X X X X . . . . . . . . . . . . X X X X . . . . . . . . . . . . X X X X . . . . . . . . . . . . X X X X . . . . . . . . . X X X X X X X X X X X X X X X X X X X X X ",
"X X X X X X X X X X X X X X X X X X X X X X X X X X X X X X X X . . . . X X X X X . . . X X X X . . . . X X X X X . . . X X X X . . . . X X X X X . . . X X X X . . . . X X X X X . . . X X X X . . . . X X X X X . . . X X X X . . . . X X X X X . . . X X X X . . . . X X X X X . . . X X X X . . . . X X X X X . . . X X X X . . . . X X X X X . . . X X X X . . . . X X X X X . . . X X X X . . . . X X X X X . . . X X X X . . . . X X X X X . . . X X X X . . . . X X X X X . X X X X X X X X X X X X X X X X X X X X X X ",
"X X X X X X X X X X X X X X X X X X X X X X X X X X X X X X X X X X X X X X X X X X X X X X X X X X X X X X X X X X X X X X X X X X X X X X X X X X X X X X X X X X X X X X X X X X X X X X X X X X X X X X X X X X X X X X X X X X X X X X X X X X X X X X X X X X X X X X X X X X X X X X X X X X X X X X X X X X X X X X X X X X X X X X X X X X X X X X X X X X X X X X X X X X X X X X X X X X X X X X X X X X X X X X X X X X X X X X X X X X X X X X X X X X X X X X X X X X X X X X X X X X X X X X X X X X X X X X X X ",
"X X X X X X X X X X X X X X X X X X X X X X X X X X X X X X X X X X X X X X X X X X X X X X X X X X X X X X X X X X X X X X X X X X X X X X X X X X X X X X X X X X X X X X X X X X X X X X X X X X X X X X X X X X X X X X X X X X X X X X X X X X X X X X X X X X X X X X X X X X X X X X X X X X X X X X X X X X X X X X X X X X X X X X X X X X X X X X X X X X X X X X X X X X X X X X X X X X X X X X X X X X X X X X X X X X X X X X X X X X X X X X X X X X X X X X X X X X X X X X X X X X X X X X X X X X X X X X X X ",
"X X X X X X X X X X X X X X X X X X X X X X X X X X X X X X X X X X X X X X X X X X X X X X X X X X X X X X X X X X X X X X X X X X X X X X X X X X X X X X X X X X X X X X X X X X X X X X X X X X X X X X X X X X X X X X X X X X X X X X X X X X X X X X X X X X X X X X X X X X X X X X X X X X X X X X X X X X X X X X X X X X X X X X X X X X X X X X X X X X X X X X X X X X X X X X X X X X X X X X X X X X X X X X X X X X X X X X X X X X X X X X X X X X X X X X X X X X X X X X X X X X X X X X X X X X X X X X X X ",
"X X X X X X X X X X X X X X X X X X X X X X X X X X X X X X X X X X X X X X X X X X X X X X X X X X X X X X X X X X X X X X X X X X X X X X X X X X X X X X X X X X X X X X X X X X X X X X X X X X X X X X X X X X X X X X X X X X X X X X X X X X X X X X X X X X X X X X X X X X X X X X X X X X X X X X X X X X X X X X X X X X X X X X X X X X X X X X X X X X X X X X X X X X X X X X X X X X X X X X X X X X X X X X X X X X X X X X X X X X X X X X X X X X X X X X X X X X X X X X X X X X X X X X X X X X X X X X X X ",
"X X X X X X X X X X X X X X X X X X X X X X X X X X X X X X X X X X X X X X X X X X X X X X X X X X X X X X X X X X X X X X X X X X X X X X X X X X X X X X X X X X X X X X X X X X X X X X X X X X X X X X X X X X X X X X X X X X X X X X X X X X X X X X X X X X X X X X X X X X X X X X X X X X X X X X X X X X X X X X X X X X X X X X X X X X X X X X X X X X X X X X X X X X X X X X X X X X X X X X X X X X X X X X X X X X X X X X X X X X X X X X X X X X X X X X X X X X X X X X X X X X X X X X X X X X X X X X X X ",
"X X X X X X X X X X X X X X X X X X X X X X X X X X X X X X X X X X X X X X X X X X X X X X X X X X X X X X X X X X X X X X X X X X X X X X X X X X X X X X X X X X X X X X X X X X X X X X X X X X X X X X X X X X X X X X X X X X X X X X X X X X X X X X X X X X X X X X X X X X X X X X X X X X X X X X X X X X X X X X X X X X X X X X X X X X X X X X X X X X X X X X X X X X X X X X X X X X X X X X X X X X X X X X X X X X X X X X X X X X X X X X X X X X X X X X X X X X X X X X X X X X X X X X X X X X X X X X X X ",
"X X X X X X X X X X X X X X X X X X X X X X X X X X X X X X X X X X X X X X X X X X X X X X X X X X X X X X X X X X X X X X X X X X X X X X X X X X X X X X X X X X X X X X X X X X X X X X X X X X X X X X X X X X X X X X X X X X X X X X X X X X X X X X X X X X X X X X X X X X X X X X X X X X X X X X X X X X X X X X X X X X X X X X X X X X X X X X X X X X X X X X X X X X X X X X X X X X X X X X X X X X X X X X X X X X X X X X X X X X X X X X X X X X X X X X X X X X X X X X X X X X X X X X X X X X X X X X X X "
};
