/* XPM */
static char *whippet64[] = {
/* columns rows colors chars-per-pixel */
"64 64 165 2 ",
"   c #0E1526",
".  c #0F1729",
"X  c #0F182A",
"o  c #101727",
"O  c #101729",
"+  c #11192C",
"@  c #151E31",
"#  c #162134",
"$  c #192336",
"%  c #15253A",
"&  c #1C2639",
"*  c #16293E",
"=  c #1D293B",
"-  c #162C43",
";  c #1A2D42",
":  c #173047",
">  c #1D3146",
",  c #17334C",
"<  c #1C344C",
"1  c #173650",
"2  c #193751",
"3  c #1C3A54",
"4  c #1D3E58",
"5  c #20364C",
"6  c #203C54",
"7  c #203F58",
"8  c #1E415B",
"9  c #21435D",
"0  c #1E4B69",
"q  c #244761",
"w  c #234965",
"e  c #244D6A",
"r  c #294E69",
"t  c #24506D",
"y  c #28526F",
"u  c #255675",
"i  c #2B5774",
"p  c #2C5875",
"a  c #245A7A",
"s  c #295C7B",
"d  c #305773",
"f  c #305874",
"g  c #32617F",
"h  c #38637F",
"j  c #2E6484",
"k  c #2B6689",
"l  c #2D6B8E",
"z  c #336685",
"x  c #366887",
"c  c #306788",
"v  c #356B8B",
"b  c #3C6D8B",
"n  c #326F91",
"m  c #297097",
"M  c #2D7398",
"N  c #347397",
"B  c #397597",
"V  c #337599",
"C  c #387699",
"Z  c #3B799B",
"A  c #2D79A1",
"S  c #357DA2",
"D  c #397DA2",
"F  c #407798",
"G  c #427A9B",
"H  c #3D80A5",
"J  c #3585AE",
"K  c #3B86AE",
"L  c #3B88AF",
"P  c #2F8DBB",
"I  c #3E8BB2",
"U  c #348DB9",
"Y  c #3A8EB8",
"T  c #4481A4",
"R  c #448AAF",
"E  c #4F8DAF",
"W  c #448DB3",
"Q  c #4492BA",
"!  c #4893BA",
"~  c #4A98BF",
"^  c #5196BA",
"/  c #3394C3",
"(  c #3994C0",
")  c #3D9AC7",
"_  c #3799C8",
"`  c #37A2D4",
"'  c #3FA6D6",
"]  c #3CABDE",
"[  c #37ACE1",
"{  c #38ADE1",
"}  c #3FB1E5",
"|  c #3CBCF6",
" . c #3EBFF8",
".. c #4598C2",
"X. c #4B9AC2",
"o. c #479EC9",
"O. c #539DC3",
"+. c #43A1CE",
"@. c #55A6CF",
"#. c #47A7D6",
"$. c #49A5D2",
"%. c #4CA9D6",
"&. c #46AADA",
"*. c #4DADDB",
"=. c #50A7D1",
"-. c #54AAD4",
";. c #5EAED5",
":. c #55AED9",
">. c #4FB0DF",
",. c #54B2DE",
"<. c #63B0D7",
"1. c #61B0D8",
"2. c #43AEE0",
"3. c #44AFE1",
"4. c #43B0E3",
"5. c #46B2E3",
"6. c #4CB3E3",
"7. c #4FB3E2",
"8. c #4CB9EC",
"9. c #50B3E1",
"0. c #54B4E1",
"q. c #52B6E5",
"w. c #5BB6E1",
"e. c #56B8E6",
"r. c #50B7E8",
"t. c #52BBEC",
"y. c #5BBDEB",
"u. c #43BCF3",
"i. c #4BBEF2",
"p. c #62B6E0",
"a. c #65BAE3",
"s. c #68BBE3",
"d. c #3EC0FA",
"f. c #3CC1FC",
"g. c #5FC0EE",
"h. c #4FC2F5",
"j. c #40C0F8",
"k. c #44C2FA",
"l. c #42C2FC",
"z. c #4CC3F9",
"x. c #4BC4FB",
"c. c #4CC5FB",
"v. c #4FC8FD",
"b. c #55C3F5",
"n. c #5CC4F3",
"m. c #50C5F9",
"M. c #53C6FA",
"N. c #52C6FB",
"B. c #57C7FA",
"V. c #5BC7F8",
"C. c #59C7FA",
"Z. c #55C8FD",
"A. c #5CC9FB",
"S. c #5AC9FC",
"D. c #5DCCFE",
"F. c #61C0ED",
"G. c #66C6F3",
"H. c #6CC7F2",
"J. c #65C9F7",
"K. c #6BC9F6",
"L. c #63CBFB",
"P. c #6BCDFB",
"I. c #70CFFB",
"U. c #6DD0FE",
"Y. c #72D1FD",
/* pixels */
"X X X X X X X + # $ & = = = = = = = = = = = = = = = = = = = = = = = = = = = = = = = = = = = = = = = = = = & $ # + o X X X X X X ",
"X X X X X + $ & = = = = = = = = = = = = = = = = = = = = = = = = = = = = = = = = = = = = = = = = = = = = = = = = & $ + X X X X X ",
"X X X X @ & = = = = = = = = = = = = = = = = = = = = = = = = = = = = = = = = = = = = = = = = = = = = = = = = = = = = & @ X X X X ",
"X X X @ & = = = = = = = = = = = = = = = = = = = & = = = = ; > > > > ; = = = = = = = = = = = = = = = = = = = = = = = = = @ X X X ",
"X X @ & = = = = = = = = = = = = = = = = = = = = > 5 7 9 9 9 9 9 9 9 9 9 9 7 5 > = = & = = = = = = = = = = = = = = = = = & @ X X ",
"X + & & & & & & & & = = = & & & & & & & = > 6 9 9 9 7 6 5 < > > > > < 5 6 7 9 9 9 6 ; = & & & & & & & & & & & & & & & & = & + X ",
"O # & & & & & & & & & & & & & & & & = > 7 9 9 6 > = = & & & & & & & & & & = = > 6 9 9 7 > = & & & & & & & & & & & & & & & & # X ",
"+ & & & & & & & & & & & & & & & = > 7 9 7 < = & & & & & & & & & & & & & & & & & & = < 7 9 7 > = & & & & & & & & & & & & & & & + ",
"# & & & & & & & & & & & & & & = 3 9 7 < = & & & & & & & & & & & & & & & & & & & & & & = < 7 9 3 = & & & & & & & & & & & & & & @ ",
"$ & & & & & & & & & & & & & ; 7 9 < = & & & & & & $ $ @ + + + + + + + + @ $ $ & & & & & & = < 9 7 ; & & & & & & & & & & & & & $ ",
"$ & & & & & & & & & & & & > 9 7 ; & & & & & $ # + O O O O O O O O O O O O O O + # $ & & & & & ; 7 9 > & & & & & & & & & & & & $ ",
"& & & & & & & & & & & & < 9 6 = $ & & & $ # + O O O O O O O O O O O O O O O O O O + @ $ & & & & = 3 9 < & & & & & & & & & & & & ",
"& & & & & & & & & & & < 9 3 = $ & & $ # + O O O O O O O O O O O O O O O O O O O O O O + # & & & & = 3 9 < & & & & & & & & & & & ",
"$ $ $ $ & & $ $ $ $ > 9 3 & $ $ $ $ + O O O O O O O O O O O O O O O O O O O O O O O O O O + $ & $ $ & 3 9 > $ $ $ $ $ $ & & $ $ ",
"$ $ $ $ $ $ $ $ $ ; 9 3 = $ $ $ $ + O O O O O O O O O O O O O O O O O O O O O O O O O O O O + $ $ $ $ = 3 9 ; $ $ $ $ $ $ $ $ $ ",
"$ $ $ $ $ $ $ $ = 4 4 = $ $ $ # O o o O O O O O O O O O o o o o o O O O O O O O O O o o       O $ $ $ $ = 4 4 = $ $ $ $ $ $ $ $ ",
"$ $ $ $ $ $ $ $ < 8 ; & < < < - - - * + O O O O O O O # - - - - - # O O O O O O O + * ; ; ; ; = + $ $ $ $ ; 9 < & $ $ $ $ $ $ $ ",
"$ $ $ $ $ $ $ ; 8 < $ ; P [ [ [ [ { ` <   O O O O O O M 4.2.2.3.5.V O O O O O O   3 %.6.6.9.q.Q # + $ $ $ $ < 9 ; $ $ $ $ $ $ $ ",
"$ $ $ $ $ $ & 3 4 & $ $ J f.d.d.d.j.j.u   O O O O O # ) x.x.c.c.v.) # O O O O O   p m.S.S.S.D.H O O + $ $ $ & 4 3 & $ $ $ $ $ $ ",
"$ $ $ $ $ $ ; 8 ; $ $ # a |  . . .j.l.A X X X X .   : 4.x.z.c.c.c.5.: X O . . . X D S.S.S.S.C.i   . O @ $ $ $ ; 8 ; $ $ $ $ $ $ ",
"$ $ $ $ $ & 3 3 & $ $ # < { d.u.j.j.l._ # X X X X   w i.c.c.c.c.m.i.w   X X X X # o.S.S.S.A.e.<   X X + $ $ $ & 3 3 & $ $ $ $ $ ",
"$ $ $ $ $ ; 8 : $ $ $ + @ / j.j.j.j.k.} ,   X X X   k c.c.c.c.m.m.m.k   X X X   < q.S.S.A.D.X.@ X X X X + $ $ $ > 8 ; $ $ $ $ $ ",
"$ $ $ $ $ < 4 & $ $ $ O   m j.j.j.k.k.u.t   X X X O J v.c.c.m.m.m.M.K O X X X   y C.A.A.A.L.B   X X X X O $ $ $ & 4 < $ $ $ $ $ ",
"$ $ $ $ & 4 < $ $ $ @ X   0 u.j.k.k.k.x.M   X X X # +.c.m.m.m.m.m.M.+.# X X X   C D.A.A.A.C.r   X X X X X @ $ $ $ < 4 & $ $ $ $ ",
"$ $ $ # = 4 ; # $ $ + X   - ] k.k.k.k.x.( @ X X   < 6.m.m.m.m.m.m.m.r.<   O X @ ..D.A.A.L.,.;   X X X X X + $ $ $ ; 8 ; $ $ $ $ ",
"$ $ $ # : 4 & # $ # O     + U x.k.k.z.x.2.-   X   e h.m.m.m.m.m.m.m.b.t   O   ; 0.D.A.L.L.! +   X X       O # $ $ & 4 , # $ # # ",
"$ $ $ $ 2 3 $ $ $ @ X X X   k k.k.z.z.z.i.w   X   n m.m.m.M.m.m.m.C.S.n   O   w C.A.L.L.L.v   X X X X     X @ $ $ $ 3 < $ $ $ $ ",
"$ $ # $ 3 < $ $ $ + X X X   8 u.z.z.z.z.c.l     + Y Z.m.M.M.m.m.C.C.S.W + O   v L.L.L.L.G.9   X X X     X X + $ $ $ < 3 $ # # $ ",
"# # # & 4 : # # # O   X X   % ' x.z.z.z.v.Y +   % #.Z.M.M.M.M.C.C.S.D.%.%   + ! L.L.L.L.:.=   X   X X X X   O # # # : 4 & # # # ",
"# # # & 4 ; # # # O     X   O J x.z.c.c.c.&.*   3 8.M.M.M.6.9.S.S.S.A.y.6   = :.L.L.L.L.R O X X   X X X X   O # # # ; 4 & # # # ",
"# # # = 4 ; @ # @ O X X X X   s z.c.c.c.m.i.9   i M.M.M.S.I W D.S.A.A.A.p   9 n.L.L.L.L.g           X X X X O @ # # ; 4 = # # # ",
"# # @ = 4 = @ # @ O X X X X   3 8.c.c.m.m.m.j   C M.M.C.S.z z A.A.A.A.L.Z   z L.L.L.L.F.6           X X X X O @ # @ = 4 = @ # # ",
"# # @ = 4 = # # @ O X X X X   # +.m.m.m.m.M.L @ Q S.C.S.b.9 9 n.A.A.A.L.~ @ W L.L.L.P.@.#   X X       X X X O @ # @ = 4 = # # # ",
"# # @ = 4 ; @ # @ O X X X X   X S Z.m.m.m.M.$.3 *.S.C.S.,.; ; ,.D.L.L.L.,.6 -.L.L.P.P.T X X X X         X X O @ @ @ = 4 = @ # # ",
"@ @ @ & 4 ; @ @ @ O X X         u m.m.m.M.M.t.c t.S.S.D...+ + X.L.L.L.L.g.x y.L.P.P.K.f   X X X     X X X X O @ @ @ ; 4 & @ @ @ ",
"@ @ @ # 4 ; @ @ @ O X X X       , 6.M.M.M.M.b.$.C.S.S.D.Z     Z L.L.L.L.L.-.J.P.P.P.a.<   X X X   X X X X X O @ @ @ ; 4 # @ @ @ ",
"@ @ @ # 3 , @ @ @ +   X X X X   @ ..M.m.m.m.C.C.S.S.A.C.i     i L.L.L.L.L.L.P.P.P.P.O.@   X     X X X X X X + @ @ @ , 3 # @ @ @ ",
"@ @ @ @ < 2 # @ @ + X X X X X X   N M.m.C.C.S.S.A.A.A.y.3     3 y.L.L.L.P.P.P.P.P.U.F           X   X X X X + @ @ # 2 < @ @ @ @ ",
"@ @ @ @ ; 3 # @ @ + X X   X X X   e b.C.C.S.S.A.A.A.L.=.#     # -.L.L.L.P.P.P.P.P.K.r   X X X X X X X X X X @ @ @ % 3 ; @ @ @ @ ",
"@ @ @ @ * 4 = @ @ @ O             ; >.S.S.S.A.A.A.A.L.R .     . R L.L.P.P.P.P.P.U.p.;                     O @ @ @ * 4 * @ @ @ @ ",
"@ @ @ + # 3 , @ @ @ +     X X     + Q S.S.A.A.A.A.L.L.z         x P.P.P.P.P.P.P.Y.^ +                     + @ @ @ , 3 # + @ @ @ ",
"@ @ @ @ @ , 3 # + @ + X             c S.A.A.A.A.L.L.n.q         q G.P.P.P.P.P.P.Y.b                     . + @ @ # 3 , @ @ @ @ @ ",
"@ @ @ @ @ * 3 - + @ @ +             9 n.A.A.A.L.L.L.,.;         ; w.P.P.P.P.P.I.H.9                   X + @ @ @ - 3 % + @ @ @ @ ",
"@ @ + + + @ < 2 @ + + + .           % -.D.L.L.L.L.L.X.+         + O.U.P.P.P.I.Y.1.*                   O + @ + # 2 < @ + + + + @ ",
"+ + + + + + * 3 * + + + +           X R L.L.L.L.L.L.Z             G U.P.P.I.I.Y.E .                 X + @ @ + - 3 * + + @ @ @ + ",
"+ + + + @ + @ < 2 # + + + O           g L.L.L.L.L.L.i             d P.Y.Y.Y.Y.Y.h                   O + @ @ # 2 < @ + + @ @ @ @ ",
"+ + + + @ + + * 3 - + + + + X         3 -.w.w.w.w.-.<             5 ;.a.a.a.s.<.6                 X + + + @ - 3 * + + + @ @ @ @ ",
"+ + + + + + + @ : 3 % + + + + X       . * ; ; ; ; = .             O = ; ; ; ; = O               X + + + + % 3 - + + + + + + + + ",
"+ + + + + + + + @ < 2 # + + + + X                                                             X + + + + # 2 < @ + + + + + + + + ",
"+ + + + + + + + + % 3 , @ + + + + X                                                         X + + + + @ , 3 % + + + + + + + + + ",
"+ + + + + + + + + + * 3 , @ + + + + . X                                                   X + + + + @ , 3 * + + + + + + + + + + ",
"+ + + + + + + + + + + - 3 , @ + + + + O                                               X O + + + + @ : 3 - + + + + + + + + + + + ",
"+ + + + + + + + + + + + - 3 , @ + + + + + o                                         o + + + + + @ , 3 - + + + + + + + + + + + + ",
"+ + + + + + + + + + + + + * 3 < % + + + + + + . X                             X . + + + + + + % < 3 * + + + + + + + + + + + + + ",
"+ + + + + + + + + + + + + + % , 3 - @ + + + + + + O . X X             X X . O + + + + + + @ - 3 , % + + + + + + + + + + + + + + ",
"O + + + + + + + + + + + + + + @ - 3 , * + + + + + + + + + + O O O O + + + + + + + + + + * , 3 - @ + + + + + + + + + + + + + + O ",
"O + + + + + + + + + + + + + + + + % , 3 , * @ + + + + + + + + + + + + + + + + + + @ * , 3 , % + + + + + + + + + + + + + + + + X ",
"X + + + + + + + + + + + + + + + + + + % , 3 1 - % @ + + + + + + O O O O + + @ % - 1 3 , % + + + + + + + + + + + + + + + + + O X ",
"X X + + + + O + + + O O + + + + O O O O + # - , 1 1 , - - % % % % % % - - , 1 1 , - # + O O + + O O . O + + + + O O O O O O X X ",
"X X X O O O O O O O O O O O O O O . O O O o O + # - - , 1 1 1 1 3 2 1 1 , - * # + O o O O O O O O O O O O O O O O O O O O X X X ",
"X X X X O O O O O O O + + O O O O O + + + O O O o . + + @ @ # # # # @ @ + + X X O O + + + O O O O O + + + O O O O O + + . X X X ",
"X X X X X O O O O O O O O O O O . . + + O O . . . . O . . O X X X X X X . O . . . . + + O O . . O O + + O O . . O O O . X X X X ",
"X X X X X X X X X X X X X X X X X . . . X X X X X X X X X X X X X X X X X X X X X X . . X X X X X X . X X X X X X X X X X X X X ",
"X X X X X X X X X X X X X X X X X X X X X X X X X X X X X X X X X X X X X X X X X X X X X X X X X X X X X X X X X X X X X X X X "
};
