/* XPM */
static char *whippet32[] = {
/* columns rows colors chars-per-pixel */
"32 32 121 2 ",
"   c #0E1526",
".  c #0F1729",
"X  c #0F182A",
"o  c #101727",
"O  c #111A2C",
"+  c #141E31",
"@  c #162134",
"#  c #192436",
"$  c #15253A",
"%  c #1B2639",
"&  c #16283E",
"*  c #1D283B",
"=  c #162C43",
"-  c #1D2E42",
";  c #1D3146",
":  c #1C344B",
">  c #1E384F",
",  c #1F3A52",
"<  c #1E3F59",
"1  c #20384F",
"2  c #203A51",
"3  c #1D425D",
"4  c #23435C",
"5  c #1D4763",
"6  c #264660",
"7  c #284760",
"8  c #254A64",
"9  c #2D4E68",
"0  c #25516D",
"q  c #2A536F",
"w  c #275573",
"e  c #275C7B",
"r  c #2B5D7C",
"t  c #305873",
"y  c #32617F",
"u  c #276487",
"i  c #2C6383",
"p  c #26678C",
"a  c #2B688A",
"s  c #316381",
"d  c #356886",
"f  c #386987",
"g  c #34698A",
"h  c #3C6A88",
"j  c #276D92",
"k  c #2C6E93",
"l  c #326F92",
"z  c #357193",
"x  c #397395",
"c  c #38779A",
"v  c #367DA3",
"b  c #397DA2",
"n  c #407392",
"m  c #427897",
"M  c #3385AE",
"N  c #3686B0",
"B  c #3788B1",
"V  c #3E8EB6",
"C  c #328EBB",
"Z  c #3191BF",
"A  c #4481A4",
"S  c #4386AB",
"D  c #448AAF",
"F  c #488BAF",
"G  c #438FB7",
"H  c #4595BD",
"J  c #3BA5D7",
"K  c #3CA9DC",
"L  c #479BC5",
"P  c #479EC9",
"I  c #499FC9",
"U  c #42A1CE",
"Y  c #56A0C5",
"T  c #55A7CF",
"R  c #42A4D3",
"E  c #4AA8D5",
"W  c #46ACDC",
"Q  c #52A7D1",
"!  c #55AAD4",
"~  c #52ADD9",
"^  c #4BB7E8",
"/  c #4CBBED",
"(  c #52B5E4",
")  c #55BEEE",
"_  c #5ABDEB",
"`  c #42BAF1",
"'  c #64BDE7",
"]  c #3EC3FE",
"[  c #43C2FB",
"{  c #4CC5FB",
"}  c #4EC8FE",
"|  c #54C0F2",
" . c #51C3F7",
".. c #57C4F6",
"X. c #5BC2F1",
"o. c #5CC1F0",
"O. c #51C5F9",
"+. c #56C7FA",
"@. c #52C7FC",
"#. c #59C7FA",
"$. c #55C9FD",
"%. c #5DCAFB",
"&. c #5BCAFC",
"*. c #5DCBFD",
"=. c #59CCFF",
"-. c #5ECCFE",
";. c #61C1EE",
":. c #63C7F6",
">. c #6CCAF6",
",. c #60C9F8",
"<. c #61CAFA",
"1. c #64CBFB",
"2. c #60CCFD",
"3. c #61CDFE",
"4. c #63CEFE",
"5. c #66CFFF",
"6. c #6BCEFB",
"7. c #71CDF9",
"8. c #68D0FF",
"9. c #6DD0FE",
"0. c #72D2FE",
/* pixels */
". . O @ % * * * * * * * * * * * * * * * * * * * * * * % @ O . . ",
". O # * * * * * * * * * * * - - - - * * * * * * * * * * * # O . ",
"O # * * % * * * % * * : 2 2 2 1 1 1 2 1 : * * % * * * * * * # O ",
"+ % % % % % % % * > 2 : - * * % % * * - : 2 > * % % % % % % % + ",
"# % % % % % % ; , ; * % # # @ @ + @ # # % * ; , ; % % % % % % # ",
"% % % % % % : > * # # O O O O O O O O O + # % * > : % % % % % % ",
"# % % % % : > % # + O o O O O O O O O O O O + # % > : % # # # % ",
"# # # # - > # @ O o O O O o       O O O O     O # % > - # # # # ",
"# # # * > - u k j 5 o O o : k k e O O o $ g z i @ # * , * # # # ",
"# # # : - % Z ] [ C O O   a } } W & .   8 ..-.H O + # - : # # # ",
"# # % > % + p [ [ K =   X N } { / <     g &.*.d   O @ % > % # # ",
"# # - - # O 3 ` [ ` 3   $ R O.O.O.r   O G -.X.4   . O # - - # # ",
"# # : * @ O $ J [ { u   : ^ O.O.$.b   & ~ 3.~ &   . O @ * : # # ",
"@ # : # + . O M { { B   0  .+.+.&.L O 4 o.3.D O . . . + # > # # ",
"@ % : @ O .   e { { R $ l $.| | &.( = s ,.1.y   . . . O @ : % @ ",
"@ % : @ O .   , ^ { / 3 V =.P I *.o.6 S 3.;.2   . . . O @ : % + ",
"+ $ : @ O .   $ U @.O.l E =.c c 3.,.x Q 8.Q @   . . . O @ : % + ",
"+ $ : @ O . .   v $.+.E ) #.q q ,.,.! ;.8.A   . . . . O @ : $ + ",
"+ @ : @ O . .   w +.#.#.%._ > > _ 3.1.6.6.t   . . . . O @ : @ + ",
"+ + : $ O .     : ( &.%.*.Q @ @ ! 5.6.6.' :   . . . . O $ ; + + ",
"+ + = = O O     + L *.%.3.D . . F 8.6.9.Y +         O + = = + + ",
"+ O @ : + O .     x 3.,.3.d     f 6.6.0.m         . O + : @ + + ",
"O O O = & O O     8 ,.3.:.6     7 >.0.7.9         O O & = + O O ",
"O O O @ : @ O O   $ d x d $     $ h n h $       o O @ : @ O O O ",
"O O O O $ = + O .                             . O + = $ O O O O ",
"O O O O O = = + O X                         X O + = = O O O O O ",
"O O O O O O & = + O O .                 . O O + = = O O O O O O ",
"O O O O O O O $ = $ O O O O . . . . O O O O $ = $ O O O O O O O ",
"O O O O O O O O + = = $ + O O O O O O + $ = = + O O O O O O O O ",
"X O O O O O O O O O + $ = = = = = = = = $ + O O O O O O O O X . ",
". . O O O O O X O O O . O O + + + + O O . X O X O O O O O . . . ",
". . . . . . . . . . . . . . . . . . . . . . . . . . . . . . . . "
};
